; generated by Slic3r 1.37.2.1-prusa3d-linux64 on 2018-11-01 at 15:33:20

; 

; external perimeters extrusion width = 0.42mm
; perimeters extrusion width = 0.45mm
; infill extrusion width = 0.45mm
; solid infill extrusion width = 0.45mm
; top infill extrusion width = 0.42mm
; first layer extrusion width = 0.42mm

M107 ; disable fan
M115 U3.1.0 ; tell printer latest fw version
M83  ; extruder relative mode
M104 S230 ; set extruder temp
M140 S85 ; set bed temp
M190 S85 ; wait for bed temp
M109 S230 ; wait for extruder temp
G28 W ; home all without mesh bed level
G80 ; mesh bed leveling
G1 Y-3.0 F1000.0 ; go outside pritn area
G1 X60.0 E9.0  F1000.0 ; intro line
G1 X100.0 E12.5  F1000.0 ; intro line
G92 E0.0
M900 K45
G21 ; set units to millimeters
G90 ; use absolute coordinates
M83 ; use relative distances for extrusion
;BEFORE_LAYER_CHANGE
;0.2


G1 E-0.80000 F2100.00000 ; retract
G1 Z0.600 F7200.000 ; lift Z
;AFTER_LAYER_CHANGE
;0.2
G1 X28.969 Y24.799 F7200.000 ; move to first skirt point
G1 Z0.200 F7200.000 ; restore layer Z
G1 E0.80000 F2100.00000 ; unretract
M204 S1000 ; adjust acceleration
G1 F1800
G1 X29.321 Y24.222 E0.02119 ; skirt
G1 X29.820 Y23.767 E0.02119 ; skirt
G1 X30.431 Y23.470 E0.02130 ; skirt
G1 X31.098 Y23.357 E0.02119 ; skirt
G1 X90.159 Y23.357 E1.85182 ; skirt
G1 X91.061 Y23.536 E0.02884 ; skirt
G1 X91.827 Y24.045 E0.02884 ; skirt
G1 X92.343 Y24.806 E0.02884 ; skirt
G1 X92.532 Y25.710 E0.02896 ; skirt
G1 X92.532 Y54.750 E0.91053 ; skirt
G1 X91.795 Y162.968 E3.39316 ; skirt
G1 X91.603 Y163.882 E0.02931 ; skirt
G1 X91.252 Y164.460 E0.02119 ; skirt
G1 X90.749 Y164.917 E0.02130 ; skirt
G1 X90.138 Y165.213 E0.02130 ; skirt
G1 X89.467 Y165.324 E0.02130 ; skirt
G1 X30.410 Y165.325 E1.85170 ; skirt
G1 X29.484 Y165.133 E0.02966 ; skirt
G1 X28.897 Y164.775 E0.02154 ; skirt
G1 X28.436 Y164.261 E0.02166 ; skirt
G1 X28.142 Y163.636 E0.02166 ; skirt
G1 X28.041 Y162.956 E0.02154 ; skirt
G1 X28.041 Y133.931 E0.91006 ; skirt
G1 X28.778 Y25.714 E3.39316 ; skirt
G1 X28.957 Y24.858 E0.02743 ; skirt
G1 F5760
G1 X29.321 Y24.222 E-0.25372 ; wipe and retract
G1 F5760
G1 X29.820 Y23.767 E-0.23403 ; wipe and retract
G1 F5760
G1 X30.431 Y23.470 E-0.23534 ; wipe and retract
G1 F5760
G1 X30.537 Y23.452 E-0.03691 ; wipe and retract
G1 E-0.04000 F2100.00000 ; retract
G1 Z0.800 F7200.000 ; lift Z
G1 X37.559 Y73.767 F7200.000 ; move to first perimeter point
G1 Z0.200 F7200.000 ; restore layer Z
G1 E0.80000 F2100.00000 ; unretract
G1 F1800
G1 X84.385 Y73.767 E1.46819 ; perimeter
G1 X84.385 Y77.868 E0.12857 ; perimeter
G1 X66.992 Y89.593 E0.65770 ; perimeter
G1 X54.944 Y89.593 E0.37774 ; perimeter
G1 X37.559 Y77.868 E0.65748 ; perimeter
G1 X37.559 Y73.827 E0.12669 ; perimeter
G1 X37.182 Y73.390 F7200.000 ; move to first perimeter point
G1 F1800
G1 X84.762 Y73.390 E1.49184 ; perimeter
G1 X84.762 Y78.069 E0.14669 ; perimeter
G1 X67.107 Y89.970 E0.66760 ; perimeter
G1 X54.829 Y89.970 E0.38497 ; perimeter
G1 X37.182 Y78.069 E0.66738 ; perimeter
G1 X37.182 Y73.450 E0.14480 ; perimeter
G1 X37.570 Y73.490 F7200.000 ; move inwards before travel
G1 F5760
G1 X39.377 Y73.447 E-0.76000 ; wipe and retract
G1 E-0.04000 F2100.00000 ; retract
G1 Z0.800 F7200.000 ; lift Z
G1 X40.064 Y79.421 F7200.000 ; move to first infill point
G1 Z0.200 F7200.000 ; restore layer Z
G1 E0.80000 F2100.00000 ; unretract
G1 F1800
G1 X37.842 Y77.199 E0.09943 ; infill
G1 X37.842 Y76.661 E0.01703 ; infill
G1 X41.717 Y80.536 E0.17342 ; infill
G1 F5760
G1 X40.165 Y78.984 E-0.76000 ; wipe and retract
G1 E-0.04000 F2100.00000 ; retract
G1 Z0.800 F7200.000 ; lift Z
G1 X43.370 Y81.651 F7200.000 ; move to first infill point
G1 Z0.200 F7200.000 ; restore layer Z
G1 E0.80000 F2100.00000 ; unretract
G1 F1800
G1 X37.842 Y76.123 E0.24741 ; infill
G1 X37.842 Y75.584 E0.01703 ; infill
G1 X45.024 Y82.766 E0.32140 ; infill
G1 F5760
G1 X43.472 Y81.214 E-0.76000 ; wipe and retract
G1 E-0.04000 F2100.00000 ; retract
G1 Z0.800 F7200.000 ; lift Z
G1 X46.677 Y83.881 F7200.000 ; move to first infill point
G1 Z0.200 F7200.000 ; restore layer Z
G1 E0.80000 F2100.00000 ; unretract
G1 F1800
G1 X37.842 Y75.046 E0.39539 ; infill
G1 X37.842 Y74.508 E0.01703 ; infill
G1 X48.330 Y84.996 E0.46938 ; infill
G1 F5760
G1 X46.779 Y83.444 E-0.76000 ; wipe and retract
G1 E-0.04000 F2100.00000 ; retract
G1 Z0.800 F7200.000 ; lift Z
G1 X49.983 Y86.111 F7200.000 ; move to first infill point
G1 Z0.200 F7200.000 ; restore layer Z
G1 E0.80000 F2100.00000 ; unretract
G1 F1800
G1 X37.923 Y74.050 E0.53977 ; infill
G1 X38.461 Y74.050 E0.01703 ; infill
G1 X51.637 Y87.226 E0.58967 ; infill
G1 F5760
G1 X50.085 Y85.674 E-0.76000 ; wipe and retract
G1 E-0.04000 F2100.00000 ; retract
G1 Z0.800 F7200.000 ; lift Z
G1 X53.290 Y88.341 F7200.000 ; move to first infill point
G1 Z0.200 F7200.000 ; restore layer Z
G1 E0.80000 F2100.00000 ; unretract
G1 F1800
G1 X38.999 Y74.050 E0.63958 ; infill
G1 X39.537 Y74.050 E0.01703 ; infill
G1 X54.943 Y89.456 E0.68948 ; infill
G1 X55.505 Y89.480 F7200.000 ; move to first infill point
G1 F1800
G1 X40.075 Y74.050 E0.69055 ; infill
G1 X40.614 Y74.050 E0.01703 ; infill
G1 X55.874 Y89.310 E0.68296 ; infill
G1 X56.412 Y89.310 E0.01703 ; infill
G1 X41.152 Y74.050 E0.68296 ; infill
G1 X41.690 Y74.050 E0.01703 ; infill
G1 X56.950 Y89.310 E0.68296 ; infill
G1 X57.489 Y89.310 E0.01703 ; infill
G1 X42.228 Y74.050 E0.68296 ; infill
G1 X42.767 Y74.050 E0.01703 ; infill
G1 X58.027 Y89.310 E0.68296 ; infill
G1 X58.565 Y89.310 E0.01703 ; infill
G1 X43.305 Y74.050 E0.68296 ; infill
G1 X43.843 Y74.050 E0.01703 ; infill
G1 X59.103 Y89.310 E0.68296 ; infill
G1 X59.642 Y89.310 E0.01703 ; infill
G1 X44.381 Y74.050 E0.68296 ; infill
G1 X44.919 Y74.050 E0.01703 ; infill
G1 X60.180 Y89.310 E0.68296 ; infill
G1 X60.718 Y89.310 E0.01703 ; infill
G1 X45.458 Y74.050 E0.68296 ; infill
G1 X45.996 Y74.050 E0.01703 ; infill
G1 X61.256 Y89.310 E0.68296 ; infill
G1 X61.794 Y89.310 E0.01703 ; infill
G1 X46.534 Y74.050 E0.68296 ; infill
G1 X47.072 Y74.050 E0.01703 ; infill
G1 X62.333 Y89.310 E0.68296 ; infill
G1 X62.871 Y89.310 E0.01703 ; infill
G1 X47.611 Y74.050 E0.68296 ; infill
G1 X48.149 Y74.050 E0.01703 ; infill
G1 X63.409 Y89.310 E0.68296 ; infill
G1 X63.947 Y89.310 E0.01703 ; infill
G1 X48.687 Y74.050 E0.68296 ; infill
G1 X49.225 Y74.050 E0.01703 ; infill
G1 X64.486 Y89.310 E0.68296 ; infill
G1 X65.024 Y89.310 E0.01703 ; infill
G1 X49.764 Y74.050 E0.68296 ; infill
G1 X50.302 Y74.050 E0.01703 ; infill
G1 X65.562 Y89.310 E0.68296 ; infill
G1 X66.100 Y89.310 E0.01703 ; infill
G1 X50.840 Y74.050 E0.68296 ; infill
G1 X51.378 Y74.050 E0.01703 ; infill
G1 X66.639 Y89.310 E0.68296 ; infill
G1 X66.905 Y89.310 E0.00844 ; infill
G1 X67.067 Y89.201 E0.00619 ; infill
G1 X51.916 Y74.050 E0.67807 ; infill
G1 X52.455 Y74.050 E0.01703 ; infill
G1 X67.389 Y88.984 E0.66837 ; infill
G1 X67.710 Y88.768 E0.01227 ; infill
G1 X52.993 Y74.050 E0.65867 ; infill
G1 X53.531 Y74.050 E0.01703 ; infill
G1 X68.032 Y88.551 E0.64897 ; infill
G1 X68.353 Y88.334 E0.01227 ; infill
G1 X54.069 Y74.050 E0.63927 ; infill
G1 X54.608 Y74.050 E0.01703 ; infill
G1 X68.675 Y88.117 E0.62957 ; infill
G1 X68.996 Y87.901 E0.01227 ; infill
G1 X55.146 Y74.050 E0.61987 ; infill
G1 X55.684 Y74.050 E0.01703 ; infill
G1 X69.318 Y87.684 E0.61017 ; infill
G1 X69.639 Y87.467 E0.01227 ; infill
G1 X56.222 Y74.050 E0.60047 ; infill
G1 X56.761 Y74.050 E0.01703 ; infill
G1 X69.961 Y87.250 E0.59077 ; infill
G1 X70.282 Y87.034 E0.01227 ; infill
G1 X57.299 Y74.050 E0.58107 ; infill
G1 X57.837 Y74.050 E0.01703 ; infill
G1 X70.604 Y86.817 E0.57137 ; infill
G1 X70.925 Y86.600 E0.01227 ; infill
G1 X58.375 Y74.050 E0.56167 ; infill
G1 X58.913 Y74.050 E0.01703 ; infill
G1 X71.247 Y86.384 E0.55197 ; infill
G1 X71.568 Y86.167 E0.01227 ; infill
G1 X59.452 Y74.050 E0.54227 ; infill
G1 X59.990 Y74.050 E0.01703 ; infill
G1 X71.890 Y85.950 E0.53257 ; infill
G1 X72.211 Y85.733 E0.01227 ; infill
G1 X60.528 Y74.050 E0.52287 ; infill
G1 X61.066 Y74.050 E0.01703 ; infill
G1 X72.533 Y85.517 E0.51317 ; infill
G1 X72.854 Y85.300 E0.01227 ; infill
G1 X61.605 Y74.050 E0.50348 ; infill
G1 X62.143 Y74.050 E0.01703 ; infill
G1 X73.176 Y85.083 E0.49378 ; infill
G1 X73.497 Y84.866 E0.01227 ; infill
G1 X62.681 Y74.050 E0.48408 ; infill
G1 X63.219 Y74.050 E0.01703 ; infill
G1 X73.819 Y84.650 E0.47438 ; infill
G1 X74.140 Y84.433 E0.01227 ; infill
G1 X63.758 Y74.050 E0.46468 ; infill
G1 X64.296 Y74.050 E0.01703 ; infill
G1 X74.462 Y84.216 E0.45498 ; infill
G1 X74.783 Y84.000 E0.01227 ; infill
G1 X64.834 Y74.050 E0.44528 ; infill
G1 X65.372 Y74.050 E0.01703 ; infill
G1 X75.105 Y83.783 E0.43558 ; infill
G1 X75.426 Y83.566 E0.01227 ; infill
G1 X65.910 Y74.050 E0.42588 ; infill
G1 X66.449 Y74.050 E0.01703 ; infill
G1 X75.748 Y83.349 E0.41618 ; infill
G1 X76.069 Y83.133 E0.01227 ; infill
G1 X66.987 Y74.050 E0.40648 ; infill
G1 X67.525 Y74.050 E0.01703 ; infill
G1 X76.391 Y82.916 E0.39678 ; infill
G1 X76.712 Y82.699 E0.01227 ; infill
G1 X68.063 Y74.050 E0.38708 ; infill
G1 X68.602 Y74.050 E0.01703 ; infill
G1 X77.034 Y82.482 E0.37738 ; infill
G1 X77.355 Y82.266 E0.01227 ; infill
G1 X69.140 Y74.050 E0.36768 ; infill
G1 X69.678 Y74.050 E0.01703 ; infill
G1 X77.677 Y82.049 E0.35798 ; infill
G1 X77.998 Y81.832 E0.01227 ; infill
G1 X70.216 Y74.050 E0.34828 ; infill
G1 X70.755 Y74.050 E0.01703 ; infill
G1 X78.320 Y81.616 E0.33858 ; infill
G1 X78.641 Y81.399 E0.01227 ; infill
G1 X71.293 Y74.050 E0.32889 ; infill
G1 X71.831 Y74.050 E0.01703 ; infill
G1 X78.963 Y81.182 E0.31919 ; infill
G1 X79.284 Y80.965 E0.01227 ; infill
G1 X72.369 Y74.050 E0.30949 ; infill
G1 X72.907 Y74.050 E0.01703 ; infill
G1 X79.606 Y80.749 E0.29979 ; infill
G1 X79.927 Y80.532 E0.01227 ; infill
G1 X73.446 Y74.050 E0.29009 ; infill
G1 X73.984 Y74.050 E0.01703 ; infill
G1 X80.249 Y80.315 E0.28039 ; infill
G1 X80.571 Y80.098 E0.01227 ; infill
G1 X74.522 Y74.050 E0.27069 ; infill
G1 X75.060 Y74.050 E0.01703 ; infill
G1 X80.892 Y79.882 E0.26099 ; infill
G1 X81.214 Y79.665 E0.01227 ; infill
G1 X75.599 Y74.050 E0.25129 ; infill
G1 X76.137 Y74.050 E0.01703 ; infill
G1 X81.535 Y79.448 E0.24159 ; infill
G1 X81.857 Y79.232 E0.01227 ; infill
G1 X76.675 Y74.050 E0.23189 ; infill
G1 X77.213 Y74.050 E0.01703 ; infill
G1 X82.178 Y79.015 E0.22219 ; infill
G1 X82.500 Y78.798 E0.01227 ; infill
G1 X77.752 Y74.050 E0.21249 ; infill
G1 X78.290 Y74.050 E0.01703 ; infill
G1 X82.821 Y78.581 E0.20279 ; infill
G1 X83.143 Y78.365 E0.01227 ; infill
G1 X78.828 Y74.050 E0.19309 ; infill
G1 X79.366 Y74.050 E0.01703 ; infill
G1 X83.464 Y78.148 E0.18339 ; infill
G1 X83.786 Y77.931 E0.01227 ; infill
G1 X79.904 Y74.050 E0.17369 ; infill
G1 X80.443 Y74.050 E0.01703 ; infill
G1 X84.102 Y77.710 E0.16379 ; infill
G1 X84.102 Y77.172 E0.01703 ; infill
G1 X80.981 Y74.050 E0.13970 ; infill
G1 X81.519 Y74.050 E0.01703 ; infill
G1 X84.102 Y76.633 E0.11561 ; infill
G1 X84.102 Y76.095 E0.01703 ; infill
G1 X82.057 Y74.050 E0.09152 ; infill
G1 X82.596 Y74.050 E0.01703 ; infill
G1 X84.102 Y75.557 E0.06744 ; infill
G1 X84.102 Y75.019 E0.01703 ; infill
G1 X83.134 Y74.050 E0.04335 ; infill
G1 X83.672 Y74.050 E0.01703 ; infill
G1 X84.272 Y74.650 E0.02685 ; infill
G1 F5760
G1 X83.672 Y74.050 E-0.29390 ; wipe and retract
G1 F5760
G1 X83.134 Y74.050 E-0.18642 ; wipe and retract
G1 F5760
G1 X83.705 Y74.621 E-0.27968 ; wipe and retract
G1 E-0.04000 F2100.00000 ; retract
G1 Z0.800 F7200.000 ; lift Z
G1 X70.385 Y71.593 F7200.000 ; move to first perimeter point
G1 Z0.200 F7200.000 ; restore layer Z
G1 E0.80000 F2100.00000 ; unretract
G1 F1800
G1 X51.559 Y71.593 E0.59027 ; perimeter
G1 X51.559 Y64.767 E0.21402 ; perimeter
G1 X70.385 Y64.767 E0.59027 ; perimeter
G1 X70.385 Y71.533 E0.21214 ; perimeter
G1 X70.762 Y71.970 F7200.000 ; move to first perimeter point
G1 F1800
G1 X51.182 Y71.970 E0.61392 ; perimeter
G1 X51.182 Y64.390 E0.23767 ; perimeter
G1 X70.762 Y64.390 E0.61392 ; perimeter
G1 X70.762 Y71.910 E0.23578 ; perimeter
G1 X70.365 Y71.921 F7200.000 ; move inwards before travel
G1 F5760
G1 X68.568 Y71.917 E-0.76000 ; wipe and retract
G1 E-0.04000 F2100.00000 ; retract
G1 Z0.800 F7200.000 ; lift Z
G1 X70.272 Y65.649 F7200.000 ; move to first infill point
G1 Z0.200 F7200.000 ; restore layer Z
G1 E0.80000 F2100.00000 ; unretract
G1 F1800
G1 X69.673 Y65.050 E0.02680 ; infill
G1 X69.135 Y65.050 E0.01700 ; infill
G1 X70.102 Y66.017 E0.04326 ; infill
G1 X70.102 Y66.555 E0.01700 ; infill
G1 X68.597 Y65.050 E0.06730 ; infill
G1 X68.059 Y65.050 E0.01700 ; infill
G1 X70.102 Y67.093 E0.09135 ; infill
G1 X70.102 Y67.631 E0.01700 ; infill
G1 X67.522 Y65.050 E0.11539 ; infill
G1 X66.984 Y65.050 E0.01700 ; infill
G1 X70.102 Y68.168 E0.13944 ; infill
G1 X70.102 Y68.706 E0.01700 ; infill
G1 X66.446 Y65.050 E0.16349 ; infill
G1 X65.908 Y65.050 E0.01700 ; infill
G1 X70.102 Y69.244 E0.18753 ; infill
G1 X70.102 Y69.782 E0.01700 ; infill
G1 X65.371 Y65.050 E0.21158 ; infill
G1 X64.833 Y65.050 E0.01700 ; infill
G1 X70.102 Y70.320 E0.23562 ; infill
G1 X70.102 Y70.857 E0.01700 ; infill
G1 X64.295 Y65.050 E0.25967 ; infill
G1 X63.757 Y65.050 E0.01700 ; infill
G1 X70.018 Y71.310 E0.27993 ; infill
G1 X69.480 Y71.310 E0.01700 ; infill
G1 X63.220 Y65.050 E0.27993 ; infill
G1 X62.682 Y65.050 E0.01700 ; infill
G1 X68.942 Y71.310 E0.27993 ; infill
G1 X68.404 Y71.310 E0.01700 ; infill
G1 X62.144 Y65.050 E0.27993 ; infill
G1 X61.606 Y65.050 E0.01700 ; infill
G1 X67.867 Y71.310 E0.27993 ; infill
G1 X67.329 Y71.310 E0.01700 ; infill
G1 X61.069 Y65.050 E0.27993 ; infill
G1 X60.531 Y65.050 E0.01700 ; infill
G1 X66.791 Y71.310 E0.27993 ; infill
G1 X66.253 Y71.310 E0.01700 ; infill
G1 X59.993 Y65.050 E0.27993 ; infill
G1 X59.455 Y65.050 E0.01700 ; infill
G1 X65.716 Y71.310 E0.27993 ; infill
G1 X65.178 Y71.310 E0.01700 ; infill
G1 X58.918 Y65.050 E0.27993 ; infill
G1 X58.380 Y65.050 E0.01700 ; infill
G1 X64.640 Y71.310 E0.27993 ; infill
G1 X64.102 Y71.310 E0.01700 ; infill
G1 X57.842 Y65.050 E0.27993 ; infill
G1 X57.304 Y65.050 E0.01700 ; infill
G1 X63.565 Y71.310 E0.27993 ; infill
G1 X63.027 Y71.310 E0.01700 ; infill
G1 X56.767 Y65.050 E0.27993 ; infill
G1 X56.229 Y65.050 E0.01700 ; infill
G1 X62.489 Y71.310 E0.27993 ; infill
G1 X61.951 Y71.310 E0.01700 ; infill
G1 X55.691 Y65.050 E0.27993 ; infill
G1 X55.153 Y65.050 E0.01700 ; infill
G1 X61.414 Y71.310 E0.27993 ; infill
G1 X60.876 Y71.310 E0.01700 ; infill
G1 X54.616 Y65.050 E0.27993 ; infill
G1 X54.078 Y65.050 E0.01700 ; infill
G1 X60.338 Y71.310 E0.27993 ; infill
G1 X59.800 Y71.310 E0.01700 ; infill
G1 X53.540 Y65.050 E0.27993 ; infill
G1 X53.002 Y65.050 E0.01700 ; infill
G1 X59.262 Y71.310 E0.27993 ; infill
G1 X58.725 Y71.310 E0.01700 ; infill
G1 X52.464 Y65.050 E0.27993 ; infill
G1 X51.927 Y65.050 E0.01700 ; infill
G1 X58.187 Y71.310 E0.27993 ; infill
G1 X57.649 Y71.310 E0.01700 ; infill
G1 X51.842 Y65.503 E0.25966 ; infill
G1 X51.842 Y66.041 E0.01700 ; infill
G1 X57.111 Y71.310 E0.23562 ; infill
G1 X56.574 Y71.310 E0.01700 ; infill
G1 X51.842 Y66.579 E0.21157 ; infill
G1 X51.842 Y67.117 E0.01700 ; infill
G1 X56.036 Y71.310 E0.18753 ; infill
G1 X55.498 Y71.310 E0.01700 ; infill
G1 X51.842 Y67.654 E0.16348 ; infill
G1 X51.842 Y68.192 E0.01700 ; infill
G1 X54.960 Y71.310 E0.13943 ; infill
G1 X54.423 Y71.310 E0.01700 ; infill
G1 X51.842 Y68.730 E0.11539 ; infill
G1 X51.842 Y69.268 E0.01700 ; infill
G1 X53.885 Y71.310 E0.09134 ; infill
G1 X53.347 Y71.310 E0.01700 ; infill
G1 X51.842 Y69.805 E0.06730 ; infill
G1 X51.842 Y70.343 E0.01700 ; infill
G1 X52.809 Y71.310 E0.04325 ; infill
G1 X52.272 Y71.310 E0.01700 ; infill
G1 X51.672 Y70.711 E0.02679 ; infill
G1 F5760
G1 X52.272 Y71.310 E-0.29350 ; wipe and retract
G1 F5760
G1 X52.809 Y71.310 E-0.18626 ; wipe and retract
G1 F5760
G1 X52.237 Y70.738 E-0.28025 ; wipe and retract
G1 E-0.04000 F2100.00000 ; retract
G1 Z0.800 F7200.000 ; lift Z
G1 X37.652 Y107.414 F7200.000 ; move to first perimeter point
G1 Z0.200 F7200.000 ; restore layer Z
G1 E0.80000 F2100.00000 ; unretract
G1 F1800
G1 X84.477 Y107.414 E1.46819 ; perimeter
G1 X84.477 Y111.515 E0.12857 ; perimeter
G1 X67.084 Y123.240 E0.65770 ; perimeter
