; generated by Slic3r 1.37.2.1-prusa3d-linux64 on 2018-10-23 at 12:54:49

; 

; external perimeters extrusion width = 0.42mm
; perimeters extrusion width = 0.45mm
; infill extrusion width = 0.45mm
; solid infill extrusion width = 0.45mm
; top infill extrusion width = 0.42mm
; first layer extrusion width = 0.42mm

M107 ; disable fan
M115 U3.1.0 ; tell printer latest fw version
M83  ; extruder relative mode
M104 S230 ; set extruder temp
M140 S85 ; set bed temp
M190 S85 ; wait for bed temp
M109 S230 ; wait for extruder temp
G28 W ; home all without mesh bed level
G80 ; mesh bed leveling
G1 Y-3.0 F1000.0 ; go outside pritn area
G1 X60.0 E9.0  F1000.0 ; intro line
G1 X100.0 E12.5  F1000.0 ; intro line
G92 E0.0
M900 K45
G21 ; set units to millimeters
G90 ; use absolute coordinates
M83 ; use relative distances for extrusion
;BEFORE_LAYER_CHANGE
;0.2


G1 E-0.80000 F2100.00000 ; retract
G1 Z0.600 F7200.000 ; lift Z
;AFTER_LAYER_CHANGE
;0.2
G1 X122.419 Y91.102 F7200.000 ; move to first skirt point
G1 Z0.200 F7200.000 ; restore layer Z
G1 E0.80000 F2100.00000 ; unretract
M204 S1000 ; adjust acceleration
G1 F1800
G1 X127.104 Y91.060 E0.14690 ; skirt
G1 X127.900 Y91.178 E0.02523 ; skirt
G1 X128.628 Y91.522 E0.02523 ; skirt
G1 X129.225 Y92.062 E0.02523 ; skirt
G1 X129.641 Y92.751 E0.02523 ; skirt
G1 X134.696 Y105.985 E0.44420 ; skirt
G1 X134.966 Y106.996 E0.03280 ; skirt
G1 X135.132 Y108.053 E0.03356 ; skirt
G1 X135.187 Y109.114 E0.03331 ; skirt
G1 X135.129 Y110.200 E0.03408 ; skirt
G1 X134.964 Y111.232 E0.03279 ; skirt
G1 X134.689 Y112.258 E0.03331 ; skirt
G1 X134.307 Y113.254 E0.03343 ; skirt
G1 X133.829 Y114.193 E0.03305 ; skirt
G1 X133.245 Y115.095 E0.03369 ; skirt
G1 X132.582 Y115.915 E0.03305 ; skirt
G1 X131.829 Y116.670 E0.03343 ; skirt
G1 X131.096 Y117.270 E0.02971 ; skirt
G1 X129.967 Y118.002 E0.04219 ; skirt
G1 X129.110 Y118.432 E0.03005 ; skirt
G1 X128.027 Y118.836 E0.03626 ; skirt
G1 X127.103 Y119.079 E0.02996 ; skirt
G1 X126.045 Y119.245 E0.03356 ; skirt
G1 X124.993 Y119.298 E0.03305 ; skirt
G1 X123.911 Y119.240 E0.03395 ; skirt
G1 X122.879 Y119.075 E0.03279 ; skirt
G1 X121.853 Y118.800 E0.03331 ; skirt
G1 X120.857 Y118.418 E0.03343 ; skirt
G1 X119.921 Y117.942 E0.03292 ; skirt
G1 X119.016 Y117.356 E0.03382 ; skirt
G1 X118.199 Y116.696 E0.03292 ; skirt
G1 X117.441 Y115.940 E0.03356 ; skirt
G1 X116.843 Y115.210 E0.02958 ; skirt
G1 X116.109 Y114.078 E0.04232 ; skirt
G1 X115.679 Y113.221 E0.03005 ; skirt
G1 X115.275 Y112.138 E0.03625 ; skirt
G1 X115.032 Y111.214 E0.02997 ; skirt
G1 X114.866 Y110.156 E0.03356 ; skirt
G1 X114.813 Y109.103 E0.03305 ; skirt
G1 X114.871 Y108.022 E0.03395 ; skirt
G1 X115.039 Y106.973 E0.03331 ; skirt
G1 X115.344 Y105.867 E0.03600 ; skirt
G1 X120.333 Y92.815 E0.43810 ; skirt
G1 X120.665 Y92.204 E0.02180 ; skirt
G1 X121.013 Y91.807 E0.01656 ; skirt
G1 X121.435 Y91.482 E0.01669 ; skirt
G1 X121.910 Y91.244 E0.01669 ; skirt
G1 X122.361 Y91.118 E0.01468 ; skirt
G1 X121.644 Y91.796 F7200.000 ; move to first skirt point
G1 F1800
G1 X122.519 Y91.467 E0.02931 ; skirt
G1 X127.104 Y91.437 E0.14375 ; skirt
G1 X127.794 Y91.540 E0.02190 ; skirt
G1 X128.425 Y91.840 E0.02190 ; skirt
G1 X128.941 Y92.310 E0.02190 ; skirt
G1 X129.300 Y92.914 E0.02201 ; skirt
G1 X134.335 Y106.095 E0.44240 ; skirt
G1 X134.596 Y107.072 E0.03174 ; skirt
G1 X134.757 Y108.090 E0.03232 ; skirt
G1 X134.810 Y109.112 E0.03208 ; skirt
G1 X134.754 Y110.160 E0.03291 ; skirt
G1 X134.596 Y111.152 E0.03148 ; skirt
G1 X134.330 Y112.144 E0.03220 ; skirt
G1 X133.963 Y113.099 E0.03208 ; skirt
G1 X133.501 Y114.007 E0.03196 ; skirt
G1 X132.938 Y114.875 E0.03244 ; skirt
G1 X132.300 Y115.665 E0.03184 ; skirt
G1 X130.859 Y116.977 E0.06109 ; skirt
G1 X129.796 Y117.666 E0.03974 ; skirt
G1 X128.965 Y118.084 E0.02917 ; skirt
G1 X127.925 Y118.473 E0.03482 ; skirt
G1 X126.009 Y118.869 E0.06133 ; skirt
G1 X124.995 Y118.921 E0.03184 ; skirt
G1 X123.951 Y118.865 E0.03279 ; skirt
G1 X122.959 Y118.707 E0.03148 ; skirt
G1 X121.967 Y118.441 E0.03220 ; skirt
G1 X121.012 Y118.074 E0.03208 ; skirt
G1 X120.104 Y117.612 E0.03196 ; skirt
G1 X119.236 Y117.049 E0.03244 ; skirt
G1 X118.446 Y116.411 E0.03184 ; skirt
G1 X117.137 Y114.973 E0.06097 ; skirt
G1 X116.445 Y113.907 E0.03986 ; skirt
G1 X116.027 Y113.076 E0.02917 ; skirt
G1 X115.638 Y112.035 E0.03482 ; skirt
G1 X115.242 Y110.120 E0.06133 ; skirt
G1 X115.190 Y109.106 E0.03184 ; skirt
G1 X115.246 Y108.061 E0.03279 ; skirt
G1 X115.407 Y107.059 E0.03184 ; skirt
G1 X115.697 Y105.999 E0.03446 ; skirt
G1 X120.684 Y92.954 E0.43787 ; skirt
G1 X120.965 Y92.433 E0.01858 ; skirt
G1 X121.600 Y91.837 E0.02731 ; skirt
G1 F5760
G1 X122.519 Y91.467 E-0.34301 ; wipe and retract
G1 F5760
G1 X123.723 Y91.459 E-0.41699 ; wipe and retract
G1 E-0.04000 F2100.00000 ; retract
G1 Z0.800 F7200.000 ; lift Z
G1 X124.318 Y102.625 F7200.000 ; move to first perimeter point
G1 Z0.200 F7200.000 ; restore layer Z
G1 E0.80000 F2100.00000 ; unretract
G1 F1800
G1 X125.682 Y102.625 E0.04275 ; perimeter
G1 X127.015 Y102.908 E0.04275 ; perimeter
G1 X128.261 Y103.463 E0.04275 ; perimeter
G1 X129.364 Y104.264 E0.04275 ; perimeter
G1 X130.276 Y105.277 E0.04275 ; perimeter
G1 X130.958 Y106.458 E0.04275 ; perimeter
G1 X131.379 Y107.755 E0.04275 ; perimeter
G1 X131.522 Y109.111 E0.04275 ; perimeter
G1 X131.379 Y110.467 E0.04275 ; perimeter
G1 X130.958 Y111.764 E0.04275 ; perimeter
G1 X130.276 Y112.944 E0.04275 ; perimeter
G1 X129.647 Y113.643 E0.02949 ; perimeter
G1 X129.364 Y113.958 E0.01327 ; perimeter
G1 X128.261 Y114.759 E0.04275 ; perimeter
G1 X127.015 Y115.314 E0.04275 ; perimeter
G1 X125.682 Y115.597 E0.04275 ; perimeter
G1 X124.318 Y115.597 E0.04275 ; perimeter
G1 X122.985 Y115.314 E0.04275 ; perimeter
G1 X121.739 Y114.759 E0.04275 ; perimeter
G1 X120.636 Y113.958 E0.04275 ; perimeter
G1 X119.724 Y112.944 E0.04275 ; perimeter
G1 X119.042 Y111.764 E0.04275 ; perimeter
G1 X118.621 Y110.467 E0.04275 ; perimeter
G1 X118.478 Y109.111 E0.04275 ; perimeter
G1 X118.621 Y107.755 E0.04275 ; perimeter
G1 X119.042 Y106.458 E0.04275 ; perimeter
G1 X119.724 Y105.277 E0.04275 ; perimeter
G1 X120.636 Y104.264 E0.04275 ; perimeter
G1 X121.739 Y103.463 E0.04275 ; perimeter
G1 X122.985 Y102.908 E0.04275 ; perimeter
G1 X124.260 Y102.637 E0.04087 ; perimeter
G1 X124.338 Y103.006 F7200.000 ; move to first perimeter point
G1 F1800
G1 X125.642 Y103.002 E0.04089 ; perimeter
G1 X126.898 Y103.269 E0.04027 ; perimeter
G1 X128.071 Y103.791 E0.04027 ; perimeter
G1 X129.110 Y104.546 E0.04027 ; perimeter
G1 X129.970 Y105.500 E0.04027 ; perimeter
G1 X130.612 Y106.612 E0.04027 ; perimeter
G1 X131.009 Y107.834 E0.04027 ; perimeter
G1 X131.143 Y109.111 E0.04027 ; perimeter
G1 X131.009 Y110.388 E0.04027 ; perimeter
G1 X130.612 Y111.609 E0.04027 ; perimeter
G1 X129.970 Y112.722 E0.04027 ; perimeter
G1 X129.110 Y113.676 E0.04027 ; perimeter
G1 X128.071 Y114.431 E0.04027 ; perimeter
G1 X126.898 Y114.953 E0.04027 ; perimeter
G1 X125.642 Y115.220 E0.04027 ; perimeter
G1 X124.358 Y115.220 E0.04027 ; perimeter
G1 X123.102 Y114.953 E0.04027 ; perimeter
G1 X121.929 Y114.431 E0.04027 ; perimeter
G1 X120.890 Y113.676 E0.04027 ; perimeter
G1 X120.030 Y112.722 E0.04027 ; perimeter
G1 X119.388 Y111.609 E0.04027 ; perimeter
G1 X118.991 Y110.388 E0.04027 ; perimeter
G1 X118.857 Y109.111 E0.04027 ; perimeter
G1 X118.991 Y107.834 E0.04027 ; perimeter
G1 X119.388 Y106.612 E0.04027 ; perimeter
G1 X120.030 Y105.500 E0.04027 ; perimeter
G1 X120.890 Y104.546 E0.04027 ; perimeter
G1 X121.929 Y103.791 E0.04027 ; perimeter
G1 X123.102 Y103.269 E0.04027 ; perimeter
G1 X124.279 Y103.018 E0.03775 ; perimeter
G1 X124.500 Y102.640 F7200.000 ; move inwards before travel
G1 X123.487 Y102.591 F7200.000 ; move to first perimeter point
G1 F1800
G1 X123.487 Y94.571 E0.25146 ; perimeter
G1 X126.513 Y94.571 E0.09487 ; perimeter
G1 X126.513 Y102.591 E0.25146 ; perimeter
G1 X127.070 Y102.740 E0.01808 ; perimeter
G1 X127.725 Y102.991 E0.02198 ; perimeter
G1 X128.349 Y103.310 E0.02198 ; perimeter
G1 X128.937 Y103.691 E0.02198 ; perimeter
G1 X129.482 Y104.133 E0.02198 ; perimeter
G1 X129.978 Y104.629 E0.02198 ; perimeter
G1 X130.419 Y105.173 E0.02198 ; perimeter
G1 X130.801 Y105.762 E0.02198 ; perimeter
G1 X131.120 Y106.386 E0.02198 ; perimeter
G1 X131.371 Y107.041 E0.02198 ; perimeter
G1 X131.552 Y107.718 E0.02198 ; perimeter
G1 X131.662 Y108.411 E0.02198 ; perimeter
G1 X131.699 Y109.111 E0.02198 ; perimeter
G1 X131.662 Y109.811 E0.02198 ; perimeter
G1 X131.552 Y110.504 E0.02198 ; perimeter
G1 X131.371 Y111.181 E0.02198 ; perimeter
G1 X131.120 Y111.836 E0.02199 ; perimeter
G1 X130.801 Y112.460 E0.02198 ; perimeter
G1 X130.419 Y113.048 E0.02198 ; perimeter
G1 X129.987 Y113.583 E0.02156 ; perimeter
G1 X129.482 Y114.089 E0.02242 ; perimeter
G1 X128.937 Y114.530 E0.02197 ; perimeter
G1 X128.349 Y114.912 E0.02198 ; perimeter
G1 X127.725 Y115.231 E0.02198 ; perimeter
G1 X127.070 Y115.482 E0.02198 ; perimeter
G1 X126.393 Y115.663 E0.02198 ; perimeter
G1 X125.700 Y115.773 E0.02198 ; perimeter
G1 X125.000 Y115.810 E0.02198 ; perimeter
G1 X124.300 Y115.773 E0.02198 ; perimeter
G1 X123.607 Y115.663 E0.02198 ; perimeter
G1 X122.930 Y115.482 E0.02198 ; perimeter
G1 X122.275 Y115.231 E0.02198 ; perimeter
G1 X121.651 Y114.912 E0.02198 ; perimeter
G1 X121.063 Y114.531 E0.02197 ; perimeter
G1 X120.508 Y114.080 E0.02242 ; perimeter
G1 X120.022 Y113.593 E0.02156 ; perimeter
G1 X119.581 Y113.048 E0.02198 ; perimeter
G1 X119.199 Y112.460 E0.02198 ; perimeter
G1 X118.880 Y111.836 E0.02198 ; perimeter
G1 X118.629 Y111.181 E0.02198 ; perimeter
G1 X118.448 Y110.504 E0.02198 ; perimeter
G1 X118.338 Y109.811 E0.02198 ; perimeter
G1 X118.301 Y109.111 E0.02198 ; perimeter
G1 X118.338 Y108.411 E0.02198 ; perimeter
G1 X118.446 Y107.731 E0.02156 ; perimeter
G1 X118.629 Y107.040 E0.02242 ; perimeter
G1 X118.880 Y106.386 E0.02197 ; perimeter
G1 X119.199 Y105.762 E0.02198 ; perimeter
G1 X119.581 Y105.173 E0.02198 ; perimeter
G1 X120.022 Y104.629 E0.02198 ; perimeter
G1 X120.518 Y104.133 E0.02198 ; perimeter
G1 X121.063 Y103.691 E0.02198 ; perimeter
G1 X121.651 Y103.310 E0.02198 ; perimeter
G1 X122.275 Y102.991 E0.02198 ; perimeter
G1 X122.930 Y102.740 E0.02198 ; perimeter
G1 X123.429 Y102.606 E0.01620 ; perimeter
G1 X123.110 Y102.301 F7200.000 ; move to first perimeter point
G1 F1800
G1 X123.110 Y94.194 E0.25421 ; perimeter
G1 X126.890 Y94.194 E0.11852 ; perimeter
G1 X126.890 Y102.301 E0.25421 ; perimeter
G1 X127.187 Y102.381 E0.00963 ; perimeter
G1 X127.878 Y102.646 E0.02322 ; perimeter
G1 X128.538 Y102.983 E0.02322 ; perimeter
G1 X129.159 Y103.386 E0.02322 ; perimeter
G1 X129.735 Y103.852 E0.02322 ; perimeter
G1 X130.259 Y104.376 E0.02322 ; perimeter
G1 X130.725 Y104.952 E0.02322 ; perimeter
G1 X131.128 Y105.573 E0.02322 ; perimeter
G1 X131.465 Y106.233 E0.02322 ; perimeter
G1 X131.730 Y106.924 E0.02322 ; perimeter
G1 X131.922 Y107.640 E0.02322 ; perimeter
G1 X132.038 Y108.371 E0.02322 ; perimeter
G1 X132.076 Y109.111 E0.02322 ; perimeter
G1 X132.038 Y109.851 E0.02322 ; perimeter
G1 X131.922 Y110.582 E0.02322 ; perimeter
G1 X131.730 Y111.298 E0.02322 ; perimeter
G1 X131.465 Y111.989 E0.02322 ; perimeter
G1 X131.128 Y112.649 E0.02322 ; perimeter
G1 X130.725 Y113.270 E0.02322 ; perimeter
G1 X130.267 Y113.835 E0.02279 ; perimeter
G1 X129.735 Y114.370 E0.02366 ; perimeter
G1 X129.159 Y114.836 E0.02322 ; perimeter
G1 X128.538 Y115.239 E0.02322 ; perimeter
G1 X127.878 Y115.575 E0.02322 ; perimeter
G1 X127.187 Y115.841 E0.02322 ; perimeter
G1 X126.471 Y116.033 E0.02322 ; perimeter
G1 X125.740 Y116.149 E0.02322 ; perimeter
G1 X125.000 Y116.187 E0.02322 ; perimeter
G1 X124.260 Y116.149 E0.02322 ; perimeter
G1 X123.529 Y116.033 E0.02322 ; perimeter
G1 X122.813 Y115.841 E0.02322 ; perimeter
G1 X122.122 Y115.575 E0.02322 ; perimeter
G1 X121.462 Y115.239 E0.02322 ; perimeter
G1 X120.841 Y114.836 E0.02322 ; perimeter
G1 X120.255 Y114.360 E0.02366 ; perimeter
G1 X119.741 Y113.846 E0.02279 ; perimeter
G1 X119.275 Y113.270 E0.02322 ; perimeter
G1 X118.872 Y112.649 E0.02322 ; perimeter
G1 X118.535 Y111.989 E0.02322 ; perimeter
G1 X118.270 Y111.298 E0.02322 ; perimeter
G1 X118.078 Y110.582 E0.02322 ; perimeter
G1 X117.962 Y109.851 E0.02322 ; perimeter
G1 X117.924 Y109.111 E0.02322 ; perimeter
G1 X117.962 Y108.371 E0.02322 ; perimeter
G1 X118.076 Y107.653 E0.02279 ; perimeter
G1 X118.270 Y106.924 E0.02366 ; perimeter
G1 X118.535 Y106.233 E0.02322 ; perimeter
G1 X118.872 Y105.573 E0.02322 ; perimeter
G1 X119.275 Y104.952 E0.02322 ; perimeter
G1 X119.741 Y104.376 E0.02322 ; perimeter
G1 X120.265 Y103.852 E0.02322 ; perimeter
G1 X120.841 Y103.386 E0.02322 ; perimeter
G1 X121.462 Y102.983 E0.02322 ; perimeter
G1 X122.122 Y102.646 E0.02322 ; perimeter
G1 X122.813 Y102.381 E0.02322 ; perimeter
G1 X123.052 Y102.317 E0.00775 ; perimeter
G1 X123.507 Y102.257 F7200.000 ; move inwards before travel
G1 F5760
G1 X123.068 Y100.123 E-0.76000 ; wipe and retract
G1 E-0.04000 F2100.00000 ; retract
G1 Z0.800 F7200.000 ; lift Z
G1 X124.237 Y102.526 F7200.000 ; move to first infill point
G1 Z0.200 F7200.000 ; restore layer Z
G1 E0.80000 F2100.00000 ; unretract
G1 F1800
G1 X123.770 Y102.059 E0.02108 ; infill
G1 X123.770 Y101.516 E0.01733 ; infill
G1 X124.595 Y102.342 E0.03726 ; infill
G1 X125.138 Y102.342 E0.01733 ; infill
G1 X123.770 Y100.973 E0.06177 ; infill
G1 X123.770 Y100.431 E0.01733 ; infill
G1 X125.681 Y102.342 E0.08627 ; infill
G1 X126.230 Y102.452 E0.01787 ; infill
G1 X126.230 Y102.348 E0.00332 ; infill
G1 X123.770 Y99.888 E0.11106 ; infill
G1 X123.770 Y99.345 E0.01733 ; infill
G1 X126.230 Y101.805 E0.11106 ; infill
G1 X126.230 Y101.262 E0.01733 ; infill
G1 X123.770 Y98.802 E0.11106 ; infill
G1 X123.770 Y98.259 E0.01733 ; infill
G1 X126.230 Y100.719 E0.11106 ; infill
G1 X126.230 Y100.177 E0.01733 ; infill
G1 X123.770 Y97.716 E0.11106 ; infill
G1 X123.770 Y97.173 E0.01733 ; infill
G1 X126.230 Y99.634 E0.11106 ; infill
G1 X126.230 Y99.091 E0.01733 ; infill
G1 X123.770 Y96.631 E0.11106 ; infill
G1 X123.770 Y96.088 E0.01733 ; infill
G1 X126.230 Y98.548 E0.11106 ; infill
G1 X126.230 Y98.005 E0.01733 ; infill
G1 X123.770 Y95.545 E0.11106 ; infill
G1 X123.770 Y95.002 E0.01733 ; infill
G1 X126.230 Y97.462 E0.11106 ; infill
G1 X126.230 Y96.919 E0.01733 ; infill
G1 X124.164 Y94.853 E0.09325 ; infill
G1 X124.707 Y94.853 E0.01733 ; infill
G1 X126.230 Y96.376 E0.06875 ; infill
G1 X126.230 Y95.834 E0.01733 ; infill
G1 X125.250 Y94.853 E0.04424 ; infill
G1 X125.793 Y94.853 E0.01733 ; infill
G1 X126.400 Y95.460 E0.02740 ; infill
;BEFORE_LAYER_CHANGE
;0.4


G1 F5760
G1 X125.793 Y94.853 E-0.29731 ; wipe and retract
G1 F5760
G1 X125.250 Y94.853 E-0.18802 ; wipe and retract
G1 F5760
G1 X125.811 Y95.414 E-0.27466 ; wipe and retract
G1 E-0.04000 F2100.00000 ; retract
G1 Z0.800 F7200.000 ; lift Z
;AFTER_LAYER_CHANGE
;0.4
M104 S240 ; set temperature
M140 S90 ; set bed temperature
G1 X129.225 Y92.062 F7200.000 ; move to first skirt point
G1 Z0.400 F7200.000 ; restore layer Z
G1 E0.80000 F2100.00000 ; unretract
G1 F3000
G1 X129.641 Y92.751 E0.02523 ; skirt
G1 X134.696 Y105.985 E0.44420 ; skirt
G1 X134.966 Y106.996 E0.03280 ; skirt
G1 X135.132 Y108.053 E0.03356 ; skirt
G1 X135.187 Y109.114 E0.03331 ; skirt
G1 X135.129 Y110.200 E0.03408 ; skirt
G1 X134.964 Y111.232 E0.03279 ; skirt
G1 X134.689 Y112.258 E0.03331 ; skirt
G1 X134.307 Y113.254 E0.03343 ; skirt
G1 X133.829 Y114.193 E0.03305 ; skirt
G1 X133.245 Y115.095 E0.03369 ; skirt
G1 X132.582 Y115.915 E0.03305 ; skirt
G1 X131.829 Y116.670 E0.03343 ; skirt
G1 X131.096 Y117.270 E0.02971 ; skirt
G1 X129.967 Y118.002 E0.04219 ; skirt
G1 X129.110 Y118.432 E0.03005 ; skirt
G1 X128.027 Y118.836 E0.03626 ; skirt
G1 X127.103 Y119.079 E0.02996 ; skirt
G1 X126.045 Y119.245 E0.03356 ; skirt
G1 X124.993 Y119.298 E0.03305 ; skirt
G1 X123.911 Y119.240 E0.03395 ; skirt
G1 X122.879 Y119.075 E0.03279 ; skirt
G1 X121.853 Y118.800 E0.03331 ; skirt
G1 X120.857 Y118.418 E0.03343 ; skirt
G1 X119.921 Y117.942 E0.03292 ; skirt
G1 X119.016 Y117.356 E0.03382 ; skirt
G1 X118.199 Y116.696 E0.03292 ; skirt
G1 X117.441 Y115.940 E0.03356 ; skirt
