; generated by Slic3r 1.37.2.1-prusa3d-linux64 on 2018-12-04 at 13:51:25

; 

; external perimeters extrusion width = 0.42mm
; perimeters extrusion width = 0.45mm
; infill extrusion width = 0.45mm
; solid infill extrusion width = 0.45mm
; top infill extrusion width = 0.42mm
; first layer extrusion width = 0.42mm

M107 ; disable fan
M115 U3.1.0 ; tell printer latest fw version
M83  ; extruder relative mode
M104 S215 ; set extruder temp
M140 S55 ; set bed temp
M190 S55 ; wait for bed temp
M109 S215 ; wait for extruder temp
G28 W ; home all without mesh bed level
G80 ; mesh bed leveling
G1 Y-3.0 F1000.0 ; go outside pritn area
G1 X60.0 E9.0  F1000.0 ; intro line
G1 X100.0 E12.5  F1000.0 ; intro line
G92 E0.0
M900 K30
G21 ; set units to millimeters
G90 ; use absolute coordinates
M83 ; use relative distances for extrusion
;BEFORE_LAYER_CHANGE
;0.2


G1 E-0.80000 F2100.00000 ; retract
G1 Z0.600 F7200.000 ; lift Z
;AFTER_LAYER_CHANGE
;0.2
G1 X104.853 Y80.564 F7200.000 ; move to first skirt point
G1 Z0.200 F7200.000 ; restore layer Z
G1 E0.80000 F2100.00000 ; unretract
M204 S1000 ; adjust acceleration
G1 F1800
G1 X104.408 Y81.188 E0.02402 ; skirt
G1 X98.728 Y86.867 E0.25184 ; skirt
G1 X98.243 Y87.233 E0.01906 ; skirt
G1 X79.601 Y94.313 E0.62523 ; skirt
G1 X77.846 Y94.926 E0.05831 ; skirt
G1 X76.066 Y95.332 E0.05725 ; skirt
G1 X74.239 Y95.494 E0.05751 ; skirt
G1 X60.462 Y95.493 E0.43195 ; skirt
G1 X58.730 Y95.345 E0.05450 ; skirt
G1 X56.941 Y94.942 E0.05752 ; skirt
G1 X55.035 Y94.277 E0.06329 ; skirt
G1 X53.271 Y93.432 E0.06131 ; skirt
G1 X51.669 Y92.422 E0.05939 ; skirt
G1 X50.386 Y91.346 E0.05250 ; skirt
G1 X26.941 Y67.907 E1.03944 ; skirt
G1 X25.818 Y66.425 E0.05831 ; skirt
G1 X25.085 Y64.648 E0.06029 ; skirt
G1 X24.836 Y62.749 E0.06005 ; skirt
G1 X25.083 Y60.856 E0.05987 ; skirt
G1 X25.821 Y59.066 E0.06067 ; skirt
G1 X26.976 Y57.553 E0.05972 ; skirt
G1 X49.820 Y34.712 E1.01288 ; skirt
G1 X51.157 Y33.583 E0.05485 ; skirt
G1 X52.658 Y32.631 E0.05572 ; skirt
G1 X54.513 Y31.728 E0.06470 ; skirt
G1 X56.254 Y31.111 E0.05790 ; skirt
G1 X58.357 Y30.636 E0.06761 ; skirt
G1 X59.990 Y30.504 E0.05136 ; skirt
G1 X73.719 Y30.504 E0.43046 ; skirt
G1 X75.642 Y30.680 E0.06056 ; skirt
G1 X77.354 Y31.073 E0.05508 ; skirt
G1 X79.195 Y31.721 E0.06119 ; skirt
G1 X80.952 Y32.563 E0.06107 ; skirt
G1 X82.441 Y33.495 E0.05510 ; skirt
G1 X83.913 Y34.718 E0.06000 ; skirt
G1 X107.378 Y58.195 E1.04075 ; skirt
G1 X108.420 Y59.591 E0.05461 ; skirt
G1 X109.146 Y61.368 E0.06019 ; skirt
G1 X109.390 Y63.250 E0.05950 ; skirt
G1 X109.144 Y65.139 E0.05974 ; skirt
G1 X104.869 Y80.506 E0.50013 ; skirt
G1 F5760
G1 X104.408 Y81.188 E-0.28495 ; wipe and retract
G1 F5760
G1 X103.438 Y82.158 E-0.47505 ; wipe and retract
G1 E-0.04000 F2100.00000 ; retract
G1 Z0.800 F7200.000 ; lift Z
G1 X54.099 Y67.959 F7200.000 ; move to first perimeter point
G1 Z0.200 F7200.000 ; restore layer Z
G1 E0.80000 F2100.00000 ; unretract
G1 F1800
G1 X45.212 Y76.576 E0.38811 ; perimeter
G1 X35.306 Y66.672 E0.43920 ; perimeter
G1 X34.440 Y65.543 E0.04460 ; perimeter
G1 X33.881 Y64.181 E0.04617 ; perimeter
G1 X33.693 Y62.749 E0.04530 ; perimeter
G1 X33.883 Y61.302 E0.04576 ; perimeter
G1 X34.441 Y59.953 E0.04577 ; perimeter
G1 X35.306 Y58.825 E0.04458 ; perimeter
G1 X49.583 Y44.550 E0.63300 ; perimeter
G1 X50.588 Y43.732 E0.04063 ; perimeter
G1 X51.652 Y43.292 E0.03612 ; perimeter
G1 X52.712 Y43.382 E0.03337 ; perimeter
G1 X53.526 Y44.068 E0.03339 ; perimeter
G1 X53.967 Y45.131 E0.03609 ; perimeter
G1 X54.099 Y46.421 E0.04064 ; perimeter
G1 X54.099 Y67.899 E0.67345 ; perimeter
G1 X53.722 Y67.800 F7200.000 ; move to first perimeter point
G1 F1800
G1 X45.216 Y76.047 E0.37146 ; perimeter
G1 X35.591 Y66.422 E0.42678 ; perimeter
G1 X34.770 Y65.353 E0.04225 ; perimeter
G1 X34.248 Y64.083 E0.04305 ; perimeter
G1 X34.073 Y62.749 E0.04220 ; perimeter
G1 X34.250 Y61.400 E0.04265 ; perimeter
G1 X34.770 Y60.143 E0.04266 ; perimeter
G1 X35.591 Y59.074 E0.04224 ; perimeter
G1 X49.836 Y44.831 E0.63162 ; perimeter
G1 X50.783 Y44.059 E0.03830 ; perimeter
G1 X51.712 Y43.675 E0.03151 ; perimeter
G1 X52.561 Y43.747 E0.02673 ; perimeter
G1 X53.213 Y44.297 E0.02675 ; perimeter
G1 X53.598 Y45.225 E0.03148 ; perimeter
G1 X53.722 Y46.440 E0.03830 ; perimeter
G1 X53.722 Y67.740 E0.66784 ; perimeter
G1 X53.919 Y68.148 F7200.000 ; move inwards before travel
G1 F5760
G1 X52.152 Y69.273 E-0.76000 ; wipe and retract
G1 E-0.04000 F2100.00000 ; retract
G1 Z0.800 F7200.000 ; lift Z
G1 X64.849 Y33.934 F7200.000 ; move to first perimeter point
G1 Z0.200 F7200.000 ; restore layer Z
G1 E0.80000 F2100.00000 ; unretract
G1 F1800
G1 X61.925 Y33.934 E0.09168 ; perimeter
G1 X61.925 Y40.534 E0.20694 ; perimeter
G1 X57.925 Y40.534 E0.12542 ; perimeter
G1 X57.925 Y69.234 E0.89987 ; perimeter
G1 X47.743 Y79.106 E0.44468 ; perimeter
G1 X49.583 Y80.946 E0.08158 ; perimeter
G1 X50.373 Y81.589 E0.03193 ; perimeter
G1 X53.536 Y84.278 E0.13018 ; perimeter
G1 X54.323 Y84.786 E0.02936 ; perimeter
G1 X55.176 Y85.184 E0.02951 ; perimeter
G1 X56.083 Y85.468 E0.02981 ; perimeter
G1 X57.033 Y85.637 E0.03024 ; perimeter
G1 X57.925 Y85.684 E0.02801 ; perimeter
G1 X57.925 Y85.703 E0.00059 ; perimeter
G1 X61.925 Y85.703 E0.12542 ; perimeter
G1 X61.925 Y91.703 E0.18813 ; perimeter
G1 X63.574 Y91.703 E0.05171 ; perimeter
G1 X62.334 Y92.530 E0.04673 ; perimeter
G1 X60.537 Y92.530 E0.05635 ; perimeter
G1 X59.188 Y92.415 E0.04243 ; perimeter
G1 X57.702 Y92.077 E0.04780 ; perimeter
G1 X56.166 Y91.537 E0.05105 ; perimeter
G1 X54.699 Y90.833 E0.05100 ; perimeter
G1 X53.409 Y90.021 E0.04779 ; perimeter
G1 X52.374 Y89.147 E0.04246 ; perimeter
G1 X29.120 Y65.896 E1.03107 ; perimeter
G1 X28.396 Y64.952 E0.03731 ; perimeter
G1 X27.956 Y63.888 E0.03608 ; perimeter
G1 X27.805 Y62.749 E0.03605 ; perimeter
G1 X27.956 Y61.608 E0.03608 ; perimeter
G1 X28.396 Y60.545 E0.03608 ; perimeter
G1 X29.120 Y59.601 E0.03731 ; perimeter
G1 X51.874 Y36.849 E1.00890 ; perimeter
G1 X52.909 Y35.976 E0.04246 ; perimeter
G1 X54.199 Y35.163 E0.04779 ; perimeter
G1 X55.666 Y34.460 E0.05100 ; perimeter
G1 X57.202 Y33.920 E0.05105 ; perimeter
G1 X58.688 Y33.582 E0.04779 ; perimeter
G1 X60.037 Y33.468 E0.04244 ; perimeter
G1 X64.926 Y33.468 E0.15329 ; perimeter
G1 X64.926 Y35.684 E0.06948 ; perimeter
G1 X64.849 Y35.684 E0.00241 ; perimeter
G1 X64.849 Y33.994 E0.05299 ; perimeter
G1 F5760
G1 X62.655 Y33.949 E-0.76000 ; wipe and retract
G1 E-0.04000 F2100.00000 ; retract
G1 Z0.800 F7200.000 ; lift Z
G1 X64.849 Y90.212 F7200.000 ; move to first perimeter point
G1 Z0.200 F7200.000 ; restore layer Z
G1 E0.80000 F2100.00000 ; unretract
G1 F1800
G1 X64.926 Y90.212 E0.00241 ; perimeter
G1 X64.926 Y90.802 E0.01849 ; perimeter
G1 X64.849 Y90.853 E0.00290 ; perimeter
G1 X64.849 Y90.272 E0.01822 ; perimeter
G1 F5760
G1 X64.926 Y90.212 E-0.03377 ; wipe and retract
G1 F5760
G1 X64.926 Y90.802 E-0.20426 ; wipe and retract
G1 F5760
G1 X64.849 Y90.853 E-0.03199 ; wipe and retract
G1 F5760
G1 X64.849 Y90.272 E-0.20123 ; wipe and retract
G1 E-0.32875 F2100.00000 ; retract
G1 Z0.800 F7200.000 ; lift Z
G1 X64.472 Y34.311 F7200.000 ; move to first perimeter point
G1 Z0.200 F7200.000 ; restore layer Z
G1 E0.80000 F2100.00000 ; unretract
G1 F1800
G1 X62.302 Y34.311 E0.06804 ; perimeter
G1 X62.302 Y40.911 E0.20694 ; perimeter
G1 X58.302 Y40.911 E0.12542 ; perimeter
G1 X58.302 Y69.393 E0.89305 ; perimeter
G1 X48.280 Y79.110 E0.43767 ; perimeter
G1 X49.836 Y80.666 E0.06897 ; perimeter
G1 X50.614 Y81.299 E0.03145 ; perimeter
G1 X53.761 Y83.975 E0.12953 ; perimeter
G1 X54.506 Y84.455 E0.02778 ; perimeter
G1 X55.313 Y84.832 E0.02792 ; perimeter
G1 X56.173 Y85.101 E0.02826 ; perimeter
G1 X57.076 Y85.262 E0.02876 ; perimeter
G1 X58.013 Y85.311 E0.02942 ; perimeter
G1 X58.302 Y85.293 E0.00908 ; perimeter
G1 X58.302 Y85.326 E0.00103 ; perimeter
G1 X62.302 Y85.326 E0.12542 ; perimeter
G1 X62.302 Y91.326 E0.18813 ; perimeter
G1 X64.472 Y91.326 E0.06804 ; perimeter
G1 X64.472 Y89.835 E0.04675 ; perimeter
G1 X65.303 Y89.835 E0.02606 ; perimeter
G1 X65.303 Y91.003 E0.03664 ; perimeter
G1 X62.448 Y92.907 E0.10758 ; perimeter
G1 X60.521 Y92.907 E0.06044 ; perimeter
G1 X59.130 Y92.789 E0.04376 ; perimeter
G1 X57.597 Y92.440 E0.04930 ; perimeter
G1 X56.021 Y91.885 E0.05238 ; perimeter
G1 X54.516 Y91.164 E0.05233 ; perimeter
G1 X53.186 Y90.326 E0.04930 ; perimeter
G1 X52.119 Y89.425 E0.04379 ; perimeter
G1 X28.836 Y66.145 E1.03234 ; perimeter
G1 X28.066 Y65.142 E0.03964 ; perimeter
G1 X27.588 Y63.987 E0.03919 ; perimeter
G1 X27.425 Y62.749 E0.03916 ; perimeter
G1 X27.588 Y61.510 E0.03919 ; perimeter
G1 X28.066 Y60.355 E0.03919 ; perimeter
G1 X28.836 Y59.351 E0.03964 ; perimeter
G1 X51.619 Y36.571 E1.01017 ; perimeter
G1 X52.686 Y35.671 E0.04379 ; perimeter
G1 X54.016 Y34.833 E0.04930 ; perimeter
G1 X55.521 Y34.111 E0.05233 ; perimeter
G1 X57.097 Y33.557 E0.05237 ; perimeter
G1 X58.630 Y33.209 E0.04929 ; perimeter
G1 X60.021 Y33.091 E0.04376 ; perimeter
G1 X65.303 Y33.091 E0.16562 ; perimeter
G1 X65.303 Y36.061 E0.09312 ; perimeter
G1 X64.472 Y36.061 E0.02606 ; perimeter
G1 X64.472 Y34.371 E0.05299 ; perimeter
G1 X64.413 Y33.915 F7200.000 ; move inwards before travel
G1 X64.737 Y33.701 F7200.000 ; move to first infill point
G1 F1800
G1 X61.736 Y33.701 E0.01144 ; infill
G1 X61.812 Y34.534 F7200.000 ; move to first infill point
G1 F1800
G1 X61.028 Y33.751 E0.03485 ; infill
G1 X60.493 Y33.751 E0.01682 ; infill
G1 X61.642 Y34.899 E0.05109 ; infill
G1 X61.642 Y35.434 E0.01682 ; infill
G1 X59.965 Y33.758 E0.07457 ; infill
G1 X59.472 Y33.800 E0.01556 ; infill
G1 X61.642 Y35.969 E0.09650 ; infill
G1 X61.642 Y36.504 E0.01682 ; infill
G1 X58.979 Y33.841 E0.11843 ; infill
G1 X58.731 Y33.862 E0.00782 ; infill
G1 X58.515 Y33.912 E0.00699 ; infill
G1 X61.642 Y37.039 E0.13909 ; infill
G1 X61.642 Y37.574 E0.01682 ; infill
G1 X58.079 Y34.011 E0.15848 ; infill
G1 X57.643 Y34.110 E0.01406 ; infill
G1 X61.642 Y38.109 E0.17787 ; infill
G1 X61.642 Y38.644 E0.01682 ; infill
G1 X57.214 Y34.215 E0.19695 ; infill
G1 X56.818 Y34.354 E0.01319 ; infill
G1 X61.642 Y39.178 E0.21456 ; infill
G1 X61.642 Y39.713 E0.01682 ; infill
G1 X56.422 Y34.494 E0.23216 ; infill
G1 X56.026 Y34.633 E0.01319 ; infill
G1 X61.642 Y40.251 E0.24981 ; infill
G1 X61.110 Y40.251 E0.01674 ; infill
G1 X55.643 Y34.784 E0.24313 ; infill
G1 X55.282 Y34.958 E0.01261 ; infill
G1 X60.575 Y40.251 E0.23542 ; infill
G1 X60.040 Y40.251 E0.01682 ; infill
G1 X54.920 Y35.131 E0.22770 ; infill
G1 X54.559 Y35.305 E0.01261 ; infill
G1 X59.505 Y40.251 E0.21999 ; infill
G1 X58.970 Y40.251 E0.01682 ; infill
G1 X54.210 Y35.491 E0.21171 ; infill
G1 X53.882 Y35.697 E0.01220 ; infill
G1 X58.435 Y40.251 E0.20252 ; infill
G1 X57.900 Y40.251 E0.01682 ; infill
G1 X53.554 Y35.904 E0.19333 ; infill
G1 X53.225 Y36.111 E0.01220 ; infill
G1 X57.642 Y40.527 E0.19643 ; infill
G1 X57.642 Y41.062 E0.01682 ; infill
G1 X52.918 Y36.338 E0.21010 ; infill
G1 X52.628 Y36.583 E0.01194 ; infill
G1 X57.642 Y41.597 E0.22300 ; infill
G1 X57.642 Y42.132 E0.01682 ; infill
G1 X52.338 Y36.828 E0.23590 ; infill
G1 X52.049 Y37.074 E0.01193 ; infill
G1 X57.642 Y42.667 E0.24874 ; infill
G1 X57.642 Y43.202 E0.01682 ; infill
G1 X51.782 Y37.342 E0.26064 ; infill
G1 X51.514 Y37.609 E0.01190 ; infill
G1 X57.642 Y43.737 E0.27253 ; infill
G1 X57.642 Y44.272 E0.01682 ; infill
G1 X51.247 Y37.877 E0.28443 ; infill
G1 X50.979 Y38.144 E0.01190 ; infill
G1 X57.642 Y44.807 E0.29632 ; infill
G1 X57.642 Y45.341 E0.01682 ; infill
G1 X50.712 Y38.412 E0.30822 ; infill
G1 X50.444 Y38.679 E0.01190 ; infill
G1 X57.642 Y45.876 E0.32012 ; infill
G1 X57.642 Y46.411 E0.01682 ; infill
G1 X50.177 Y38.946 E0.33201 ; infill
G1 X49.910 Y39.214 E0.01190 ; infill
G1 X57.642 Y46.946 E0.34391 ; infill
G1 X57.642 Y47.481 E0.01682 ; infill
G1 X49.642 Y39.481 E0.35580 ; infill
G1 X49.375 Y39.749 E0.01190 ; infill
G1 X57.642 Y48.016 E0.36770 ; infill
G1 X57.642 Y48.551 E0.01682 ; infill
G1 X54.255 Y45.164 E0.15066 ; infill
G1 X54.315 Y45.759 E0.01884 ; infill
G1 X57.642 Y49.086 E0.14795 ; infill
G1 X57.642 Y49.621 E0.01682 ; infill
G1 X54.376 Y46.355 E0.14524 ; infill
G1 X54.382 Y46.895 E0.01699 ; infill
G1 X57.642 Y50.156 E0.14501 ; infill
G1 X57.642 Y50.690 E0.01682 ; infill
G1 X54.382 Y47.430 E0.14501 ; infill
G1 X54.382 Y47.965 E0.01682 ; infill
G1 X57.642 Y51.225 E0.14501 ; infill
G1 X57.642 Y51.760 E0.01682 ; infill
G1 X54.382 Y48.500 E0.14501 ; infill
G1 X54.382 Y49.035 E0.01682 ; infill
G1 X57.642 Y52.295 E0.14501 ; infill
G1 X57.642 Y52.830 E0.01682 ; infill
G1 X54.382 Y49.570 E0.14501 ; infill
G1 X54.382 Y50.105 E0.01682 ; infill
G1 X57.642 Y53.365 E0.14501 ; infill
G1 X57.642 Y53.900 E0.01682 ; infill
G1 X54.382 Y50.640 E0.14501 ; infill
G1 X54.382 Y51.174 E0.01682 ; infill
G1 X57.642 Y54.435 E0.14501 ; infill
G1 X57.642 Y54.970 E0.01682 ; infill
G1 X54.382 Y51.709 E0.14501 ; infill
G1 X54.382 Y52.244 E0.01682 ; infill
G1 X57.642 Y55.504 E0.14501 ; infill
G1 X57.642 Y56.039 E0.01682 ; infill
G1 X54.382 Y52.779 E0.14501 ; infill
G1 X54.382 Y53.314 E0.01682 ; infill
G1 X57.642 Y56.574 E0.14501 ; infill
G1 X57.642 Y57.109 E0.01682 ; infill
G1 X54.382 Y53.849 E0.14501 ; infill
G1 X54.382 Y54.384 E0.01682 ; infill
G1 X57.642 Y57.644 E0.14501 ; infill
G1 X57.642 Y58.179 E0.01682 ; infill
G1 X54.382 Y54.919 E0.14501 ; infill
G1 X54.382 Y55.454 E0.01682 ; infill
G1 X57.642 Y58.714 E0.14501 ; infill
G1 X57.642 Y59.249 E0.01682 ; infill
G1 X54.382 Y55.988 E0.14501 ; infill
G1 X54.382 Y56.523 E0.01682 ; infill
G1 X57.642 Y59.784 E0.14501 ; infill
G1 X57.642 Y60.319 E0.01682 ; infill
G1 X54.382 Y57.058 E0.14501 ; infill
G1 X54.382 Y57.593 E0.01682 ; infill
G1 X57.642 Y60.853 E0.14501 ; infill
G1 X57.642 Y61.388 E0.01682 ; infill
G1 X54.382 Y58.128 E0.14501 ; infill
G1 X54.382 Y58.663 E0.01682 ; infill
G1 X57.642 Y61.923 E0.14501 ; infill
G1 X57.642 Y62.458 E0.01682 ; infill
G1 X54.382 Y59.198 E0.14501 ; infill
G1 X54.382 Y59.733 E0.01682 ; infill
G1 X57.642 Y62.993 E0.14501 ; infill
G1 X57.642 Y63.528 E0.01682 ; infill
G1 X54.382 Y60.268 E0.14501 ; infill
G1 X54.382 Y60.802 E0.01682 ; infill
G1 X57.642 Y64.063 E0.14501 ; infill
G1 X57.642 Y64.598 E0.01682 ; infill
G1 X54.382 Y61.337 E0.14501 ; infill
G1 X54.382 Y61.872 E0.01682 ; infill
G1 X57.642 Y65.133 E0.14501 ; infill
G1 X57.642 Y65.667 E0.01682 ; infill
G1 X54.382 Y62.407 E0.14501 ; infill
G1 X54.382 Y62.942 E0.01682 ; infill
G1 X57.642 Y66.202 E0.14501 ; infill
G1 X57.642 Y66.737 E0.01682 ; infill
G1 X54.382 Y63.477 E0.14501 ; infill
G1 X54.382 Y64.012 E0.01682 ; infill
G1 X57.642 Y67.272 E0.14501 ; infill
G1 X57.642 Y67.807 E0.01682 ; infill
G1 X54.382 Y64.547 E0.14501 ; infill
G1 X54.382 Y65.082 E0.01682 ; infill
G1 X57.642 Y68.342 E0.14501 ; infill
G1 X57.642 Y68.877 E0.01682 ; infill
G1 X54.382 Y65.617 E0.14501 ; infill
G1 X54.382 Y66.151 E0.01682 ; infill
G1 X57.491 Y69.261 E0.13828 ; infill
G1 X57.219 Y69.524 E0.01190 ; infill
G1 X54.382 Y66.686 E0.12620 ; infill
G1 X54.382 Y67.221 E0.01682 ; infill
G1 X56.948 Y69.787 E0.11412 ; infill
G1 X56.676 Y70.050 E0.01190 ; infill
G1 X54.382 Y67.756 E0.10205 ; infill
G1 X54.382 Y68.079 E0.01016 ; infill
G1 X54.274 Y68.183 E0.00471 ; infill
G1 X56.404 Y70.314 E0.09475 ; infill
G1 X56.133 Y70.577 E0.01190 ; infill
G1 X54.002 Y68.447 E0.09475 ; infill
G1 X53.731 Y68.710 E0.01190 ; infill
G1 X55.861 Y70.840 E0.09475 ; infill
G1 X55.590 Y71.104 E0.01190 ; infill
G1 X53.459 Y68.973 E0.09475 ; infill
G1 X53.188 Y69.237 E0.01190 ; infill
G1 X55.318 Y71.367 E0.09476 ; infill
G1 X55.047 Y71.630 E0.01190 ; infill
G1 X52.916 Y69.500 E0.09476 ; infill
G1 X52.645 Y69.763 E0.01190 ; infill
G1 X54.775 Y71.894 E0.09476 ; infill
G1 X54.503 Y72.157 E0.01190 ; infill
G1 X52.373 Y70.027 E0.09476 ; infill
G1 X52.101 Y70.290 E0.01190 ; infill
G1 X54.232 Y72.420 E0.09476 ; infill
G1 X53.960 Y72.684 E0.01190 ; infill
G1 X51.830 Y70.553 E0.09476 ; infill
G1 X51.558 Y70.817 E0.01190 ; infill
G1 X53.689 Y72.947 E0.09476 ; infill
G1 X53.417 Y73.210 E0.01190 ; infill
G1 X51.287 Y71.080 E0.09476 ; infill
G1 X51.015 Y71.343 E0.01190 ; infill
G1 X53.146 Y73.474 E0.09476 ; infill
