; generated by Slic3r 1.37.2.1-prusa3d-linux64 on 2018-10-24 at 12:06:21

; 

; external perimeters extrusion width = 0.42mm
; perimeters extrusion width = 0.45mm
; infill extrusion width = 0.45mm
; solid infill extrusion width = 0.45mm
; top infill extrusion width = 0.42mm
; first layer extrusion width = 0.42mm

M107 ; disable fan
M115 U3.1.0 ; tell printer latest fw version
M83  ; extruder relative mode
M104 S230 ; set extruder temp
M140 S85 ; set bed temp
M190 S85 ; wait for bed temp
M109 S230 ; wait for extruder temp
G28 W ; home all without mesh bed level
G80 ; mesh bed leveling
G1 Y-3.0 F1000.0 ; go outside pritn area
G1 X60.0 E9.0  F1000.0 ; intro line
G1 X100.0 E12.5  F1000.0 ; intro line
G92 E0.0
M900 K45
G21 ; set units to millimeters
G90 ; use absolute coordinates
M83 ; use relative distances for extrusion
;BEFORE_LAYER_CHANGE
;0.2


G1 E-0.80000 F2100.00000 ; retract
G1 Z0.600 F7200.000 ; lift Z
;AFTER_LAYER_CHANGE
;0.2
G1 X59.004 Y74.155 F7200.000 ; move to first skirt point
G1 Z0.200 F7200.000 ; restore layer Z
G1 E0.80000 F2100.00000 ; unretract
M204 S1000 ; adjust acceleration
G1 F1800
G1 X60.547 Y73.178 E0.05728 ; skirt
G1 X62.367 Y72.297 E0.06340 ; skirt
G1 X64.104 Y71.682 E0.05778 ; skirt
G1 X66.208 Y71.208 E0.06761 ; skirt
G1 X67.837 Y71.076 E0.05124 ; skirt
G1 X81.566 Y71.076 E0.43046 ; skirt
G1 X83.482 Y71.250 E0.06033 ; skirt
G1 X85.198 Y71.644 E0.05520 ; skirt
G1 X86.932 Y72.250 E0.05761 ; skirt
G1 X105.944 Y79.762 E0.64095 ; skirt
G1 X106.566 Y80.197 E0.02378 ; skirt
G1 X112.294 Y85.924 E0.25397 ; skirt
G1 X112.629 Y86.376 E0.01763 ; skirt
G1 X112.849 Y86.889 E0.01752 ; skirt
G1 X117.030 Y102.111 E0.49495 ; skirt
G1 X117.237 Y103.815 E0.05379 ; skirt
G1 X117.038 Y105.484 E0.05272 ; skirt
G1 X116.894 Y106.004 E0.01692 ; skirt
G1 X116.160 Y107.651 E0.05652 ; skirt
G1 X115.086 Y109.027 E0.05474 ; skirt
G1 X92.200 Y131.907 E1.01466 ; skirt
G1 X90.904 Y132.995 E0.05306 ; skirt
G1 X89.304 Y134.003 E0.05930 ; skirt
G1 X87.539 Y134.850 E0.06137 ; skirt
G1 X85.652 Y135.509 E0.06267 ; skirt
G1 X83.845 Y135.916 E0.05809 ; skirt
G1 X82.112 Y136.066 E0.05453 ; skirt
G1 X68.336 Y136.066 E0.43195 ; skirt
G1 X66.484 Y135.901 E0.05831 ; skirt
G1 X64.725 Y135.498 E0.05657 ; skirt
G1 X62.942 Y134.874 E0.05924 ; skirt
G1 X44.130 Y127.446 E0.63415 ; skirt
G1 X43.679 Y127.208 E0.01597 ; skirt
G1 X37.640 Y121.230 E0.26643 ; skirt
G1 X37.332 Y120.834 E0.01574 ; skirt
G1 X37.114 Y120.382 E0.01574 ; skirt
G1 X32.884 Y104.992 E0.50043 ; skirt
G1 X32.683 Y103.321 E0.05277 ; skirt
G1 X32.883 Y101.655 E0.05261 ; skirt
G1 X33.027 Y101.135 E0.01692 ; skirt
G1 X33.760 Y99.490 E0.05647 ; skirt
G1 X34.834 Y98.114 E0.05473 ; skirt
G1 X57.659 Y75.292 E1.01204 ; skirt
G1 X58.958 Y74.194 E0.05333 ; skirt
G1 F5760
G1 X60.547 Y73.178 E-0.65329 ; wipe and retract
G1 F5760
G1 X60.824 Y73.044 E-0.10671 ; wipe and retract
G1 E-0.04000 F2100.00000 ; retract
G1 Z0.800 F7200.000 ; lift Z
G1 X60.559 Y83.954 F7200.000 ; move to first perimeter point
G1 Z0.200 F7200.000 ; restore layer Z
G1 E0.80000 F2100.00000 ; unretract
G1 F1800
G1 X61.373 Y84.640 E0.03339 ; perimeter
G1 X61.814 Y85.704 E0.03609 ; perimeter
G1 X61.946 Y86.993 E0.04064 ; perimeter
G1 X61.946 Y108.532 E0.67533 ; perimeter
G1 X53.059 Y117.148 E0.38811 ; perimeter
G1 X43.153 Y107.244 E0.43920 ; perimeter
G1 X42.287 Y106.115 E0.04460 ; perimeter
G1 X41.728 Y104.753 E0.04617 ; perimeter
G1 X41.540 Y103.321 E0.04530 ; perimeter
G1 X41.730 Y101.874 E0.04576 ; perimeter
G1 X42.288 Y100.525 E0.04577 ; perimeter
G1 X43.153 Y99.397 E0.04458 ; perimeter
G1 X57.430 Y85.123 E0.63300 ; perimeter
G1 X58.435 Y84.304 E0.04063 ; perimeter
G1 X59.499 Y83.864 E0.03612 ; perimeter
G1 X60.500 Y83.949 E0.03148 ; perimeter
G1 X60.408 Y84.319 F7200.000 ; move to first perimeter point
G1 F1800
G1 X61.060 Y84.869 E0.02675 ; perimeter
G1 X61.445 Y85.797 E0.03148 ; perimeter
G1 X61.569 Y87.012 E0.03830 ; perimeter
G1 X61.569 Y108.372 E0.66972 ; perimeter
G1 X53.063 Y116.619 E0.37146 ; perimeter
G1 X43.438 Y106.995 E0.42678 ; perimeter
G1 X42.617 Y105.926 E0.04225 ; perimeter
G1 X42.095 Y104.656 E0.04305 ; perimeter
G1 X41.920 Y103.321 E0.04220 ; perimeter
G1 X42.097 Y101.972 E0.04265 ; perimeter
G1 X42.617 Y100.715 E0.04266 ; perimeter
G1 X43.438 Y99.646 E0.04224 ; perimeter
G1 X57.683 Y85.403 E0.63162 ; perimeter
G1 X58.630 Y84.632 E0.03830 ; perimeter
G1 X59.559 Y84.247 E0.03151 ; perimeter
G1 X60.348 Y84.314 E0.02485 ; perimeter
G1 X60.729 Y84.081 F7200.000 ; move inwards before travel
G1 F5760
G1 X61.060 Y84.869 E-0.31267 ; wipe and retract
G1 F5760
G1 X61.445 Y85.797 E-0.34777 ; wipe and retract
G1 F5760
G1 X61.474 Y86.083 E-0.09956 ; wipe and retract
G1 E-0.04000 F2100.00000 ; retract
G1 Z0.800 F7200.000 ; lift Z
G1 X72.696 Y74.506 F7200.000 ; move to first perimeter point
G1 Z0.200 F7200.000 ; restore layer Z
G1 E0.80000 F2100.00000 ; unretract
G1 F1800
G1 X69.772 Y74.506 E0.09168 ; perimeter
G1 X69.772 Y81.106 E0.20694 ; perimeter
G1 X65.772 Y81.106 E0.12542 ; perimeter
G1 X65.772 Y109.806 E0.89987 ; perimeter
G1 X55.590 Y119.679 E0.44468 ; perimeter
G1 X57.430 Y121.518 E0.08158 ; perimeter
G1 X58.220 Y122.161 E0.03193 ; perimeter
G1 X61.383 Y124.850 E0.13018 ; perimeter
G1 X62.170 Y125.358 E0.02936 ; perimeter
G1 X63.023 Y125.757 E0.02951 ; perimeter
G1 X63.930 Y126.040 E0.02981 ; perimeter
G1 X64.880 Y126.209 E0.03024 ; perimeter
G1 X65.772 Y126.256 E0.02801 ; perimeter
G1 X65.772 Y126.275 E0.00059 ; perimeter
G1 X69.772 Y126.275 E0.12542 ; perimeter
G1 X69.772 Y132.275 E0.18813 ; perimeter
G1 X71.421 Y132.275 E0.05171 ; perimeter
G1 X70.181 Y133.102 E0.04673 ; perimeter
G1 X68.384 Y133.102 E0.05635 ; perimeter
G1 X67.035 Y132.988 E0.04243 ; perimeter
G1 X65.549 Y132.649 E0.04780 ; perimeter
G1 X64.013 Y132.109 E0.05105 ; perimeter
G1 X62.546 Y131.405 E0.05100 ; perimeter
G1 X61.256 Y130.593 E0.04779 ; perimeter
G1 X60.221 Y129.719 E0.04246 ; perimeter
G1 X49.819 Y119.318 E0.46125 ; perimeter
G1 X47.220 Y121.916 E0.11521 ; perimeter
G1 X49.956 Y124.651 E0.12129 ; perimeter
G1 X45.253 Y124.651 E0.14747 ; perimeter
G1 X39.940 Y119.339 E0.23557 ; perimeter
G1 X39.940 Y114.636 E0.14745 ; perimeter
G1 X42.677 Y117.372 E0.12134 ; perimeter
G1 X45.275 Y114.774 E0.11521 ; perimeter
G1 X36.967 Y106.468 E0.36834 ; perimeter
G1 X36.243 Y105.524 E0.03731 ; perimeter
G1 X35.803 Y104.461 E0.03608 ; perimeter
G1 X35.652 Y103.321 E0.03605 ; perimeter
G1 X35.803 Y102.180 E0.03608 ; perimeter
G1 X36.243 Y101.117 E0.03608 ; perimeter
G1 X36.967 Y100.173 E0.03731 ; perimeter
G1 X59.721 Y77.422 E1.00890 ; perimeter
G1 X60.756 Y76.548 E0.04246 ; perimeter
G1 X62.046 Y75.736 E0.04779 ; perimeter
G1 X63.513 Y75.032 E0.05100 ; perimeter
G1 X65.049 Y74.492 E0.05105 ; perimeter
G1 X66.535 Y74.155 E0.04779 ; perimeter
G1 X67.884 Y74.040 E0.04244 ; perimeter
G1 X72.773 Y74.040 E0.15329 ; perimeter
G1 X72.773 Y76.256 E0.06948 ; perimeter
G1 X72.696 Y76.256 E0.00241 ; perimeter
G1 X72.696 Y74.566 E0.05299 ; perimeter
G1 F5760
G1 X70.502 Y74.521 E-0.76000 ; wipe and retract
G1 E-0.04000 F2100.00000 ; retract
G1 Z0.800 F7200.000 ; lift Z
G1 X72.696 Y130.784 F7200.000 ; move to first perimeter point
G1 Z0.200 F7200.000 ; restore layer Z
G1 E0.80000 F2100.00000 ; unretract
G1 F1800
G1 X72.773 Y130.784 E0.00241 ; perimeter
G1 X72.773 Y131.374 E0.01849 ; perimeter
G1 X72.696 Y131.425 E0.00290 ; perimeter
G1 X72.696 Y130.844 E0.01822 ; perimeter
G1 F5760
G1 X72.773 Y130.784 E-0.03377 ; wipe and retract
G1 F5760
G1 X72.773 Y131.374 E-0.20426 ; wipe and retract
G1 F5760
G1 X72.696 Y131.425 E-0.03199 ; wipe and retract
G1 F5760
G1 X72.696 Y130.844 E-0.20123 ; wipe and retract
G1 E-0.32875 F2100.00000 ; retract
G1 Z0.800 F7200.000 ; lift Z
G1 X72.319 Y74.883 F7200.000 ; move to first perimeter point
G1 Z0.200 F7200.000 ; restore layer Z
G1 E0.80000 F2100.00000 ; unretract
G1 F1800
G1 X70.149 Y74.883 E0.06804 ; perimeter
G1 X70.149 Y81.483 E0.20694 ; perimeter
G1 X66.149 Y81.483 E0.12542 ; perimeter
G1 X66.149 Y109.966 E0.89305 ; perimeter
G1 X56.127 Y119.683 E0.43767 ; perimeter
G1 X57.683 Y121.238 E0.06897 ; perimeter
G1 X58.461 Y121.871 E0.03145 ; perimeter
G1 X61.608 Y124.547 E0.12953 ; perimeter
G1 X62.353 Y125.027 E0.02778 ; perimeter
G1 X63.160 Y125.404 E0.02792 ; perimeter
G1 X64.020 Y125.673 E0.02826 ; perimeter
G1 X64.923 Y125.834 E0.02876 ; perimeter
G1 X65.860 Y125.883 E0.02942 ; perimeter
G1 X66.149 Y125.865 E0.00908 ; perimeter
G1 X66.149 Y125.898 E0.00103 ; perimeter
G1 X70.149 Y125.898 E0.12542 ; perimeter
G1 X70.149 Y131.898 E0.18813 ; perimeter
G1 X72.319 Y131.898 E0.06804 ; perimeter
G1 X72.319 Y130.407 E0.04675 ; perimeter
G1 X73.150 Y130.407 E0.02606 ; perimeter
G1 X73.150 Y131.576 E0.03664 ; perimeter
G1 X70.295 Y133.479 E0.10758 ; perimeter
G1 X68.368 Y133.479 E0.06044 ; perimeter
G1 X66.977 Y133.361 E0.04376 ; perimeter
G1 X65.444 Y133.012 E0.04930 ; perimeter
G1 X63.868 Y132.458 E0.05238 ; perimeter
G1 X62.363 Y131.736 E0.05233 ; perimeter
G1 X61.033 Y130.898 E0.04930 ; perimeter
G1 X59.966 Y129.997 E0.04379 ; perimeter
G1 X49.819 Y119.851 E0.44992 ; perimeter
G1 X47.754 Y121.916 E0.09157 ; perimeter
G1 X50.867 Y125.028 E0.13801 ; perimeter
G1 X45.097 Y125.028 E0.18091 ; perimeter
G1 X39.563 Y119.495 E0.24536 ; perimeter
G1 X39.563 Y113.726 E0.18089 ; perimeter
G1 X42.677 Y116.839 E0.13806 ; perimeter
G1 X44.742 Y114.774 E0.09156 ; perimeter
G1 X36.683 Y106.717 E0.35730 ; perimeter
G1 X35.913 Y105.714 E0.03964 ; perimeter
G1 X35.435 Y104.559 E0.03919 ; perimeter
G1 X35.272 Y103.321 E0.03916 ; perimeter
G1 X35.435 Y102.082 E0.03919 ; perimeter
G1 X35.913 Y100.927 E0.03919 ; perimeter
G1 X36.683 Y99.924 E0.03964 ; perimeter
G1 X59.466 Y77.144 E1.01017 ; perimeter
G1 X60.533 Y76.243 E0.04379 ; perimeter
G1 X61.863 Y75.405 E0.04930 ; perimeter
G1 X63.368 Y74.683 E0.05233 ; perimeter
G1 X64.944 Y74.129 E0.05237 ; perimeter
G1 X66.477 Y73.781 E0.04929 ; perimeter
G1 X67.868 Y73.663 E0.04376 ; perimeter
G1 X73.150 Y73.663 E0.16562 ; perimeter
G1 X73.150 Y76.633 E0.09312 ; perimeter
G1 X72.319 Y76.633 E0.02606 ; perimeter
G1 X72.319 Y74.943 E0.05299 ; perimeter
G1 X72.260 Y74.487 F7200.000 ; move inwards before travel
G1 X72.584 Y74.273 F7200.000 ; move to first infill point
G1 F1800
G1 X69.583 Y74.273 E0.01144 ; infill
G1 X69.659 Y75.109 F7200.000 ; move to first infill point
G1 F1800
G1 X68.872 Y74.323 E0.03511 ; infill
G1 X68.335 Y74.323 E0.01694 ; infill
G1 X69.489 Y75.477 E0.05149 ; infill
G1 X69.489 Y76.013 E0.01694 ; infill
G1 X67.806 Y74.331 E0.07512 ; infill
G1 X67.311 Y74.372 E0.01568 ; infill
G1 X69.489 Y76.550 E0.09721 ; infill
G1 X69.489 Y77.087 E0.01694 ; infill
G1 X66.816 Y74.414 E0.11930 ; infill
G1 X66.579 Y74.435 E0.00754 ; infill
G1 X66.351 Y74.486 E0.00735 ; infill
G1 X69.489 Y77.624 E0.14006 ; infill
G1 X69.489 Y78.161 E0.01694 ; infill
G1 X65.914 Y74.586 E0.15958 ; infill
G1 X65.476 Y74.685 E0.01416 ; infill
G1 X69.489 Y78.698 E0.17911 ; infill
G1 X69.489 Y79.234 E0.01694 ; infill
G1 X65.047 Y74.792 E0.19828 ; infill
G1 X64.650 Y74.932 E0.01329 ; infill
G1 X69.489 Y79.771 E0.21601 ; infill
G1 X69.489 Y80.308 E0.01694 ; infill
G1 X64.253 Y75.072 E0.23374 ; infill
G1 X63.856 Y75.211 E0.01329 ; infill
G1 X69.467 Y80.823 E0.25050 ; infill
G1 X68.930 Y80.823 E0.01694 ; infill
G1 X63.472 Y75.365 E0.24363 ; infill
G1 X63.110 Y75.539 E0.01270 ; infill
G1 X68.394 Y80.823 E0.23586 ; infill
G1 X67.857 Y80.823 E0.01694 ; infill
G1 X62.747 Y75.713 E0.22810 ; infill
G1 X62.384 Y75.887 E0.01270 ; infill
G1 X67.320 Y80.823 E0.22033 ; infill
G1 X66.783 Y80.823 E0.01694 ; infill
G1 X62.036 Y76.076 E0.21189 ; infill
G1 X61.707 Y76.284 E0.01229 ; infill
G1 X66.246 Y80.823 E0.20263 ; infill
G1 X65.709 Y80.823 E0.01694 ; infill
G1 X61.377 Y76.491 E0.19337 ; infill
G1 X61.048 Y76.699 E0.01229 ; infill
G1 X65.489 Y81.140 E0.19824 ; infill
G1 X65.489 Y81.676 E0.01694 ; infill
G1 X60.742 Y76.930 E0.21188 ; infill
G1 X60.451 Y77.176 E0.01202 ; infill
G1 X65.489 Y82.213 E0.22487 ; infill
G1 X65.489 Y82.750 E0.01694 ; infill
G1 X60.160 Y77.421 E0.23786 ; infill
G1 X59.873 Y77.670 E0.01201 ; infill
G1 X65.489 Y83.287 E0.25071 ; infill
G1 X65.489 Y83.824 E0.01694 ; infill
G1 X59.604 Y77.939 E0.26269 ; infill
G1 X59.336 Y78.207 E0.01198 ; infill
G1 X65.489 Y84.361 E0.27467 ; infill
G1 X65.489 Y84.897 E0.01694 ; infill
G1 X59.067 Y78.476 E0.28665 ; infill
G1 X58.799 Y78.744 E0.01198 ; infill
G1 X65.489 Y85.434 E0.29864 ; infill
G1 X65.489 Y85.971 E0.01694 ; infill
G1 X58.530 Y79.012 E0.31062 ; infill
G1 X58.262 Y79.281 E0.01198 ; infill
G1 X65.489 Y86.508 E0.32260 ; infill
G1 X65.489 Y87.045 E0.01694 ; infill
G1 X57.993 Y79.549 E0.33458 ; infill
G1 X57.725 Y79.818 E0.01198 ; infill
G1 X65.489 Y87.582 E0.34657 ; infill
G1 X65.489 Y88.118 E0.01694 ; infill
G1 X57.457 Y80.086 E0.35855 ; infill
G1 X57.188 Y80.354 E0.01198 ; infill
G1 X60.499 Y83.665 E0.14777 ; infill
G1 X59.912 Y83.615 E0.01858 ; infill
G1 X56.920 Y80.623 E0.13357 ; infill
G1 X56.651 Y80.891 E0.01198 ; infill
G1 X59.371 Y83.611 E0.12140 ; infill
G1 X58.991 Y83.768 E0.01297 ; infill
G1 X56.383 Y81.160 E0.11644 ; infill
G1 X56.114 Y81.428 E0.01198 ; infill
G1 X58.612 Y83.925 E0.11147 ; infill
G1 X58.288 Y84.059 E0.01104 ; infill
G1 X58.244 Y84.095 E0.00179 ; infill
G1 X55.846 Y81.696 E0.10706 ; infill
G1 X55.578 Y81.965 E0.01198 ; infill
G1 X57.948 Y84.336 E0.10583 ; infill
G1 X57.653 Y84.577 E0.01204 ; infill
G1 X55.309 Y82.233 E0.10461 ; infill
G1 X55.041 Y82.502 E0.01198 ; infill
G1 X57.357 Y84.818 E0.10338 ; infill
G1 X57.077 Y85.075 E0.01199 ; infill
G1 X54.772 Y82.770 E0.10290 ; infill
G1 X54.504 Y83.038 E0.01198 ; infill
G1 X56.809 Y85.344 E0.10290 ; infill
G1 X56.541 Y85.612 E0.01198 ; infill
G1 X54.235 Y83.307 E0.10290 ; infill
G1 X53.967 Y83.575 E0.01198 ; infill
G1 X56.272 Y85.880 E0.10290 ; infill
G1 X56.004 Y86.149 E0.01198 ; infill
G1 X53.699 Y83.844 E0.10290 ; infill
G1 X53.430 Y84.112 E0.01198 ; infill
G1 X55.735 Y86.417 E0.10290 ; infill
G1 X55.467 Y86.686 E0.01198 ; infill
G1 X53.162 Y84.380 E0.10290 ; infill
G1 X52.893 Y84.649 E0.01198 ; infill
G1 X55.198 Y86.954 E0.10290 ; infill
G1 X54.930 Y87.222 E0.01198 ; infill
G1 X52.625 Y84.917 E0.10290 ; infill
G1 X52.356 Y85.186 E0.01198 ; infill
G1 X54.661 Y87.491 E0.10290 ; infill
G1 X54.393 Y87.759 E0.01198 ; infill
G1 X52.088 Y85.454 E0.10290 ; infill
G1 X51.819 Y85.722 E0.01198 ; infill
G1 X54.125 Y88.028 E0.10290 ; infill
G1 X53.856 Y88.296 E0.01198 ; infill
G1 X51.551 Y85.991 E0.10290 ; infill
G1 X51.283 Y86.259 E0.01198 ; infill
G1 X53.588 Y88.564 E0.10290 ; infill
G1 X53.319 Y88.833 E0.01198 ; infill
G1 X51.014 Y86.528 E0.10290 ; infill
G1 X50.746 Y86.796 E0.01198 ; infill
G1 X53.051 Y89.101 E0.10290 ; infill
G1 X52.782 Y89.370 E0.01198 ; infill
G1 X50.477 Y87.064 E0.10290 ; infill
G1 X50.209 Y87.333 E0.01198 ; infill
G1 X52.514 Y89.638 E0.10290 ; infill
G1 X52.246 Y89.906 E0.01198 ; infill
G1 X49.940 Y87.601 E0.10290 ; infill
G1 X49.672 Y87.870 E0.01198 ; infill
G1 X51.977 Y90.175 E0.10290 ; infill
G1 X51.709 Y90.443 E0.01198 ; infill
G1 X49.404 Y88.138 E0.10290 ; infill
G1 X49.135 Y88.406 E0.01198 ; infill
G1 X51.440 Y90.712 E0.10290 ; infill
G1 X51.172 Y90.980 E0.01198 ; infill
G1 X48.867 Y88.675 E0.10290 ; infill
G1 X48.598 Y88.943 E0.01198 ; infill
G1 X50.903 Y91.248 E0.10290 ; infill
G1 X50.635 Y91.517 E0.01198 ; infill
G1 X48.330 Y89.212 E0.10290 ; infill
G1 X48.061 Y89.480 E0.01198 ; infill
G1 X50.366 Y91.785 E0.10290 ; infill
G1 X50.098 Y92.054 E0.01198 ; infill
G1 X47.793 Y89.748 E0.10290 ; infill
G1 X47.524 Y90.017 E0.01198 ; infill
G1 X49.830 Y92.322 E0.10290 ; infill
G1 X49.561 Y92.590 E0.01198 ; infill
G1 X47.256 Y90.285 E0.10290 ; infill
G1 X46.988 Y90.554 E0.01198 ; infill
G1 X49.293 Y92.859 E0.10290 ; infill
G1 X49.024 Y93.127 E0.01198 ; infill
G1 X46.719 Y90.822 E0.10290 ; infill
G1 X46.451 Y91.090 E0.01198 ; infill
G1 X48.756 Y93.396 E0.10290 ; infill
G1 X48.487 Y93.664 E0.01198 ; infill
G1 X46.182 Y91.359 E0.10290 ; infill
G1 X45.914 Y91.627 E0.01198 ; infill
G1 X48.219 Y93.932 E0.10290 ; infill
G1 X47.951 Y94.201 E0.01198 ; infill
