; generated by Slic3r 1.37.2.1-prusa3d-linux64 on 2018-10-22 at 12:11:55

; 

; external perimeters extrusion width = 0.42mm
; perimeters extrusion width = 0.45mm
; infill extrusion width = 0.45mm
; solid infill extrusion width = 0.45mm
; top infill extrusion width = 0.42mm
; first layer extrusion width = 0.42mm

M107 ; disable fan
M115 U3.1.0 ; tell printer latest fw version
M83  ; extruder relative mode
M104 S230 ; set extruder temp
M140 S85 ; set bed temp
M190 S85 ; wait for bed temp
M109 S230 ; wait for extruder temp
G28 W ; home all without mesh bed level
G80 ; mesh bed leveling
G1 Y-3.0 F1000.0 ; go outside pritn area
G1 X60.0 E9.0  F1000.0 ; intro line
G1 X100.0 E12.5  F1000.0 ; intro line
G92 E0.0
M900 K45
G21 ; set units to millimeters
G90 ; use absolute coordinates
M83 ; use relative distances for extrusion
;BEFORE_LAYER_CHANGE
;0.2


G1 E-0.80000 F2100.00000 ; retract
G1 Z0.600 F7200.000 ; lift Z
;AFTER_LAYER_CHANGE
;0.2
G1 X45.208 Y65.297 F7200.000 ; move to first skirt point
G1 Z0.200 F7200.000 ; restore layer Z
G1 E0.80000 F2100.00000 ; unretract
M204 S1000 ; adjust acceleration
G1 F1800
G1 X45.759 Y65.069 E0.01870 ; skirt
G1 X46.346 Y64.984 E0.01858 ; skirt
G1 X119.023 Y63.978 E2.27898 ; skirt
G1 X178.053 Y63.978 E1.85082 ; skirt
G1 X178.955 Y64.157 E0.02884 ; skirt
G1 X179.721 Y64.666 E0.02884 ; skirt
G1 X180.237 Y65.427 E0.02884 ; skirt
G1 X180.426 Y66.327 E0.02884 ; skirt
G1 X180.426 Y95.367 E0.91050 ; skirt
G1 X180.080 Y137.676 E1.32663 ; skirt
G1 X179.988 Y138.281 E0.01917 ; skirt
G1 X179.748 Y138.839 E0.01906 ; skirt
G1 X179.370 Y139.320 E0.01917 ; skirt
G1 X178.883 Y139.690 E0.01917 ; skirt
G1 X178.340 Y139.916 E0.01846 ; skirt
G1 X177.761 Y140.002 E0.01835 ; skirt
G1 X106.002 Y141.387 E2.25037 ; skirt
G1 X46.949 Y141.386 E1.85158 ; skirt
G1 X46.344 Y141.296 E0.01917 ; skirt
G1 X45.782 Y141.054 E0.01917 ; skirt
G1 X45.300 Y140.677 E0.01917 ; skirt
G1 X44.931 Y140.190 E0.01917 ; skirt
G1 X44.704 Y139.647 E0.01846 ; skirt
G1 X44.618 Y139.060 E0.01858 ; skirt
G1 X44.012 Y96.391 E1.33801 ; skirt
G1 X44.011 Y67.353 E0.91045 ; skirt
G1 X44.094 Y66.740 E0.01941 ; skirt
G1 X44.334 Y66.165 E0.01953 ; skirt
G1 X44.715 Y65.672 E0.01953 ; skirt
G1 X45.160 Y65.334 E0.01753 ; skirt
G1 F5760
G1 X45.759 Y65.069 E-0.22674 ; wipe and retract
G1 F5760
G1 X46.346 Y64.984 E-0.20527 ; wipe and retract
G1 F5760
G1 X47.292 Y64.971 E-0.32799 ; wipe and retract
G1 E-0.04000 F2100.00000 ; retract
G1 Z0.800 F7200.000 ; lift Z
G1 X87.329 Y80.889 F7200.000 ; move to first perimeter point
G1 Z0.200 F7200.000 ; restore layer Z
G1 E0.80000 F2100.00000 ; unretract
G1 F1800
G1 X87.691 Y80.015 E0.02967 ; perimeter
G1 X88.278 Y79.250 E0.03022 ; perimeter
G1 X89.042 Y78.663 E0.03022 ; perimeter
G1 X89.933 Y78.294 E0.03022 ; perimeter
G1 X90.871 Y78.171 E0.02967 ; perimeter
G1 X91.843 Y78.294 E0.03071 ; perimeter
G1 X92.735 Y78.663 E0.03027 ; perimeter
G1 X93.499 Y79.250 E0.03022 ; perimeter
G1 X94.086 Y80.015 E0.03022 ; perimeter
G1 X94.455 Y80.905 E0.03022 ; perimeter
G1 X94.581 Y81.862 E0.03027 ; perimeter
G1 X94.448 Y82.833 E0.03071 ; perimeter
G1 X94.086 Y83.707 E0.02967 ; perimeter
G1 X93.499 Y84.471 E0.03022 ; perimeter
G1 X92.735 Y85.058 E0.03022 ; perimeter
G1 X91.844 Y85.427 E0.03022 ; perimeter
G1 X90.888 Y85.553 E0.03022 ; perimeter
G1 X89.933 Y85.427 E0.03022 ; perimeter
G1 X89.059 Y85.065 E0.02967 ; perimeter
G1 X88.279 Y84.473 E0.03071 ; perimeter
G1 X87.691 Y83.707 E0.03027 ; perimeter
G1 X87.322 Y82.816 E0.03022 ; perimeter
G1 X87.196 Y81.859 E0.03027 ; perimeter
G1 X87.321 Y80.948 E0.02883 ; perimeter
G1 X87.694 Y80.999 F7200.000 ; move to first perimeter point
G1 F1800
G1 X88.020 Y80.205 E0.02693 ; perimeter
G1 X88.547 Y79.519 E0.02711 ; perimeter
G1 X89.233 Y78.993 E0.02711 ; perimeter
G1 X90.031 Y78.662 E0.02711 ; perimeter
G1 X90.872 Y78.551 E0.02658 ; perimeter
G1 X91.745 Y78.662 E0.02760 ; perimeter
G1 X92.544 Y78.993 E0.02712 ; perimeter
G1 X93.230 Y79.519 E0.02711 ; perimeter
G1 X93.757 Y80.205 E0.02711 ; perimeter
G1 X94.087 Y81.004 E0.02711 ; perimeter
G1 X94.200 Y81.861 E0.02712 ; perimeter
G1 X94.081 Y82.733 E0.02760 ; perimeter
G1 X93.757 Y83.517 E0.02658 ; perimeter
G1 X93.230 Y84.203 E0.02711 ; perimeter
G1 X92.544 Y84.729 E0.02711 ; perimeter
G1 X91.746 Y85.060 E0.02711 ; perimeter
G1 X90.888 Y85.173 E0.02711 ; perimeter
G1 X90.031 Y85.060 E0.02711 ; perimeter
G1 X89.248 Y84.735 E0.02658 ; perimeter
G1 X88.547 Y84.203 E0.02760 ; perimeter
G1 X88.020 Y83.517 E0.02712 ; perimeter
G1 X87.690 Y82.718 E0.02711 ; perimeter
G1 X87.577 Y81.860 E0.02712 ; perimeter
G1 X87.686 Y81.059 E0.02536 ; perimeter
G1 X87.411 Y80.717 F7200.000 ; move inwards before travel
G1 F5760
G1 X88.020 Y80.205 E-0.31761 ; wipe and retract
G1 F5760
G1 X88.547 Y79.519 E-0.29944 ; wipe and retract
G1 F5760
G1 X88.874 Y79.268 E-0.14295 ; wipe and retract
G1 E-0.04000 F2100.00000 ; retract
G1 Z0.800 F7200.000 ; lift Z
G1 X64.581 Y81.861 F7200.000 ; move to first perimeter point
G1 Z0.200 F7200.000 ; restore layer Z
G1 E0.80000 F2100.00000 ; unretract
G1 F1800
G1 X64.455 Y82.816 E0.03022 ; perimeter
G1 X64.086 Y83.707 E0.03022 ; perimeter
G1 X63.499 Y84.471 E0.03022 ; perimeter
G1 X62.735 Y85.058 E0.03022 ; perimeter
G1 X61.844 Y85.427 E0.03022 ; perimeter
G1 X60.888 Y85.553 E0.03022 ; perimeter
G1 X59.933 Y85.427 E0.03022 ; perimeter
G1 X59.042 Y85.058 E0.03022 ; perimeter
G1 X58.278 Y84.471 E0.03022 ; perimeter
G1 X57.691 Y83.707 E0.03022 ; perimeter
G1 X57.322 Y82.816 E0.03022 ; perimeter
G1 X57.196 Y81.861 E0.03022 ; perimeter
G1 X57.322 Y80.905 E0.03022 ; perimeter
G1 X57.691 Y80.015 E0.03022 ; perimeter
G1 X58.278 Y79.250 E0.03022 ; perimeter
G1 X59.042 Y78.663 E0.03022 ; perimeter
G1 X59.933 Y78.294 E0.03022 ; perimeter
G1 X60.871 Y78.171 E0.02967 ; perimeter
G1 X61.843 Y78.294 E0.03071 ; perimeter
G1 X62.735 Y78.663 E0.03027 ; perimeter
G1 X63.500 Y79.251 E0.03027 ; perimeter
G1 X64.093 Y80.031 E0.03071 ; perimeter
G1 X64.455 Y80.905 E0.02967 ; perimeter
G1 X64.573 Y81.801 E0.02834 ; perimeter
G1 X64.199 Y81.850 F7200.000 ; move to first perimeter point
G1 F1800
G1 X64.087 Y82.718 E0.02742 ; perimeter
G1 X63.757 Y83.517 E0.02711 ; perimeter
G1 X63.230 Y84.203 E0.02711 ; perimeter
G1 X62.544 Y84.729 E0.02711 ; perimeter
G1 X61.746 Y85.060 E0.02711 ; perimeter
G1 X60.888 Y85.173 E0.02711 ; perimeter
G1 X60.031 Y85.060 E0.02711 ; perimeter
G1 X59.233 Y84.729 E0.02711 ; perimeter
G1 X58.547 Y84.203 E0.02711 ; perimeter
G1 X58.020 Y83.517 E0.02711 ; perimeter
G1 X57.690 Y82.718 E0.02711 ; perimeter
G1 X57.577 Y81.861 E0.02711 ; perimeter
G1 X57.690 Y81.004 E0.02711 ; perimeter
G1 X58.020 Y80.205 E0.02711 ; perimeter
G1 X58.547 Y79.519 E0.02711 ; perimeter
G1 X59.233 Y78.993 E0.02711 ; perimeter
G1 X60.031 Y78.662 E0.02711 ; perimeter
G1 X60.872 Y78.551 E0.02658 ; perimeter
G1 X61.745 Y78.662 E0.02760 ; perimeter
G1 X62.544 Y78.993 E0.02712 ; perimeter
G1 X63.231 Y79.519 E0.02712 ; perimeter
G1 X63.763 Y80.220 E0.02760 ; perimeter
G1 X64.087 Y81.004 E0.02658 ; perimeter
G1 X64.191 Y81.791 E0.02490 ; perimeter
G1 X64.546 Y82.050 F7200.000 ; move inwards before travel
G1 F5760
G1 X64.087 Y82.718 E-0.32304 ; wipe and retract
G1 F5760
G1 X63.757 Y83.517 E-0.29944 ; wipe and retract
G1 F5760
G1 X63.515 Y83.832 E-0.13752 ; wipe and retract
G1 E-0.04000 F2100.00000 ; retract
G1 Z0.800 F7200.000 ; lift Z
G1 X47.376 Y68.348 F7200.000 ; move to first perimeter point
G1 Z0.200 F7200.000 ; restore layer Z
G1 E0.80000 F2100.00000 ; unretract
G1 F1800
G1 X104.401 Y68.348 E1.78801 ; perimeter
G1 X104.401 Y95.374 E0.84738 ; perimeter
G1 X47.376 Y95.374 E1.78801 ; perimeter
G1 X47.376 Y68.408 E0.84550 ; perimeter
G1 X46.998 Y67.971 F7200.000 ; move to first perimeter point
G1 F1800
G1 X104.778 Y67.971 E1.81165 ; perimeter
G1 X104.778 Y95.751 E0.87102 ; perimeter
G1 X46.998 Y95.751 E1.81165 ; perimeter
G1 X46.998 Y68.031 E0.86914 ; perimeter
G1 X47.394 Y68.030 F7200.000 ; move inwards before travel
G1 F5760
G1 X49.193 Y68.028 E-0.76000 ; wipe and retract
G1 E-0.04000 F2100.00000 ; retract
G1 Z0.800 F7200.000 ; lift Z
G1 X48.256 Y95.261 F7200.000 ; move to first infill point
G1 Z0.200 F7200.000 ; restore layer Z
G1 E0.80000 F2100.00000 ; unretract
G1 F1800
G1 X47.658 Y94.663 E0.02663 ; infill
G1 X47.658 Y94.127 E0.01692 ; infill
G1 X48.622 Y95.091 E0.04299 ; infill
G1 X49.159 Y95.091 E0.01692 ; infill
G1 X47.658 Y93.591 E0.06691 ; infill
G1 X47.658 Y93.054 E0.01692 ; infill
G1 X49.695 Y95.091 E0.09083 ; infill
G1 X50.231 Y95.091 E0.01692 ; infill
G1 X47.658 Y92.518 E0.11475 ; infill
G1 X47.658 Y91.982 E0.01692 ; infill
G1 X50.768 Y95.091 E0.13868 ; infill
G1 X51.304 Y95.091 E0.01692 ; infill
G1 X47.658 Y91.445 E0.16260 ; infill
G1 X47.658 Y90.909 E0.01692 ; infill
G1 X51.840 Y95.091 E0.18652 ; infill
G1 X52.377 Y95.091 E0.01692 ; infill
G1 X47.658 Y90.372 E0.21044 ; infill
G1 X47.658 Y89.836 E0.01692 ; infill
G1 X52.913 Y95.091 E0.23437 ; infill
G1 X53.450 Y95.091 E0.01692 ; infill
G1 X47.658 Y89.300 E0.25829 ; infill
G1 X47.658 Y88.763 E0.01692 ; infill
G1 X53.986 Y95.091 E0.28221 ; infill
G1 X54.522 Y95.091 E0.01692 ; infill
G1 X47.658 Y88.227 E0.30613 ; infill
G1 X47.658 Y87.690 E0.01692 ; infill
G1 X55.059 Y95.091 E0.33005 ; infill
G1 X55.595 Y95.091 E0.01692 ; infill
G1 X47.658 Y87.154 E0.35398 ; infill
G1 X47.658 Y86.618 E0.01692 ; infill
G1 X56.131 Y95.091 E0.37790 ; infill
G1 X56.668 Y95.091 E0.01692 ; infill
G1 X47.658 Y86.081 E0.40182 ; infill
G1 X47.658 Y85.545 E0.01692 ; infill
G1 X57.204 Y95.091 E0.42574 ; infill
G1 X57.741 Y95.091 E0.01692 ; infill
G1 X47.658 Y85.009 E0.44967 ; infill
G1 X47.658 Y84.472 E0.01692 ; infill
G1 X58.277 Y95.091 E0.47359 ; infill
G1 X58.813 Y95.091 E0.01692 ; infill
G1 X47.658 Y83.936 E0.49751 ; infill
G1 X47.658 Y83.399 E0.01692 ; infill
G1 X59.350 Y95.091 E0.52143 ; infill
G1 X59.886 Y95.091 E0.01692 ; infill
G1 X47.658 Y82.863 E0.54536 ; infill
G1 X47.658 Y82.327 E0.01692 ; infill
G1 X60.422 Y95.091 E0.56928 ; infill
G1 X60.959 Y95.091 E0.01692 ; infill
G1 X47.658 Y81.790 E0.59320 ; infill
G1 X47.658 Y81.254 E0.01692 ; infill
G1 X61.495 Y95.091 E0.61712 ; infill
G1 X62.032 Y95.091 E0.01692 ; infill
G1 X47.658 Y80.718 E0.64104 ; infill
G1 X47.658 Y80.181 E0.01692 ; infill
G1 X62.568 Y95.091 E0.66497 ; infill
G1 X63.104 Y95.091 E0.01692 ; infill
G1 X47.658 Y79.645 E0.68889 ; infill
G1 X47.658 Y79.108 E0.01692 ; infill
G1 X63.641 Y95.091 E0.71281 ; infill
G1 X64.177 Y95.091 E0.01692 ; infill
G1 X47.658 Y78.572 E0.73673 ; infill
G1 X47.658 Y78.036 E0.01692 ; infill
G1 X64.713 Y95.091 E0.76066 ; infill
G1 X65.250 Y95.091 E0.01692 ; infill
G1 X47.658 Y77.499 E0.78458 ; infill
G1 X47.658 Y76.963 E0.01692 ; infill
G1 X65.786 Y95.091 E0.80850 ; infill
G1 X66.323 Y95.091 E0.01692 ; infill
G1 X47.658 Y76.427 E0.83242 ; infill
G1 X47.658 Y75.890 E0.01692 ; infill
G1 X66.859 Y95.091 E0.85634 ; infill
G1 X67.395 Y95.091 E0.01692 ; infill
G1 X47.658 Y75.354 E0.88027 ; infill
G1 X47.658 Y74.817 E0.01692 ; infill
G1 X68.101 Y95.261 E0.91176 ; infill
G1 F5760
G1 X66.550 Y93.709 E-0.76000 ; wipe and retract
G1 E-0.04000 F2100.00000 ; retract
G1 Z0.800 F7200.000 ; lift Z
G1 X79.365 Y95.261 F7200.000 ; move to first infill point
G1 Z0.200 F7200.000 ; restore layer Z
G1 E0.80000 F2100.00000 ; unretract
G1 F1800
G1 X64.585 Y80.480 E0.65921 ; infill
G1 X64.730 Y80.831 E0.01199 ; infill
G1 X64.780 Y81.212 E0.01211 ; infill
G1 X78.659 Y95.091 E0.61899 ; infill
G1 X78.123 Y95.091 E0.01692 ; infill
G1 X64.862 Y81.830 E0.59144 ; infill
G1 X64.807 Y82.311 E0.01527 ; infill
G1 X77.586 Y95.091 E0.56998 ; infill
G1 X77.050 Y95.091 E0.01692 ; infill
G1 X64.744 Y82.785 E0.54884 ; infill
G1 X64.730 Y82.890 E0.00335 ; infill
G1 X64.608 Y83.185 E0.01007 ; infill
G1 X76.514 Y95.091 E0.53099 ; infill
G1 X75.977 Y95.091 E0.01692 ; infill
G1 X64.451 Y83.564 E0.51407 ; infill
G1 X64.333 Y83.849 E0.00973 ; infill
G1 X64.275 Y83.925 E0.00300 ; infill
G1 X75.441 Y95.091 E0.49800 ; infill
G1 X74.905 Y95.091 E0.01692 ; infill
G1 X64.042 Y84.228 E0.48446 ; infill
G1 X63.809 Y84.532 E0.01206 ; infill
G1 X74.368 Y95.091 E0.47093 ; infill
G1 X73.832 Y95.091 E0.01692 ; infill
G1 X63.539 Y84.798 E0.45908 ; infill
G1 X63.235 Y85.031 E0.01206 ; infill
G1 X73.295 Y95.091 E0.44869 ; infill
G1 X72.759 Y95.091 E0.01692 ; infill
G1 X62.932 Y85.263 E0.43830 ; infill
G1 X62.877 Y85.305 E0.00217 ; infill
G1 X62.566 Y85.434 E0.01062 ; infill
G1 X72.223 Y95.091 E0.43069 ; infill
G1 X71.686 Y95.091 E0.01692 ; infill
G1 X62.187 Y85.591 E0.42368 ; infill
G1 X61.918 Y85.703 E0.00918 ; infill
G1 X61.780 Y85.721 E0.00439 ; infill
G1 X71.150 Y95.091 E0.41791 ; infill
G1 X70.614 Y95.091 E0.01692 ; infill
G1 X61.306 Y85.783 E0.41512 ; infill
G1 X60.888 Y85.838 E0.01328 ; infill
G1 X60.815 Y85.828 E0.00234 ; infill
G1 X70.077 Y95.091 E0.41310 ; infill
G1 X69.541 Y95.091 E0.01692 ; infill
G1 X60.197 Y85.747 E0.41673 ; infill
G1 X59.859 Y85.703 E0.01075 ; infill
G1 X59.444 Y85.531 E0.01415 ; infill
G1 X69.004 Y95.091 E0.42638 ; infill
G1 X68.468 Y95.091 E0.01692 ; infill
G1 X47.658 Y74.281 E0.92811 ; infill
G1 X47.658 Y73.745 E0.01692 ; infill
G1 X57.218 Y83.305 E0.42638 ; infill
G1 X57.047 Y82.890 E0.01415 ; infill
G1 X57.002 Y82.552 E0.01075 ; infill
G1 X47.658 Y73.208 E0.41673 ; infill
G1 X47.658 Y72.672 E0.01692 ; infill
G1 X56.921 Y81.934 E0.41310 ; infill
G1 X56.911 Y81.861 E0.00234 ; infill
G1 X56.966 Y81.443 E0.01328 ; infill
G1 X47.658 Y72.136 E0.41512 ; infill
G1 X47.658 Y71.599 E0.01692 ; infill
G1 X57.028 Y80.969 E0.41791 ; infill
G1 X57.047 Y80.831 E0.00439 ; infill
G1 X57.158 Y80.562 E0.00918 ; infill
G1 X47.658 Y71.063 E0.42368 ; infill
G1 X47.658 Y70.526 E0.01692 ; infill
G1 X57.315 Y80.183 E0.43069 ; infill
G1 X57.444 Y79.872 E0.01062 ; infill
G1 X57.486 Y79.818 E0.00217 ; infill
G1 X47.658 Y69.990 E0.43830 ; infill
G1 X47.658 Y69.454 E0.01692 ; infill
G1 X57.719 Y79.514 E0.44869 ; infill
G1 X57.952 Y79.211 E0.01206 ; infill
G1 X47.658 Y68.917 E0.45908 ; infill
G1 X47.658 Y68.631 E0.00904 ; infill
G1 X47.908 Y68.631 E0.00787 ; infill
G1 X58.217 Y78.940 E0.45979 ; infill
G1 X58.521 Y78.707 E0.01206 ; infill
G1 X48.444 Y68.631 E0.44941 ; infill
G1 X48.981 Y68.631 E0.01692 ; infill
G1 X58.824 Y78.474 E0.43902 ; infill
G1 X58.900 Y78.416 E0.00300 ; infill
G1 X59.185 Y78.298 E0.00973 ; infill
G1 X49.517 Y68.631 E0.43117 ; infill
G1 X50.053 Y68.631 E0.01692 ; infill
G1 X59.564 Y78.141 E0.42417 ; infill
G1 X59.859 Y78.019 E0.01007 ; infill
G1 X59.964 Y78.005 E0.00335 ; infill
G1 X50.590 Y68.631 E0.41810 ; infill
G1 X51.126 Y68.631 E0.01692 ; infill
G1 X60.438 Y77.943 E0.41532 ; infill
G1 X60.925 Y77.893 E0.01542 ; infill
G1 X51.663 Y68.631 E0.41309 ; infill
G1 X52.199 Y68.631 E0.01692 ; infill
G1 X61.539 Y77.970 E0.41655 ; infill
G1 X61.916 Y78.018 E0.01199 ; infill
G1 X62.269 Y78.164 E0.01206 ; infill
G1 X52.735 Y68.631 E0.42520 ; infill
G1 X53.272 Y68.631 E0.01692 ; infill
G1 X79.732 Y95.091 E1.18012 ; infill
G1 X80.268 Y95.091 E0.01692 ; infill
G1 X53.808 Y68.631 E1.18012 ; infill
G1 X54.344 Y68.631 E0.01692 ; infill
G1 X80.805 Y95.091 E1.18012 ; infill
G1 X81.341 Y95.091 E0.01692 ; infill
G1 X54.881 Y68.631 E1.18012 ; infill
G1 X55.417 Y68.631 E0.01692 ; infill
G1 X81.878 Y95.091 E1.18012 ; infill
G1 X82.414 Y95.091 E0.01692 ; infill
G1 X55.954 Y68.631 E1.18012 ; infill
G1 X56.490 Y68.631 E0.01692 ; infill
G1 X82.950 Y95.091 E1.18012 ; infill
G1 X83.487 Y95.091 E0.01692 ; infill
G1 X57.026 Y68.631 E1.18012 ; infill
G1 X57.563 Y68.631 E0.01692 ; infill
G1 X84.023 Y95.091 E1.18012 ; infill
G1 X84.559 Y95.091 E0.01692 ; infill
G1 X58.099 Y68.631 E1.18012 ; infill
G1 X58.635 Y68.631 E0.01692 ; infill
G1 X85.096 Y95.091 E1.18012 ; infill
G1 X85.632 Y95.091 E0.01692 ; infill
G1 X59.172 Y68.631 E1.18012 ; infill
G1 X59.708 Y68.631 E0.01692 ; infill
G1 X86.169 Y95.091 E1.18012 ; infill
G1 X86.705 Y95.091 E0.01692 ; infill
G1 X60.245 Y68.631 E1.18012 ; infill
G1 X60.781 Y68.631 E0.01692 ; infill
G1 X87.241 Y95.091 E1.18012 ; infill
G1 X87.778 Y95.091 E0.01692 ; infill
G1 X61.317 Y68.631 E1.18012 ; infill
G1 X61.854 Y68.631 E0.01692 ; infill
