; generated by Slic3r 1.37.2.1-prusa3d-linux64 on 2018-12-05 at 12:52:19

; 

; external perimeters extrusion width = 0.42mm
; perimeters extrusion width = 0.45mm
; infill extrusion width = 0.45mm
; solid infill extrusion width = 0.45mm
; top infill extrusion width = 0.42mm
; first layer extrusion width = 0.42mm

M107 ; disable fan
M115 U3.1.0 ; tell printer latest fw version
M83  ; extruder relative mode
M104 S230 ; set extruder temp
M140 S85 ; set bed temp
M190 S85 ; wait for bed temp
M109 S230 ; wait for extruder temp
G28 W ; home all without mesh bed level
G80 ; mesh bed leveling
G1 Y-3.0 F1000.0 ; go outside pritn area
G1 X60.0 E9.0  F1000.0 ; intro line
G1 X100.0 E12.5  F1000.0 ; intro line
G92 E0.0
M900 K45
G21 ; set units to millimeters
G90 ; use absolute coordinates
M83 ; use relative distances for extrusion
;BEFORE_LAYER_CHANGE
;0.2


G1 E-0.80000 F2100.00000 ; retract
G1 Z0.600 F7200.000 ; lift Z
;AFTER_LAYER_CHANGE
;0.2
G1 X33.704 Y17.743 F7200.000 ; move to first skirt point
G1 Z0.200 F7200.000 ; restore layer Z
G1 E0.80000 F2100.00000 ; unretract
M204 S1000 ; adjust acceleration
G1 F1800
G1 X34.363 Y17.048 E0.03003 ; skirt
G1 X35.213 Y16.559 E0.03075 ; skirt
G1 X36.179 Y16.334 E0.03110 ; skirt
G1 X68.444 Y16.322 E1.01166 ; skirt
G1 X95.170 Y19.543 E0.84405 ; skirt
G1 X95.935 Y19.769 E0.02498 ; skirt
G1 X96.592 Y20.209 E0.02480 ; skirt
G1 X96.945 Y20.604 E0.01662 ; skirt
G1 X97.207 Y21.055 E0.01636 ; skirt
G1 X97.378 Y21.558 E0.01667 ; skirt
G1 X97.444 Y22.085 E0.01664 ; skirt
G1 X97.314 Y41.926 E0.62210 ; skirt
G1 X97.185 Y42.707 E0.02483 ; skirt
G1 X70.918 Y97.576 E1.90733 ; skirt
G1 X70.483 Y98.330 E0.02732 ; skirt
G1 X70.067 Y98.828 E0.02033 ; skirt
G1 X69.489 Y99.325 E0.02390 ; skirt
G1 X68.629 Y99.810 E0.03096 ; skirt
G1 X63.095 Y101.946 E0.18599 ; skirt
G1 X62.358 Y102.124 E0.02378 ; skirt
G1 X41.915 Y102.153 E0.64098 ; skirt
G1 X40.860 Y101.979 E0.03351 ; skirt
G1 X35.263 Y99.823 E0.18805 ; skirt
G1 X34.360 Y99.318 E0.03245 ; skirt
G1 X33.753 Y98.785 E0.02533 ; skirt
G1 X33.143 Y97.971 E0.03191 ; skirt
G1 X32.740 Y97.036 E0.03191 ; skirt
G1 X32.580 Y96.256 E0.02497 ; skirt
G1 X31.584 Y54.241 E1.31772 ; skirt
G1 X31.583 Y40.551 E0.42924 ; skirt
G1 X33.094 Y19.389 E0.66520 ; skirt
G1 X33.228 Y18.708 E0.02179 ; skirt
G1 X33.677 Y17.797 E0.03183 ; skirt
G1 F5760
G1 X34.363 Y17.048 E-0.35167 ; wipe and retract
G1 F5760
G1 X35.213 Y16.559 E-0.33965 ; wipe and retract
G1 F5760
G1 X35.406 Y16.514 E-0.06869 ; wipe and retract
G1 E-0.04000 F2100.00000 ; retract
G1 Z0.800 F7200.000 ; lift Z
G1 X36.868 Y21.738 F7200.000 ; move to first perimeter point
G1 Z0.200 F7200.000 ; restore layer Z
G1 E0.80000 F2100.00000 ; unretract
G1 F1800
G1 X36.868 Y33.913 E0.38171 ; perimeter
G1 X49.038 Y33.913 E0.38157 ; perimeter
G1 X49.054 Y32.237 E0.05253 ; perimeter
G1 X49.102 Y32.122 E0.00392 ; perimeter
G1 X49.167 Y32.037 E0.00334 ; perimeter
G1 X49.252 Y31.972 E0.00334 ; perimeter
G1 X49.350 Y31.932 E0.00334 ; perimeter
G1 X49.494 Y31.913 E0.00456 ; perimeter
G1 X55.417 Y31.913 E0.18571 ; perimeter
G1 X55.561 Y31.932 E0.00456 ; perimeter
G1 X55.677 Y31.980 E0.00394 ; perimeter
G1 X55.779 Y32.077 E0.00442 ; perimeter
G1 X55.832 Y32.169 E0.00334 ; perimeter
G1 X55.865 Y32.291 E0.00395 ; perimeter
G1 X55.868 Y33.913 E0.05084 ; perimeter
G1 X68.043 Y33.913 E0.38171 ; perimeter
G1 X68.043 Y21.738 E0.38171 ; perimeter
G1 X66.614 Y21.738 E0.04478 ; perimeter
G1 X68.410 Y19.291 E0.09517 ; perimeter
G1 X68.590 Y19.311 E0.00568 ; perimeter
G1 X68.768 Y19.431 E0.00673 ; perimeter
G1 X68.832 Y19.541 E0.00399 ; perimeter
G1 X68.860 Y19.645 E0.00338 ; perimeter
G1 X68.868 Y33.306 E0.42834 ; perimeter
G1 X68.855 Y33.510 E0.00639 ; perimeter
G1 X68.760 Y33.866 E0.01155 ; perimeter
G1 X68.576 Y34.185 E0.01154 ; perimeter
G1 X68.452 Y34.325 E0.00587 ; perimeter
G1 X68.161 Y34.548 E0.01148 ; perimeter
G1 X67.821 Y34.689 E0.01155 ; perimeter
G1 X67.640 Y34.725 E0.00579 ; perimeter
G1 X67.436 Y34.738 E0.00639 ; perimeter
G1 X37.475 Y34.738 E0.93942 ; perimeter
G1 X37.271 Y34.725 E0.00639 ; perimeter
G1 X36.915 Y34.630 E0.01155 ; perimeter
G1 X36.750 Y34.548 E0.00579 ; perimeter
G1 X36.457 Y34.324 E0.01155 ; perimeter
G1 X36.233 Y34.031 E0.01155 ; perimeter
G1 X36.092 Y33.691 E0.01155 ; perimeter
G1 X36.056 Y33.510 E0.00579 ; perimeter
G1 X36.043 Y33.306 E0.00639 ; perimeter
G1 X36.043 Y19.738 E0.42544 ; perimeter
G1 X36.062 Y19.592 E0.00460 ; perimeter
G1 X36.103 Y19.493 E0.00337 ; perimeter
G1 X36.169 Y19.408 E0.00337 ; perimeter
G1 X36.336 Y19.306 E0.00612 ; perimeter
G1 X36.501 Y19.291 E0.00521 ; perimeter
G1 X38.297 Y21.738 E0.09517 ; perimeter
G1 X36.928 Y21.738 E0.04290 ; perimeter
G1 X37.246 Y22.115 F7200.000 ; move to first perimeter point
G1 F1800
G1 X37.246 Y33.535 E0.35807 ; perimeter
G1 X48.664 Y33.535 E0.35802 ; perimeter
G1 X48.674 Y32.217 E0.04135 ; perimeter
G1 X48.692 Y32.127 E0.00287 ; perimeter
G1 X48.773 Y31.931 E0.00663 ; perimeter
G1 X48.898 Y31.768 E0.00645 ; perimeter
G1 X49.061 Y31.643 E0.00645 ; perimeter
G1 X49.252 Y31.564 E0.00645 ; perimeter
G1 X49.469 Y31.535 E0.00689 ; perimeter
G1 X55.442 Y31.535 E0.18726 ; perimeter
G1 X55.660 Y31.564 E0.00689 ; perimeter
G1 X55.856 Y31.645 E0.00667 ; perimeter
G1 X55.931 Y31.696 E0.00284 ; perimeter
G1 X56.081 Y31.846 E0.00663 ; perimeter
G1 X56.184 Y32.024 E0.00645 ; perimeter
G1 X56.239 Y32.229 E0.00667 ; perimeter
G1 X56.246 Y32.332 E0.00324 ; perimeter
G1 X56.246 Y33.535 E0.03772 ; perimeter
G1 X67.666 Y33.535 E0.35807 ; perimeter
G1 X67.666 Y22.115 E0.35807 ; perimeter
G1 X65.870 Y22.115 E0.05630 ; perimeter
G1 X68.182 Y18.964 E0.12254 ; perimeter
G1 X68.438 Y18.910 E0.00819 ; perimeter
G1 X68.657 Y18.936 E0.00692 ; perimeter
G1 X68.743 Y18.964 E0.00283 ; perimeter
G1 X68.936 Y19.073 E0.00696 ; perimeter
G1 X69.074 Y19.209 E0.00609 ; perimeter
G1 X69.183 Y19.394 E0.00673 ; perimeter
G1 X69.237 Y19.595 E0.00652 ; perimeter
G1 X69.246 Y33.319 E0.43030 ; perimeter
G1 X69.230 Y33.559 E0.00755 ; perimeter
G1 X69.184 Y33.789 E0.00734 ; perimeter
G1 X69.109 Y34.010 E0.00734 ; perimeter
G1 X69.005 Y34.220 E0.00734 ; perimeter
G1 X68.875 Y34.415 E0.00734 ; perimeter
G1 X68.719 Y34.593 E0.00742 ; perimeter
G1 X68.545 Y34.745 E0.00726 ; perimeter
G1 X68.350 Y34.875 E0.00734 ; perimeter
G1 X68.140 Y34.979 E0.00734 ; perimeter
G1 X67.919 Y35.054 E0.00734 ; perimeter
G1 X67.689 Y35.100 E0.00734 ; perimeter
G1 X67.449 Y35.115 E0.00756 ; perimeter
G1 X37.462 Y35.115 E0.94020 ; perimeter
G1 X37.222 Y35.100 E0.00756 ; perimeter
G1 X36.992 Y35.054 E0.00734 ; perimeter
G1 X36.771 Y34.979 E0.00734 ; perimeter
G1 X36.561 Y34.875 E0.00734 ; perimeter
G1 X36.366 Y34.745 E0.00734 ; perimeter
G1 X36.190 Y34.591 E0.00734 ; perimeter
G1 X36.036 Y34.415 E0.00734 ; perimeter
G1 X35.906 Y34.220 E0.00734 ; perimeter
G1 X35.802 Y34.010 E0.00734 ; perimeter
G1 X35.727 Y33.789 E0.00734 ; perimeter
G1 X35.681 Y33.559 E0.00734 ; perimeter
G1 X35.666 Y33.319 E0.00756 ; perimeter
G1 X35.666 Y19.713 E0.42661 ; perimeter
G1 X35.695 Y19.493 E0.00695 ; perimeter
G1 X35.775 Y19.301 E0.00651 ; perimeter
G1 X35.903 Y19.137 E0.00651 ; perimeter
G1 X36.074 Y19.008 E0.00673 ; perimeter
G1 X36.162 Y18.966 E0.00305 ; perimeter
G1 X36.254 Y18.936 E0.00305 ; perimeter
G1 X36.475 Y18.910 E0.00695 ; perimeter
G1 X36.729 Y18.964 E0.00816 ; perimeter
G1 X39.041 Y22.115 E0.12254 ; perimeter
G1 X37.306 Y22.115 E0.05441 ; perimeter
G1 X36.910 Y22.334 F7200.000 ; move inwards before travel
G1 X37.873 Y21.625 F7200.000 ; move to first infill point
G1 F1800
G1 X36.325 Y20.078 E0.06995 ; infill
G1 X36.325 Y20.622 E0.01738 ; infill
G1 X37.159 Y21.456 E0.03769 ; infill
G1 X36.615 Y21.456 E0.01738 ; infill
G1 X36.325 Y21.166 E0.01311 ; infill
G1 X36.325 Y21.709 E0.01738 ; infill
G1 X36.586 Y21.970 E0.01177 ; infill
G1 X36.586 Y22.513 E0.01738 ; infill
G1 X36.325 Y22.253 E0.01177 ; infill
G1 X36.325 Y22.797 E0.01738 ; infill
G1 X36.586 Y23.057 E0.01177 ; infill
G1 X36.586 Y23.601 E0.01738 ; infill
G1 X36.325 Y23.341 E0.01177 ; infill
G1 X36.325 Y23.884 E0.01738 ; infill
G1 X36.586 Y24.145 E0.01177 ; infill
G1 X36.586 Y24.688 E0.01738 ; infill
G1 X36.325 Y24.428 E0.01177 ; infill
G1 X36.325 Y24.972 E0.01738 ; infill
G1 X36.586 Y25.232 E0.01177 ; infill
G1 X36.586 Y25.776 E0.01738 ; infill
G1 X36.325 Y25.516 E0.01177 ; infill
G1 X36.325 Y26.059 E0.01738 ; infill
G1 X36.586 Y26.320 E0.01177 ; infill
G1 X36.586 Y26.863 E0.01738 ; infill
G1 X36.325 Y26.603 E0.01177 ; infill
G1 X36.325 Y27.147 E0.01738 ; infill
G1 X36.586 Y27.407 E0.01177 ; infill
G1 X36.586 Y27.951 E0.01738 ; infill
G1 X36.325 Y27.691 E0.01177 ; infill
G1 X36.325 Y28.234 E0.01738 ; infill
G1 X36.586 Y28.495 E0.01177 ; infill
G1 X36.586 Y29.038 E0.01738 ; infill
G1 X36.325 Y28.778 E0.01177 ; infill
G1 X36.325 Y29.322 E0.01738 ; infill
G1 X36.586 Y29.582 E0.01177 ; infill
G1 X36.586 Y30.126 E0.01738 ; infill
G1 X36.325 Y29.866 E0.01177 ; infill
G1 X36.325 Y30.409 E0.01738 ; infill
G1 X36.586 Y30.670 E0.01177 ; infill
G1 X36.586 Y31.213 E0.01738 ; infill
G1 X36.325 Y30.953 E0.01177 ; infill
G1 X36.325 Y31.497 E0.01738 ; infill
G1 X36.586 Y31.757 E0.01177 ; infill
G1 X36.586 Y32.301 E0.01738 ; infill
G1 X36.325 Y32.041 E0.01177 ; infill
G1 X36.325 Y32.584 E0.01738 ; infill
G1 X36.586 Y32.845 E0.01177 ; infill
G1 X36.586 Y33.388 E0.01738 ; infill
G1 X36.156 Y32.958 E0.01944 ; infill
G1 X36.478 Y33.888 F7200.000 ; move to first infill point
G1 F1800
G1 X36.635 Y34.146 E0.00252 ; infill
G1 X36.893 Y34.303 E0.00252 ; infill
G1 X37.777 Y34.625 F7200.000 ; move to first infill point
G1 F1800
G1 X37.347 Y34.195 E0.01909 ; infill
G1 X37.881 Y34.195 E0.01677 ; infill
G1 X38.141 Y34.456 E0.01156 ; infill
G1 X38.675 Y34.456 E0.01677 ; infill
G1 X38.415 Y34.195 E0.01156 ; infill
G1 X38.949 Y34.195 E0.01677 ; infill
G1 X39.209 Y34.456 E0.01156 ; infill
G1 X39.743 Y34.456 E0.01677 ; infill
G1 X39.483 Y34.195 E0.01156 ; infill
G1 X40.017 Y34.195 E0.01677 ; infill
G1 X40.277 Y34.456 E0.01156 ; infill
G1 X40.811 Y34.456 E0.01677 ; infill
G1 X40.551 Y34.195 E0.01156 ; infill
G1 X41.085 Y34.195 E0.01677 ; infill
G1 X41.345 Y34.456 E0.01156 ; infill
G1 X41.879 Y34.456 E0.01677 ; infill
G1 X41.619 Y34.195 E0.01156 ; infill
G1 X42.153 Y34.195 E0.01677 ; infill
G1 X42.413 Y34.456 E0.01156 ; infill
G1 X42.947 Y34.456 E0.01677 ; infill
G1 X42.687 Y34.195 E0.01156 ; infill
G1 X43.221 Y34.195 E0.01677 ; infill
G1 X43.481 Y34.456 E0.01156 ; infill
G1 X44.015 Y34.456 E0.01677 ; infill
G1 X43.755 Y34.195 E0.01156 ; infill
G1 X44.289 Y34.195 E0.01677 ; infill
G1 X44.549 Y34.456 E0.01156 ; infill
G1 X45.083 Y34.456 E0.01677 ; infill
G1 X44.823 Y34.195 E0.01156 ; infill
G1 X45.357 Y34.195 E0.01677 ; infill
G1 X45.617 Y34.456 E0.01156 ; infill
G1 X46.151 Y34.456 E0.01677 ; infill
G1 X45.891 Y34.195 E0.01156 ; infill
G1 X46.425 Y34.195 E0.01677 ; infill
G1 X46.685 Y34.456 E0.01156 ; infill
G1 X47.219 Y34.456 E0.01677 ; infill
G1 X46.959 Y34.195 E0.01156 ; infill
G1 X47.493 Y34.195 E0.01677 ; infill
G1 X47.753 Y34.456 E0.01156 ; infill
G1 X48.288 Y34.456 E0.01677 ; infill
G1 X48.027 Y34.195 E0.01156 ; infill
G1 X48.561 Y34.195 E0.01677 ; infill
G1 X48.822 Y34.456 E0.01156 ; infill
G1 X49.356 Y34.456 E0.01677 ; infill
G1 X49.095 Y34.195 E0.01156 ; infill
G1 X49.318 Y34.195 E0.00700 ; infill
G1 X49.321 Y33.887 E0.00967 ; infill
G1 X49.890 Y34.456 E0.02523 ; infill
G1 X50.424 Y34.456 E0.01677 ; infill
G1 X49.326 Y33.358 E0.04872 ; infill
G1 X49.331 Y32.830 E0.01661 ; infill
G1 X50.958 Y34.456 E0.07220 ; infill
G1 X51.492 Y34.456 E0.01677 ; infill
G1 X49.337 Y32.301 E0.09569 ; infill
G1 X49.394 Y32.219 E0.00313 ; infill
G1 X49.513 Y32.195 E0.00379 ; infill
G1 X49.765 Y32.195 E0.00793 ; infill
G1 X52.026 Y34.456 E0.10036 ; infill
G1 X52.560 Y34.456 E0.01677 ; infill
G1 X50.299 Y32.195 E0.10036 ; infill
G1 X50.833 Y32.195 E0.01677 ; infill
G1 X53.094 Y34.456 E0.10036 ; infill
G1 X53.628 Y34.456 E0.01677 ; infill
G1 X51.367 Y32.195 E0.10036 ; infill
G1 X51.901 Y32.195 E0.01677 ; infill
G1 X54.162 Y34.456 E0.10036 ; infill
G1 X54.696 Y34.456 E0.01677 ; infill
G1 X52.435 Y32.195 E0.10036 ; infill
G1 X52.969 Y32.195 E0.01677 ; infill
G1 X55.399 Y34.625 E0.10790 ; infill
G1 F5760
G1 X53.848 Y33.074 E-0.76000 ; wipe and retract
G1 E-0.04000 F2100.00000 ; retract
G1 Z0.800 F7200.000 ; lift Z
G1 X55.753 Y32.843 F7200.000 ; move to first infill point
G1 Z0.200 F7200.000 ; restore layer Z
G1 E0.80000 F2100.00000 ; unretract
G1 F1800
G1 X55.105 Y32.195 E0.02876 ; infill
G1 X54.571 Y32.195 E0.01677 ; infill
G1 X55.584 Y33.208 E0.04497 ; infill
G1 X55.585 Y33.743 E0.01680 ; infill
G1 X54.037 Y32.195 E0.06874 ; infill
G1 X53.503 Y32.195 E0.01677 ; infill
G1 X55.764 Y34.456 E0.10036 ; infill
G1 X56.298 Y34.456 E0.01677 ; infill
G1 X56.037 Y34.195 E0.01156 ; infill
G1 X56.571 Y34.195 E0.01677 ; infill
G1 X56.832 Y34.456 E0.01156 ; infill
G1 X57.366 Y34.456 E0.01677 ; infill
G1 X57.105 Y34.195 E0.01156 ; infill
G1 X57.639 Y34.195 E0.01677 ; infill
G1 X57.900 Y34.456 E0.01156 ; infill
G1 X58.434 Y34.456 E0.01677 ; infill
G1 X58.173 Y34.195 E0.01156 ; infill
G1 X58.707 Y34.195 E0.01677 ; infill
G1 X58.968 Y34.456 E0.01156 ; infill
G1 X59.502 Y34.456 E0.01677 ; infill
G1 X59.241 Y34.195 E0.01156 ; infill
G1 X59.775 Y34.195 E0.01677 ; infill
G1 X60.036 Y34.456 E0.01156 ; infill
G1 X60.570 Y34.456 E0.01677 ; infill
G1 X60.309 Y34.195 E0.01156 ; infill
G1 X60.843 Y34.195 E0.01677 ; infill
G1 X61.104 Y34.456 E0.01156 ; infill
G1 X61.638 Y34.456 E0.01677 ; infill
G1 X61.377 Y34.195 E0.01156 ; infill
G1 X61.911 Y34.195 E0.01677 ; infill
G1 X62.172 Y34.456 E0.01156 ; infill
G1 X62.706 Y34.456 E0.01677 ; infill
G1 X62.445 Y34.195 E0.01156 ; infill
G1 X62.979 Y34.195 E0.01677 ; infill
G1 X63.240 Y34.456 E0.01156 ; infill
G1 X63.774 Y34.456 E0.01677 ; infill
G1 X63.513 Y34.195 E0.01156 ; infill
G1 X64.047 Y34.195 E0.01677 ; infill
G1 X64.308 Y34.456 E0.01156 ; infill
G1 X64.842 Y34.456 E0.01677 ; infill
G1 X64.581 Y34.195 E0.01156 ; infill
G1 X65.115 Y34.195 E0.01677 ; infill
G1 X65.376 Y34.456 E0.01156 ; infill
G1 X65.910 Y34.456 E0.01677 ; infill
G1 X65.649 Y34.195 E0.01156 ; infill
G1 X66.183 Y34.195 E0.01677 ; infill
G1 X66.444 Y34.456 E0.01156 ; infill
G1 X66.978 Y34.456 E0.01677 ; infill
G1 X66.717 Y34.195 E0.01156 ; infill
G1 X67.251 Y34.195 E0.01677 ; infill
G1 X67.662 Y34.605 E0.01821 ; infill
G1 X68.017 Y34.301 F7200.000 ; move to first infill point
G1 F1800
G1 X68.274 Y34.147 E0.00250 ; infill
G1 X68.436 Y33.888 E0.00254 ; infill
G1 X68.156 Y32.941 F7200.000 ; move to first infill point
G1 F1800
G1 X68.581 Y33.366 E0.01940 ; infill
G1 X68.585 Y32.822 E0.01755 ; infill
G1 X68.325 Y32.562 E0.01185 ; infill
G1 X68.325 Y32.013 E0.01768 ; infill
G1 X68.585 Y32.273 E0.01184 ; infill
G1 X68.585 Y31.724 E0.01769 ; infill
G1 X68.325 Y31.465 E0.01182 ; infill
G1 X68.325 Y30.917 E0.01768 ; infill
G1 X68.584 Y31.175 E0.01181 ; infill
G1 X68.584 Y30.627 E0.01769 ; infill
G1 X68.325 Y30.368 E0.01179 ; infill
G1 X68.325 Y29.820 E0.01768 ; infill
G1 X68.584 Y30.078 E0.01177 ; infill
G1 X68.583 Y29.529 E0.01769 ; infill
G1 X68.325 Y29.271 E0.01176 ; infill
G1 X68.325 Y28.723 E0.01768 ; infill
G1 X68.583 Y28.980 E0.01174 ; infill
G1 X68.583 Y28.432 E0.01769 ; infill
G1 X68.325 Y28.175 E0.01173 ; infill
G1 X68.325 Y27.626 E0.01768 ; infill
G1 X68.582 Y27.883 E0.01171 ; infill
G1 X68.582 Y27.334 E0.01769 ; infill
G1 X68.325 Y27.078 E0.01169 ; infill
G1 X68.325 Y26.529 E0.01768 ; infill
G1 X68.582 Y26.785 E0.01168 ; infill
G1 X68.581 Y26.237 E0.01769 ; infill
G1 X68.325 Y25.981 E0.01166 ; infill
G1 X68.325 Y25.433 E0.01768 ; infill
G1 X68.581 Y25.688 E0.01165 ; infill
G1 X68.580 Y25.139 E0.01769 ; infill
G1 X68.325 Y24.884 E0.01163 ; infill
G1 X68.325 Y24.336 E0.01768 ; infill
G1 X68.580 Y24.590 E0.01162 ; infill
G1 X68.580 Y24.042 E0.01769 ; infill
G1 X68.325 Y23.787 E0.01160 ; infill
G1 X68.325 Y23.239 E0.01768 ; infill
G1 X68.579 Y23.493 E0.01158 ; infill
G1 X68.579 Y22.944 E0.01769 ; infill
G1 X68.325 Y22.691 E0.01157 ; infill
G1 X68.325 Y22.142 E0.01768 ; infill
G1 X68.749 Y22.565 E0.01929 ; infill
G1 F5760
