; generated by Slic3r 1.37.2.1-prusa3d-linux64 on 2018-11-28 at 16:34:06

; 

; external perimeters extrusion width = 0.42mm
; perimeters extrusion width = 0.45mm
; infill extrusion width = 0.45mm
; solid infill extrusion width = 0.45mm
; top infill extrusion width = 0.42mm
; first layer extrusion width = 0.42mm

M107 ; disable fan
M115 U3.1.0 ; tell printer latest fw version
M83  ; extruder relative mode
M104 S215 ; set extruder temp
M140 S55 ; set bed temp
M190 S55 ; wait for bed temp
M109 S215 ; wait for extruder temp
G28 W ; home all without mesh bed level
G80 ; mesh bed leveling
G1 Y-3.0 F1000.0 ; go outside pritn area
G1 X60.0 E9.0  F1000.0 ; intro line
G1 X100.0 E12.5  F1000.0 ; intro line
G92 E0.0
M900 K30
G21 ; set units to millimeters
G90 ; use absolute coordinates
M83 ; use relative distances for extrusion
;BEFORE_LAYER_CHANGE
;0.2


G1 E-0.80000 F2100.00000 ; retract
G1 Z0.600 F7200.000 ; lift Z
;AFTER_LAYER_CHANGE
;0.2
G1 X111.848 Y94.144 F7200.000 ; move to first skirt point
G1 Z0.200 F7200.000 ; restore layer Z
G1 E0.80000 F2100.00000 ; unretract
M204 S1000 ; adjust acceleration
G1 F1800
G1 X113.081 Y92.806 E0.05706 ; skirt
G1 X114.270 Y91.745 E0.04997 ; skirt
G1 X115.741 Y90.678 E0.05698 ; skirt
G1 X117.015 Y89.932 E0.04629 ; skirt
G1 X118.627 Y89.182 E0.05573 ; skirt
G1 X120.011 Y88.694 E0.04602 ; skirt
G1 X121.775 Y88.254 E0.05701 ; skirt
G1 X123.187 Y88.044 E0.04476 ; skirt
G1 X125.011 Y87.946 E0.05726 ; skirt
G1 X126.826 Y88.046 E0.05701 ; skirt
G1 X128.270 Y88.262 E0.04577 ; skirt
G1 X130.040 Y88.709 E0.05726 ; skirt
G1 X131.490 Y89.230 E0.04832 ; skirt
G1 X133.068 Y89.976 E0.05472 ; skirt
G1 X134.391 Y90.766 E0.04831 ; skirt
G1 X135.860 Y91.851 E0.05727 ; skirt
G1 X137.190 Y93.076 E0.05671 ; skirt
G1 X138.250 Y94.264 E0.04990 ; skirt
G1 X139.318 Y95.736 E0.05705 ; skirt
G1 X140.062 Y97.004 E0.04606 ; skirt
G1 X140.815 Y98.618 E0.05584 ; skirt
G1 X141.305 Y100.007 E0.04621 ; skirt
G1 X141.744 Y101.762 E0.05671 ; skirt
G1 X141.955 Y103.186 E0.04512 ; skirt
G1 X142.054 Y105.002 E0.05705 ; skirt
G1 X141.956 Y106.813 E0.05685 ; skirt
G1 X141.739 Y108.264 E0.04600 ; skirt
G1 X141.295 Y110.029 E0.05707 ; skirt
G1 X140.770 Y111.489 E0.04863 ; skirt
G1 X140.025 Y113.067 E0.05472 ; skirt
G1 X139.233 Y114.393 E0.04842 ; skirt
G1 X138.149 Y115.860 E0.05720 ; skirt
G1 X136.916 Y117.197 E0.05702 ; skirt
G1 X135.730 Y118.254 E0.04981 ; skirt
G1 X134.259 Y119.322 E0.05700 ; skirt
G1 X132.992 Y120.064 E0.04603 ; skirt
G1 X131.381 Y120.815 E0.05573 ; skirt
G1 X129.997 Y121.304 E0.04602 ; skirt
G1 X128.233 Y121.745 E0.05701 ; skirt
G1 X126.813 Y121.956 E0.04502 ; skirt
G1 X124.998 Y122.054 E0.05700 ; skirt
G1 X123.174 Y121.954 E0.05726 ; skirt
G1 X121.730 Y121.738 E0.04577 ; skirt
G1 X119.960 Y121.291 E0.05726 ; skirt
G1 X118.510 Y120.770 E0.04832 ; skirt
G1 X116.932 Y120.024 E0.05472 ; skirt
G1 X115.609 Y119.234 E0.04831 ; skirt
G1 X114.140 Y118.149 E0.05727 ; skirt
G1 X112.807 Y116.921 E0.05681 ; skirt
G1 X111.751 Y115.737 E0.04977 ; skirt
G1 X110.682 Y114.264 E0.05707 ; skirt
G1 X109.938 Y112.996 E0.04606 ; skirt
G1 X109.183 Y111.377 E0.05601 ; skirt
G1 X108.695 Y109.995 E0.04597 ; skirt
G1 X108.256 Y108.238 E0.05678 ; skirt
G1 X108.045 Y106.818 E0.04502 ; skirt
G1 X107.946 Y104.993 E0.05730 ; skirt
G1 X108.044 Y103.187 E0.05671 ; skirt
G1 X108.261 Y101.739 E0.04590 ; skirt
G1 X108.706 Y99.969 E0.05724 ; skirt
G1 X109.230 Y98.511 E0.04857 ; skirt
G1 X109.973 Y96.937 E0.05458 ; skirt
G1 X110.763 Y95.614 E0.04831 ; skirt
G1 X111.812 Y94.192 E0.05540 ; skirt
G1 X112.115 Y94.416 F7200.000 ; move to first skirt point
G1 F1800
G1 X113.347 Y93.072 E0.05717 ; skirt
G1 X114.507 Y92.039 E0.04869 ; skirt
G1 X115.950 Y90.992 E0.05591 ; skirt
G1 X117.184 Y90.269 E0.04482 ; skirt
G1 X118.765 Y89.532 E0.05470 ; skirt
G1 X120.120 Y89.054 E0.04506 ; skirt
G1 X121.844 Y88.624 E0.05570 ; skirt
G1 X123.227 Y88.419 E0.04382 ; skirt
G1 X125.008 Y88.323 E0.05595 ; skirt
G1 X126.790 Y88.421 E0.05595 ; skirt
G1 X128.195 Y88.632 E0.04456 ; skirt
G1 X129.933 Y89.070 E0.05620 ; skirt
G1 X131.346 Y89.578 E0.04707 ; skirt
G1 X132.887 Y90.307 E0.05345 ; skirt
G1 X134.182 Y91.080 E0.04730 ; skirt
G1 X135.625 Y92.145 E0.05621 ; skirt
G1 X136.929 Y93.349 E0.05565 ; skirt
G1 X137.961 Y94.507 E0.04863 ; skirt
G1 X139.005 Y95.946 E0.05574 ; skirt
G1 X139.728 Y97.180 E0.04484 ; skirt
G1 X140.467 Y98.764 E0.05482 ; skirt
G1 X140.945 Y100.117 E0.04499 ; skirt
G1 X141.373 Y101.831 E0.05541 ; skirt
G1 X141.580 Y103.217 E0.04394 ; skirt
G1 X141.677 Y105.008 E0.05624 ; skirt
G1 X141.580 Y106.785 E0.05579 ; skirt
G1 X141.369 Y108.190 E0.04455 ; skirt
G1 X140.933 Y109.922 E0.05601 ; skirt
G1 X140.422 Y111.345 E0.04738 ; skirt
G1 X139.694 Y112.886 E0.05345 ; skirt
G1 X138.918 Y114.184 E0.04741 ; skirt
G1 X137.860 Y115.618 E0.05589 ; skirt
G1 X136.650 Y116.931 E0.05597 ; skirt
G1 X135.494 Y117.961 E0.04853 ; skirt
G1 X134.050 Y119.008 E0.05595 ; skirt
G1 X132.809 Y119.734 E0.04507 ; skirt
G1 X131.235 Y120.468 E0.05445 ; skirt
G1 X129.880 Y120.946 E0.04506 ; skirt
G1 X128.156 Y121.376 E0.05570 ; skirt
G1 X126.773 Y121.581 E0.04382 ; skirt
G1 X124.992 Y121.677 E0.05595 ; skirt
G1 X123.210 Y121.579 E0.05595 ; skirt
G1 X121.805 Y121.368 E0.04456 ; skirt
G1 X120.067 Y120.930 E0.05620 ; skirt
G1 X118.654 Y120.422 E0.04707 ; skirt
G1 X117.106 Y119.690 E0.05370 ; skirt
G1 X115.817 Y118.920 E0.04705 ; skirt
G1 X114.375 Y117.855 E0.05621 ; skirt
G1 X113.074 Y116.655 E0.05550 ; skirt
G1 X112.045 Y115.500 E0.04850 ; skirt
G1 X110.995 Y114.054 E0.05601 ; skirt
G1 X110.272 Y112.820 E0.04485 ; skirt
G1 X109.534 Y111.239 E0.05473 ; skirt
G1 X109.058 Y109.893 E0.04475 ; skirt
G1 X108.627 Y108.169 E0.05573 ; skirt
G1 X108.421 Y106.787 E0.04381 ; skirt
G1 X108.323 Y104.995 E0.05625 ; skirt
G1 X108.420 Y103.223 E0.05566 ; skirt
G1 X108.631 Y101.813 E0.04469 ; skirt
G1 X109.065 Y100.083 E0.05593 ; skirt
G1 X109.578 Y98.655 E0.04757 ; skirt
G1 X110.308 Y97.111 E0.05356 ; skirt
G1 X111.077 Y95.822 E0.04705 ; skirt
G1 X112.079 Y94.464 E0.05292 ; skirt
G1 F5760
G1 X113.347 Y93.072 E-0.65217 ; wipe and retract
G1 F5760
G1 X113.580 Y92.865 E-0.10783 ; wipe and retract
G1 E-0.04000 F2100.00000 ; retract
G1 Z0.800 F7200.000 ; lift Z
G1 X113.577 Y95.626 F7200.000 ; move to first brim point
G1 Z0.200 F7200.000 ; restore layer Z
G1 E0.80000 F2100.00000 ; unretract
G1 F1800
G1 X114.218 Y94.885 E0.03071 ; brim
G1 X114.754 Y94.342 E0.02393 ; brim
G1 X115.436 Y93.726 E0.02883 ; brim
G1 X116.159 Y93.150 E0.02896 ; brim
G1 X117.114 Y92.495 E0.03631 ; brim
G1 X117.815 Y92.079 E0.02557 ; brim
G1 X118.553 Y91.695 E0.02606 ; brim
G1 X119.645 Y91.220 E0.03735 ; brim
G1 X120.396 Y90.951 E0.02502 ; brim
G1 X121.167 Y90.721 E0.02521 ; brim
G1 X122.384 Y90.449 E0.03911 ; brim
G1 X123.150 Y90.332 E0.02431 ; brim
G1 X123.915 Y90.255 E0.02411 ; brim
G1 X125.181 Y90.217 E0.03971 ; brim
G1 X126.022 Y90.251 E0.02637 ; brim
G1 X126.861 Y90.333 E0.02646 ; brim
G1 X127.694 Y90.463 E0.02643 ; brim
G1 X128.513 Y90.639 E0.02626 ; brim
G1 X129.718 Y90.988 E0.03934 ; brim
G1 X130.437 Y91.252 E0.02402 ; brim
G1 X131.152 Y91.556 E0.02433 ; brim
G1 X132.260 Y92.121 E0.03901 ; brim
G1 X132.917 Y92.514 E0.02401 ; brim
G1 X133.562 Y92.946 E0.02434 ; brim
G1 X134.545 Y93.709 E0.03901 ; brim
G1 X135.116 Y94.219 E0.02401 ; brim
G1 X135.669 Y94.764 E0.02434 ; brim
G1 X136.491 Y95.697 E0.03899 ; brim
G1 X136.962 Y96.312 E0.02430 ; brim
G1 X137.397 Y96.944 E0.02406 ; brim
G1 X138.033 Y98.020 E0.03919 ; brim
G1 X138.394 Y98.740 E0.02525 ; brim
G1 X138.712 Y99.472 E0.02504 ; brim
G1 X139.114 Y100.597 E0.03743 ; brim
G1 X139.346 Y101.427 E0.02704 ; brim
G1 X139.531 Y102.278 E0.02729 ; brim
G1 X139.660 Y103.088 E0.02572 ; brim
G1 X139.744 Y103.906 E0.02579 ; brim
G1 X139.784 Y105.157 E0.03926 ; brim
G1 X139.755 Y105.933 E0.02433 ; brim
G1 X139.687 Y106.696 E0.02404 ; brim
G1 X139.490 Y107.937 E0.03937 ; brim
G1 X139.300 Y108.753 E0.02630 ; brim
G1 X139.062 Y109.563 E0.02646 ; brim
G1 X138.779 Y110.358 E0.02644 ; brim
G1 X138.449 Y111.140 E0.02663 ; brim
G1 X137.880 Y112.260 E0.03938 ; brim
G1 X137.481 Y112.925 E0.02433 ; brim
G1 X137.054 Y113.562 E0.02403 ; brim
G1 X136.291 Y114.545 E0.03900 ; brim
G1 X135.782 Y115.116 E0.02401 ; brim
G1 X135.236 Y115.668 E0.02434 ; brim
G1 X134.303 Y116.491 E0.03901 ; brim
G1 X133.695 Y116.957 E0.02401 ; brim
G1 X133.054 Y117.399 E0.02441 ; brim
G1 X131.964 Y118.042 E0.03968 ; brim
G1 X131.213 Y118.416 E0.02632 ; brim
G1 X130.448 Y118.744 E0.02608 ; brim
G1 X129.655 Y119.032 E0.02646 ; brim
G1 X128.841 Y119.277 E0.02665 ; brim
G1 X127.616 Y119.551 E0.03936 ; brim
G1 X126.859 Y119.667 E0.02401 ; brim
G1 X126.087 Y119.745 E0.02434 ; brim
G1 X124.843 Y119.784 E0.03903 ; brim
G1 X124.077 Y119.755 E0.02401 ; brim
G1 X123.304 Y119.687 E0.02435 ; brim
G1 X122.064 Y119.490 E0.03936 ; brim
G1 X121.237 Y119.297 E0.02661 ; brim
G1 X120.427 Y119.059 E0.02648 ; brim
G1 X119.632 Y118.775 E0.02648 ; brim
G1 X118.859 Y118.449 E0.02630 ; brim
G1 X117.741 Y117.880 E0.03935 ; brim
G1 X117.075 Y117.481 E0.02432 ; brim
G1 X116.439 Y117.054 E0.02404 ; brim
G1 X115.455 Y116.291 E0.03902 ; brim
G1 X114.877 Y115.775 E0.02431 ; brim
G1 X114.332 Y115.236 E0.02404 ; brim
G1 X113.509 Y114.303 E0.03900 ; brim
G1 X113.043 Y113.695 E0.02400 ; brim
G1 X112.603 Y113.056 E0.02435 ; brim
G1 X111.966 Y111.980 E0.03919 ; brim
G1 X111.611 Y111.269 E0.02492 ; brim
G1 X111.288 Y110.528 E0.02534 ; brim
G1 X110.886 Y109.403 E0.03745 ; brim
G1 X110.654 Y108.572 E0.02705 ; brim
G1 X110.471 Y107.734 E0.02692 ; brim
G1 X110.342 Y106.925 E0.02567 ; brim
G1 X110.257 Y106.106 E0.02582 ; brim
G1 X110.216 Y104.845 E0.03956 ; brim
G1 X110.245 Y104.078 E0.02407 ; brim
G1 X110.313 Y103.304 E0.02435 ; brim
G1 X110.509 Y102.065 E0.03933 ; brim
G1 X110.699 Y101.250 E0.02624 ; brim
G1 X110.936 Y100.440 E0.02646 ; brim
G1 X111.220 Y99.645 E0.02647 ; brim
G1 X111.546 Y98.870 E0.02637 ; brim
G1 X112.119 Y97.743 E0.03966 ; brim
G1 X112.513 Y97.084 E0.02406 ; brim
G1 X112.946 Y96.439 E0.02436 ; brim
G1 X113.540 Y95.673 E0.03040 ; brim
G1 X113.838 Y95.904 F7200.000 ; move to first brim point
G1 F1800
G1 X113.994 Y95.702 E0.00800 ; brim
G1 X114.496 Y95.139 E0.02364 ; brim
G1 X115.018 Y94.611 E0.02331 ; brim
G1 X115.685 Y94.010 E0.02814 ; brim
G1 X116.389 Y93.449 E0.02820 ; brim
G1 X117.311 Y92.816 E0.03509 ; brim
G1 X118.003 Y92.406 E0.02521 ; brim
G1 X118.721 Y92.033 E0.02537 ; brim
G1 X119.777 Y91.573 E0.03614 ; brim
G1 X120.518 Y91.308 E0.02467 ; brim
G1 X121.268 Y91.084 E0.02453 ; brim
G1 X122.447 Y90.820 E0.03789 ; brim
G1 X123.193 Y90.707 E0.02365 ; brim
G1 X123.946 Y90.631 E0.02375 ; brim
G1 X125.173 Y90.594 E0.03847 ; brim
G1 X125.990 Y90.627 E0.02566 ; brim
G1 X126.809 Y90.707 E0.02578 ; brim
G1 X127.620 Y90.833 E0.02576 ; brim
G1 X128.427 Y91.006 E0.02588 ; brim
G1 X129.594 Y91.345 E0.03809 ; brim
G1 X130.303 Y91.604 E0.02367 ; brim
G1 X130.998 Y91.900 E0.02368 ; brim
G1 X132.072 Y92.447 E0.03779 ; brim
G1 X132.719 Y92.835 E0.02366 ; brim
G1 X133.346 Y93.256 E0.02368 ; brim
G1 X134.299 Y93.995 E0.03779 ; brim
G1 X134.862 Y94.497 E0.02366 ; brim
G1 X135.399 Y95.028 E0.02368 ; brim
G1 X136.196 Y95.931 E0.03777 ; brim
G1 X136.654 Y96.530 E0.02365 ; brim
G1 X137.083 Y97.153 E0.02370 ; brim
G1 X137.699 Y98.195 E0.03796 ; brim
G1 X138.050 Y98.895 E0.02457 ; brim
G1 X138.364 Y99.617 E0.02468 ; brim
G1 X138.752 Y100.705 E0.03622 ; brim
G1 X138.979 Y101.513 E0.02632 ; brim
G1 X139.160 Y102.342 E0.02661 ; brim
G1 X139.285 Y103.131 E0.02506 ; brim
G1 X139.368 Y103.938 E0.02541 ; brim
G1 X139.407 Y105.150 E0.03802 ; brim
G1 X139.379 Y105.904 E0.02367 ; brim
G1 X139.312 Y106.657 E0.02368 ; brim
G1 X139.121 Y107.858 E0.03813 ; brim
G1 X138.934 Y108.663 E0.02592 ; brim
G1 X138.702 Y109.452 E0.02579 ; brim
G1 X138.426 Y110.226 E0.02577 ; brim
G1 X138.105 Y110.987 E0.02591 ; brim
G1 X137.553 Y112.072 E0.03814 ; brim
G1 X137.165 Y112.719 E0.02367 ; brim
G1 X136.744 Y113.346 E0.02367 ; brim
G1 X136.005 Y114.298 E0.03778 ; brim
G1 X135.503 Y114.861 E0.02365 ; brim
G1 X134.972 Y115.399 E0.02368 ; brim
G1 X134.068 Y116.196 E0.03780 ; brim
G1 X133.470 Y116.655 E0.02365 ; brim
G1 X132.846 Y117.084 E0.02375 ; brim
G1 X131.790 Y117.707 E0.03844 ; brim
G1 X131.059 Y118.071 E0.02560 ; brim
G1 X130.304 Y118.395 E0.02574 ; brim
G1 X129.531 Y118.676 E0.02579 ; brim
G1 X128.739 Y118.914 E0.02593 ; brim
G1 X127.553 Y119.180 E0.03811 ; brim
G1 X126.807 Y119.293 E0.02366 ; brim
G1 X126.056 Y119.369 E0.02369 ; brim
G1 X124.850 Y119.407 E0.03781 ; brim
G1 X124.096 Y119.379 E0.02366 ; brim
G1 X123.344 Y119.312 E0.02369 ; brim
G1 X122.143 Y119.121 E0.03812 ; brim
G1 X121.338 Y118.934 E0.02589 ; brim
G1 X120.549 Y118.702 E0.02580 ; brim
G1 X119.774 Y118.426 E0.02581 ; brim
G1 X119.012 Y118.104 E0.02592 ; brim
G1 X117.929 Y117.553 E0.03810 ; brim
G1 X117.282 Y117.165 E0.02366 ; brim
G1 X116.654 Y116.744 E0.02369 ; brim
G1 X115.701 Y116.005 E0.03780 ; brim
G1 X115.138 Y115.503 E0.02365 ; brim
G1 X114.601 Y114.972 E0.02368 ; brim
G1 X113.804 Y114.068 E0.03778 ; brim
G1 X113.345 Y113.470 E0.02365 ; brim
G1 X112.917 Y112.847 E0.02370 ; brim
G1 X112.301 Y111.805 E0.03796 ; brim
G1 X111.950 Y111.105 E0.02455 ; brim
G1 X111.636 Y110.384 E0.02466 ; brim
G1 X111.248 Y109.295 E0.03624 ; brim
G1 X111.021 Y108.487 E0.02633 ; brim
G1 X110.840 Y107.658 E0.02658 ; brim
G1 X110.715 Y106.871 E0.02500 ; brim
G1 X110.633 Y106.074 E0.02513 ; brim
G1 X110.593 Y104.852 E0.03832 ; brim
G1 X110.621 Y104.097 E0.02371 ; brim
G1 X110.688 Y103.344 E0.02369 ; brim
G1 X110.878 Y102.144 E0.03809 ; brim
G1 X111.065 Y101.341 E0.02586 ; brim
G1 X111.297 Y100.552 E0.02579 ; brim
G1 X111.573 Y99.777 E0.02579 ; brim
G1 X111.891 Y99.023 E0.02566 ; brim
G1 X112.446 Y97.931 E0.03841 ; brim
G1 X112.834 Y97.282 E0.02370 ; brim
G1 X113.255 Y96.655 E0.02370 ; brim
G1 X113.801 Y95.951 E0.02791 ; brim
G1 X114.099 Y96.182 F7200.000 ; move to first brim point
G1 F1800
G1 X114.280 Y95.948 E0.00928 ; brim
G1 X114.768 Y95.401 E0.02298 ; brim
G1 X115.283 Y94.880 E0.02298 ; brim
G1 X115.933 Y94.294 E0.02744 ; brim
G1 X116.618 Y93.749 E0.02745 ; brim
G1 X117.509 Y93.137 E0.03388 ; brim
G1 X118.191 Y92.733 E0.02485 ; brim
G1 X118.889 Y92.370 E0.02467 ; brim
G1 X119.911 Y91.925 E0.03494 ; brim
G1 X120.631 Y91.668 E0.02399 ; brim
G1 X121.369 Y91.447 E0.02417 ; brim
G1 X122.511 Y91.192 E0.03666 ; brim
G1 X123.235 Y91.081 E0.02299 ; brim
G1 X123.978 Y91.007 E0.02339 ; brim
G1 X125.164 Y90.971 E0.03722 ; brim
G1 X125.970 Y91.003 E0.02528 ; brim
G1 X126.767 Y91.082 E0.02511 ; brim
G1 X127.557 Y91.205 E0.02508 ; brim
G1 X128.342 Y91.373 E0.02517 ; brim
G1 X129.471 Y91.701 E0.03686 ; brim
G1 X130.160 Y91.953 E0.02301 ; brim
G1 X130.844 Y92.245 E0.02332 ; brim
G1 X131.884 Y92.774 E0.03658 ; brim
G1 X132.513 Y93.151 E0.02300 ; brim
G1 X133.131 Y93.565 E0.02332 ; brim
G1 X134.052 Y94.280 E0.03658 ; brim
G1 X134.607 Y94.775 E0.02330 ; brim
G1 X135.129 Y95.291 E0.02302 ; brim
G1 X135.900 Y96.166 E0.03656 ; brim
G1 X136.347 Y96.748 E0.02299 ; brim
G1 X136.769 Y97.361 E0.02334 ; brim
G1 X137.365 Y98.370 E0.03673 ; brim
G1 X137.706 Y99.051 E0.02388 ; brim
G1 X138.016 Y99.762 E0.02432 ; brim
G1 X138.391 Y100.813 E0.03500 ; brim
G1 X138.612 Y101.599 E0.02560 ; brim
G1 X138.788 Y102.407 E0.02593 ; brim
G1 X138.912 Y103.185 E0.02472 ; brim
G1 X138.993 Y103.969 E0.02471 ; brim
G1 X139.030 Y105.142 E0.03679 ; brim
G1 X139.002 Y105.885 E0.02332 ; brim
G1 X138.937 Y106.617 E0.02302 ; brim
G1 X138.753 Y107.779 E0.03689 ; brim
G1 X138.570 Y108.562 E0.02520 ; brim
G1 X138.342 Y109.340 E0.02545 ; brim
G1 X138.073 Y110.094 E0.02509 ; brim
G1 X137.760 Y110.834 E0.02520 ; brim
G1 X137.226 Y111.883 E0.03690 ; brim
G1 X136.849 Y112.513 E0.02301 ; brim
G1 X136.435 Y113.131 E0.02332 ; brim
G1 X135.720 Y114.052 E0.03657 ; brim
G1 X135.232 Y114.600 E0.02299 ; brim
G1 X134.709 Y115.129 E0.02333 ; brim
G1 X133.834 Y115.901 E0.03658 ; brim
G1 X133.244 Y116.353 E0.02330 ; brim
G1 X132.637 Y116.770 E0.02309 ; brim
G1 X131.616 Y117.373 E0.03720 ; brim
G1 X130.905 Y117.727 E0.02489 ; brim
G1 X130.170 Y118.043 E0.02507 ; brim
G1 X129.408 Y118.320 E0.02545 ; brim
