; generated by Slic3r 1.37.2.1-prusa3d-linux64 on 2018-11-29 at 14:32:59

; 

; external perimeters extrusion width = 0.42mm
; perimeters extrusion width = 0.45mm
; infill extrusion width = 0.45mm
; solid infill extrusion width = 0.45mm
; top infill extrusion width = 0.42mm
; first layer extrusion width = 0.42mm

M107 ; disable fan
M115 U3.1.0 ; tell printer latest fw version
M83  ; extruder relative mode
M104 S215 ; set extruder temp
M140 S55 ; set bed temp
M190 S55 ; wait for bed temp
M109 S215 ; wait for extruder temp
G28 W ; home all without mesh bed level
G80 ; mesh bed leveling
G1 Y-3.0 F1000.0 ; go outside pritn area
G1 X60.0 E9.0  F1000.0 ; intro line
G1 X100.0 E12.5  F1000.0 ; intro line
G92 E0.0
M900 K30
G21 ; set units to millimeters
G90 ; use absolute coordinates
M83 ; use relative distances for extrusion
;BEFORE_LAYER_CHANGE
;0.2


G1 E-0.80000 F2100.00000 ; retract
G1 Z0.600 F7200.000 ; lift Z
;AFTER_LAYER_CHANGE
;0.2
G1 X111.683 Y94.030 F7200.000 ; move to first skirt point
G1 Z0.200 F7200.000 ; restore layer Z
G1 E0.80000 F2100.00000 ; unretract
M204 S1000 ; adjust acceleration
G1 F1800
G1 X112.950 Y92.654 E0.05865 ; skirt
G1 X114.142 Y91.591 E0.05007 ; skirt
G1 X115.634 Y90.509 E0.05779 ; skirt
G1 X116.919 Y89.757 E0.04667 ; skirt
G1 X118.553 Y88.996 E0.05652 ; skirt
G1 X119.949 Y88.503 E0.04642 ; skirt
G1 X121.737 Y88.057 E0.05779 ; skirt
G1 X123.162 Y87.846 E0.04516 ; skirt
G1 X125.010 Y87.746 E0.05804 ; skirt
G1 X126.843 Y87.846 E0.05754 ; skirt
G1 X128.267 Y88.058 E0.04514 ; skirt
G1 X130.048 Y88.502 E0.05754 ; skirt
G1 X131.452 Y88.998 E0.04668 ; skirt
G1 X133.079 Y89.755 E0.05627 ; skirt
G1 X134.363 Y90.508 E0.04667 ; skirt
G1 X135.855 Y91.589 E0.05779 ; skirt
G1 X137.054 Y92.657 E0.05034 ; skirt
G1 X138.277 Y93.983 E0.05655 ; skirt
G1 X139.390 Y95.483 E0.05856 ; skirt
G1 X140.178 Y96.797 E0.04804 ; skirt
G1 X140.940 Y98.400 E0.05565 ; skirt
G1 X141.474 Y99.876 E0.04923 ; skirt
G1 X141.931 Y101.676 E0.05824 ; skirt
G1 X142.151 Y103.131 E0.04613 ; skirt
G1 X142.254 Y104.988 E0.05831 ; skirt
G1 X142.154 Y106.839 E0.05811 ; skirt
G1 X141.937 Y108.291 E0.04604 ; skirt
G1 X141.487 Y110.085 E0.05799 ; skirt
G1 X140.967 Y111.533 E0.04825 ; skirt
G1 X140.224 Y113.118 E0.05489 ; skirt
G1 X139.420 Y114.470 E0.04932 ; skirt
G1 X138.312 Y115.977 E0.05865 ; skirt
G1 X137.057 Y117.340 E0.05809 ; skirt
G1 X135.858 Y118.409 E0.05036 ; skirt
G1 X134.366 Y119.491 E0.05779 ; skirt
G1 X133.081 Y120.243 E0.04667 ; skirt
G1 X131.455 Y121.001 E0.05627 ; skirt
G1 X130.051 Y121.497 E0.04668 ; skirt
G1 X128.263 Y121.943 E0.05779 ; skirt
G1 X126.838 Y122.154 E0.04517 ; skirt
G1 X124.998 Y122.254 E0.05778 ; skirt
G1 X123.149 Y122.153 E0.05805 ; skirt
G1 X121.693 Y121.934 E0.04616 ; skirt
G1 X119.898 Y121.482 E0.05805 ; skirt
G1 X118.429 Y120.953 E0.04896 ; skirt
G1 X116.835 Y120.200 E0.05526 ; skirt
G1 X115.495 Y119.398 E0.04896 ; skirt
G1 X114.006 Y118.298 E0.05804 ; skirt
G1 X112.657 Y117.054 E0.05754 ; skirt
G1 X111.596 Y115.863 E0.05001 ; skirt
G1 X110.516 Y114.375 E0.05764 ; skirt
G1 X109.777 Y113.117 E0.04576 ; skirt
G1 X109.010 Y111.481 E0.05666 ; skirt
G1 X108.514 Y110.082 E0.04653 ; skirt
G1 X108.060 Y108.279 E0.05831 ; skirt
G1 X107.811 Y106.464 E0.05742 ; skirt
G1 X107.746 Y104.994 E0.04616 ; skirt
G1 X107.847 Y103.153 E0.05780 ; skirt
G1 X108.063 Y101.708 E0.04582 ; skirt
G1 X108.511 Y99.922 E0.05772 ; skirt
G1 X109.038 Y98.455 E0.04887 ; skirt
G1 X109.780 Y96.875 E0.05475 ; skirt
G1 X110.591 Y95.512 E0.04973 ; skirt
G1 X111.647 Y94.078 E0.05583 ; skirt
G1 X111.951 Y94.302 F7200.000 ; move to first skirt point
G1 F1800
G1 X113.216 Y92.920 E0.05875 ; skirt
G1 X114.384 Y91.880 E0.04903 ; skirt
G1 X115.850 Y90.819 E0.05674 ; skirt
G1 X117.094 Y90.090 E0.04521 ; skirt
G1 X118.699 Y89.344 E0.05549 ; skirt
G1 X120.059 Y88.864 E0.04521 ; skirt
G1 X121.814 Y88.426 E0.05673 ; skirt
G1 X123.202 Y88.221 E0.04397 ; skirt
G1 X125.008 Y88.123 E0.05673 ; skirt
G1 X126.799 Y88.221 E0.05624 ; skirt
G1 X128.194 Y88.428 E0.04420 ; skirt
G1 X129.942 Y88.864 E0.05649 ; skirt
G1 X131.309 Y89.347 E0.04546 ; skirt
G1 X132.906 Y90.091 E0.05525 ; skirt
G1 X134.157 Y90.824 E0.04546 ; skirt
G1 X135.616 Y91.881 E0.05648 ; skirt
G1 X136.787 Y92.924 E0.04918 ; skirt
G1 X137.986 Y94.222 E0.05540 ; skirt
G1 X139.078 Y95.695 E0.05750 ; skirt
G1 X139.845 Y96.975 E0.04677 ; skirt
G1 X140.594 Y98.548 E0.05464 ; skirt
G1 X141.114 Y99.987 E0.04798 ; skirt
G1 X141.562 Y101.755 E0.05717 ; skirt
G1 X141.776 Y103.171 E0.04491 ; skirt
G1 X141.876 Y104.986 E0.05700 ; skirt
G1 X141.779 Y106.804 E0.05707 ; skirt
G1 X141.568 Y108.217 E0.04481 ; skirt
G1 X141.125 Y109.978 E0.05693 ; skirt
G1 X140.619 Y111.389 E0.04699 ; skirt
G1 X139.892 Y112.938 E0.05364 ; skirt
G1 X139.105 Y114.263 E0.04832 ; skirt
G1 X138.017 Y115.742 E0.05758 ; skirt
G1 X136.790 Y117.074 E0.05678 ; skirt
G1 X135.622 Y118.115 E0.04905 ; skirt
G1 X134.157 Y119.177 E0.05674 ; skirt
G1 X132.906 Y119.910 E0.04546 ; skirt
G1 X131.309 Y120.653 E0.05524 ; skirt
G1 X129.941 Y121.136 E0.04546 ; skirt
G1 X128.194 Y121.572 E0.05648 ; skirt
G1 X126.798 Y121.779 E0.04422 ; skirt
G1 X125.000 Y121.877 E0.05648 ; skirt
G1 X123.185 Y121.777 E0.05699 ; skirt
G1 X121.767 Y121.564 E0.04495 ; skirt
G1 X120.005 Y121.120 E0.05699 ; skirt
G1 X118.581 Y120.608 E0.04746 ; skirt
G1 X117.016 Y119.869 E0.05425 ; skirt
G1 X115.710 Y119.088 E0.04770 ; skirt
G1 X114.248 Y118.009 E0.05698 ; skirt
G1 X112.924 Y116.787 E0.05649 ; skirt
G1 X111.890 Y115.627 E0.04873 ; skirt
G1 X110.829 Y114.166 E0.05661 ; skirt
G1 X110.110 Y112.941 E0.04453 ; skirt
G1 X109.358 Y111.334 E0.05563 ; skirt
G1 X108.874 Y109.972 E0.04533 ; skirt
G1 X108.429 Y108.201 E0.05723 ; skirt
G1 X108.185 Y106.420 E0.05637 ; skirt
G1 X108.123 Y104.995 E0.04473 ; skirt
G1 X108.222 Y103.188 E0.05674 ; skirt
G1 X108.433 Y101.782 E0.04459 ; skirt
G1 X108.873 Y100.028 E0.05668 ; skirt
G1 X109.386 Y98.599 E0.04761 ; skirt
G1 X110.111 Y97.055 E0.05350 ; skirt
G1 X110.906 Y95.719 E0.04873 ; skirt
G1 X111.915 Y94.350 E0.05333 ; skirt
G1 F5760
G1 X113.216 Y92.920 E-0.66968 ; wipe and retract
G1 F5760
G1 X113.411 Y92.747 E-0.09032 ; wipe and retract
G1 E-0.04000 F2100.00000 ; retract
G1 Z0.800 F7200.000 ; lift Z
G1 X113.414 Y95.509 F7200.000 ; move to first brim point
G1 Z0.200 F7200.000 ; restore layer Z
G1 E0.80000 F2100.00000 ; unretract
G1 F1800
G1 X114.072 Y94.747 E0.03157 ; brim
G1 X114.627 Y94.186 E0.02477 ; brim
G1 X115.577 Y93.349 E0.03970 ; brim
G1 X116.243 Y92.841 E0.02626 ; brim
G1 X116.943 Y92.366 E0.02649 ; brim
G1 X117.689 Y91.920 E0.02727 ; brim
G1 X118.465 Y91.516 E0.02742 ; brim
G1 X119.586 Y91.028 E0.03836 ; brim
G1 X120.348 Y90.756 E0.02533 ; brim
G1 X121.118 Y90.527 E0.02521 ; brim
G1 X122.347 Y90.252 E0.03947 ; brim
G1 X123.117 Y90.135 E0.02443 ; brim
G1 X123.905 Y90.055 E0.02482 ; brim
G1 X125.187 Y90.017 E0.04022 ; brim
G1 X126.036 Y90.052 E0.02662 ; brim
G1 X126.888 Y90.135 E0.02687 ; brim
G1 X127.734 Y90.267 E0.02683 ; brim
G1 X128.564 Y90.445 E0.02663 ; brim
G1 X129.779 Y90.798 E0.03967 ; brim
G1 X130.511 Y91.066 E0.02443 ; brim
G1 X131.237 Y91.375 E0.02474 ; brim
G1 X132.356 Y91.945 E0.03937 ; brim
G1 X133.024 Y92.345 E0.02441 ; brim
G1 X133.679 Y92.785 E0.02475 ; brim
G1 X134.672 Y93.555 E0.03939 ; brim
G1 X135.253 Y94.073 E0.02443 ; brim
G1 X135.815 Y94.628 E0.02474 ; brim
G1 X136.645 Y95.570 E0.03937 ; brim
G1 X137.119 Y96.188 E0.02442 ; brim
G1 X137.567 Y96.838 E0.02475 ; brim
G1 X138.208 Y97.923 E0.03952 ; brim
G1 X138.574 Y98.654 E0.02565 ; brim
G1 X138.898 Y99.399 E0.02545 ; brim
G1 X139.304 Y100.535 E0.03783 ; brim
G1 X139.540 Y101.378 E0.02745 ; brim
G1 X139.728 Y102.239 E0.02765 ; brim
G1 X139.858 Y103.059 E0.02603 ; brim
G1 X139.942 Y103.876 E0.02573 ; brim
G1 X139.984 Y105.154 E0.04010 ; brim
G1 X139.954 Y105.944 E0.02480 ; brim
G1 X139.886 Y106.721 E0.02445 ; brim
G1 X139.689 Y107.962 E0.03939 ; brim
G1 X139.515 Y108.721 E0.02442 ; brim
G1 X139.299 Y109.481 E0.02475 ; brim
G1 X138.870 Y110.672 E0.03971 ; brim
G1 X138.525 Y111.450 E0.02668 ; brim
G1 X138.134 Y112.213 E0.02690 ; brim
G1 X137.699 Y112.953 E0.02690 ; brim
G1 X137.221 Y113.670 E0.02703 ; brim
G1 X136.446 Y114.672 E0.03971 ; brim
G1 X135.927 Y115.253 E0.02443 ; brim
G1 X135.372 Y115.815 E0.02475 ; brim
G1 X134.424 Y116.650 E0.03963 ; brim
G1 X133.760 Y117.157 E0.02617 ; brim
G1 X133.063 Y117.630 E0.02644 ; brim
G1 X132.314 Y118.078 E0.02734 ; brim
G1 X131.538 Y118.483 E0.02747 ; brim
G1 X130.433 Y118.965 E0.03780 ; brim
G1 X129.669 Y119.238 E0.02541 ; brim
G1 X128.885 Y119.472 E0.02568 ; brim
G1 X127.654 Y119.748 E0.03954 ; brim
G1 X126.884 Y119.865 E0.02442 ; brim
G1 X126.099 Y119.944 E0.02474 ; brim
G1 X124.843 Y119.984 E0.03938 ; brim
G1 X124.065 Y119.955 E0.02442 ; brim
G1 X123.279 Y119.886 E0.02475 ; brim
G1 X122.038 Y119.689 E0.03940 ; brim
G1 X121.279 Y119.515 E0.02442 ; brim
G1 X120.520 Y119.299 E0.02474 ; brim
G1 X119.338 Y118.874 E0.03937 ; brim
G1 X118.616 Y118.556 E0.02472 ; brim
G1 X117.917 Y118.205 E0.02453 ; brim
G1 X116.814 Y117.551 E0.04023 ; brim
G1 X116.116 Y117.067 E0.02661 ; brim
G1 X115.441 Y116.539 E0.02688 ; brim
G1 X114.805 Y115.982 E0.02651 ; brim
G1 X114.192 Y115.379 E0.02697 ; brim
G1 X113.350 Y114.424 E0.03989 ; brim
G1 X112.850 Y113.770 E0.02583 ; brim
G1 X112.376 Y113.073 E0.02642 ; brim
G1 X111.923 Y112.315 E0.02768 ; brim
G1 X111.517 Y111.538 E0.02748 ; brim
G1 X111.040 Y110.444 E0.03742 ; brim
G1 X110.762 Y109.669 E0.02582 ; brim
G1 X110.527 Y108.884 E0.02568 ; brim
G1 X110.252 Y107.654 E0.03954 ; brim
G1 X110.135 Y106.884 E0.02442 ; brim
G1 X110.056 Y106.098 E0.02474 ; brim
G1 X110.016 Y104.843 E0.03939 ; brim
G1 X110.045 Y104.064 E0.02442 ; brim
G1 X110.114 Y103.278 E0.02474 ; brim
G1 X110.311 Y102.038 E0.03938 ; brim
G1 X110.485 Y101.279 E0.02442 ; brim
G1 X110.701 Y100.519 E0.02475 ; brim
G1 X111.130 Y99.329 E0.03968 ; brim
G1 X111.474 Y98.552 E0.02663 ; brim
G1 X111.864 Y97.791 E0.02683 ; brim
G1 X112.292 Y97.061 E0.02651 ; brim
G1 X112.768 Y96.345 E0.02696 ; brim
G1 X113.377 Y95.557 E0.03125 ; brim
G1 X113.675 Y95.787 F7200.000 ; move to first brim point
G1 F1800
G1 X113.838 Y95.577 E0.00834 ; brim
G1 X114.351 Y95.002 E0.02414 ; brim
G1 X114.891 Y94.455 E0.02411 ; brim
G1 X115.811 Y93.644 E0.03846 ; brim
G1 X116.468 Y93.144 E0.02589 ; brim
G1 X117.150 Y92.682 E0.02583 ; brim
G1 X117.878 Y92.247 E0.02659 ; brim
G1 X118.633 Y91.853 E0.02670 ; brim
G1 X119.719 Y91.381 E0.03714 ; brim
G1 X120.460 Y91.116 E0.02466 ; brim
G1 X121.220 Y90.890 E0.02485 ; brim
G1 X122.410 Y90.624 E0.03825 ; brim
G1 X123.169 Y90.508 E0.02408 ; brim
G1 X123.936 Y90.431 E0.02416 ; brim
G1 X125.179 Y90.394 E0.03898 ; brim
G1 X126.004 Y90.427 E0.02591 ; brim
G1 X126.836 Y90.509 E0.02619 ; brim
G1 X127.660 Y90.637 E0.02615 ; brim
G1 X128.479 Y90.813 E0.02625 ; brim
G1 X129.656 Y91.154 E0.03843 ; brim
G1 X130.376 Y91.418 E0.02407 ; brim
G1 X131.083 Y91.719 E0.02409 ; brim
G1 X132.167 Y92.272 E0.03815 ; brim
G1 X132.826 Y92.666 E0.02406 ; brim
G1 X133.464 Y93.094 E0.02409 ; brim
G1 X134.426 Y93.840 E0.03818 ; brim
G1 X134.999 Y94.351 E0.02407 ; brim
G1 X135.545 Y94.891 E0.02408 ; brim
G1 X136.350 Y95.804 E0.03816 ; brim
G1 X136.817 Y96.413 E0.02406 ; brim
G1 X137.252 Y97.046 E0.02409 ; brim
G1 X137.874 Y98.098 E0.03829 ; brim
G1 X138.230 Y98.809 E0.02496 ; brim
G1 X138.550 Y99.543 E0.02509 ; brim
G1 X138.943 Y100.643 E0.03661 ; brim
G1 X139.173 Y101.464 E0.02673 ; brim
G1 X139.356 Y102.304 E0.02697 ; brim
G1 X139.483 Y103.103 E0.02537 ; brim
G1 X139.566 Y103.908 E0.02536 ; brim
G1 X139.607 Y105.146 E0.03886 ; brim
G1 X139.578 Y105.916 E0.02414 ; brim
G1 X139.511 Y106.681 E0.02409 ; brim
G1 X139.320 Y107.884 E0.03818 ; brim
G1 X139.148 Y108.632 E0.02407 ; brim
G1 X138.938 Y109.371 E0.02409 ; brim
G1 X138.522 Y110.525 E0.03846 ; brim
G1 X138.183 Y111.292 E0.02630 ; brim
G1 X137.801 Y112.036 E0.02623 ; brim
G1 X137.377 Y112.757 E0.02622 ; brim
G1 X136.911 Y113.456 E0.02631 ; brim
G1 X136.160 Y114.425 E0.03847 ; brim
G1 X135.649 Y114.999 E0.02407 ; brim
G1 X135.109 Y115.545 E0.02410 ; brim
G1 X134.190 Y116.355 E0.03840 ; brim
G1 X133.544 Y116.848 E0.02547 ; brim
G1 X132.864 Y117.309 E0.02576 ; brim
G1 X132.126 Y117.751 E0.02700 ; brim
G1 X131.369 Y118.146 E0.02675 ; brim
G1 X130.300 Y118.612 E0.03659 ; brim
G1 X129.547 Y118.881 E0.02505 ; brim
G1 X128.783 Y119.109 E0.02500 ; brim
G1 X127.591 Y119.376 E0.03832 ; brim
G1 X126.832 Y119.492 E0.02407 ; brim
G1 X126.068 Y119.569 E0.02408 ; brim
G1 X124.851 Y119.607 E0.03816 ; brim
G1 X124.084 Y119.578 E0.02406 ; brim
G1 X123.319 Y119.511 E0.02409 ; brim
G1 X122.116 Y119.320 E0.03819 ; brim
G1 X121.368 Y119.148 E0.02407 ; brim
G1 X120.629 Y118.938 E0.02408 ; brim
G1 X119.484 Y118.526 E0.03816 ; brim
G1 X118.781 Y118.217 E0.02407 ; brim
G1 X118.092 Y117.871 E0.02417 ; brim
G1 X117.023 Y117.237 E0.03899 ; brim
G1 X116.344 Y116.766 E0.02590 ; brim
G1 X115.685 Y116.252 E0.02620 ; brim
G1 X115.058 Y115.702 E0.02617 ; brim
G1 X114.461 Y115.115 E0.02626 ; brim
G1 X113.646 Y114.190 E0.03864 ; brim
G1 X113.153 Y113.545 E0.02546 ; brim
G1 X112.691 Y112.865 E0.02576 ; brim
G1 X112.249 Y112.126 E0.02700 ; brim
G1 X111.855 Y111.370 E0.02676 ; brim
G1 X111.388 Y110.300 E0.03660 ; brim
G1 X111.119 Y109.547 E0.02507 ; brim
G1 X110.891 Y108.783 E0.02500 ; brim
G1 X110.624 Y107.590 E0.03831 ; brim
G1 X110.508 Y106.832 E0.02407 ; brim
G1 X110.431 Y106.067 E0.02409 ; brim
G1 X110.393 Y104.850 E0.03817 ; brim
G1 X110.422 Y104.083 E0.02407 ; brim
G1 X110.490 Y103.318 E0.02408 ; brim
G1 X110.680 Y102.116 E0.03816 ; brim
G1 X110.852 Y101.368 E0.02407 ; brim
G1 X111.062 Y100.629 E0.02409 ; brim
G1 X111.477 Y99.476 E0.03844 ; brim
G1 X111.816 Y98.710 E0.02625 ; brim
G1 X112.197 Y97.968 E0.02616 ; brim
G1 X112.614 Y97.257 E0.02584 ; brim
G1 X113.078 Y96.560 E0.02625 ; brim
G1 X113.639 Y95.835 E0.02874 ; brim
G1 X113.937 Y96.065 F7200.000 ; move to first brim point
G1 F1800
G1 X114.124 Y95.823 E0.00961 ; brim
G1 X114.622 Y95.264 E0.02348 ; brim
G1 X115.155 Y94.725 E0.02375 ; brim
G1 X116.045 Y93.940 E0.03723 ; brim
G1 X116.684 Y93.453 E0.02518 ; brim
G1 X117.357 Y92.997 E0.02549 ; brim
G1 X118.067 Y92.573 E0.02591 ; brim
G1 X118.801 Y92.191 E0.02598 ; brim
G1 X119.852 Y91.734 E0.03592 ; brim
G1 X120.582 Y91.473 E0.02430 ; brim
G1 X121.321 Y91.253 E0.02417 ; brim
G1 X122.473 Y90.996 E0.03703 ; brim
G1 X123.221 Y90.882 E0.02372 ; brim
G1 X123.967 Y90.807 E0.02350 ; brim
G1 X125.170 Y90.771 E0.03774 ; brim
G1 X125.983 Y90.804 E0.02553 ; brim
G1 X126.793 Y90.883 E0.02552 ; brim
G1 X127.596 Y91.009 E0.02548 ; brim
G1 X128.393 Y91.180 E0.02554 ; brim
G1 X129.532 Y91.510 E0.03719 ; brim
G1 X130.233 Y91.767 E0.02341 ; brim
G1 X130.929 Y92.064 E0.02373 ; brim
G1 X131.979 Y92.599 E0.03694 ; brim
G1 X132.620 Y92.982 E0.02340 ; brim
G1 X133.248 Y93.404 E0.02373 ; brim
G1 X134.180 Y94.126 E0.03696 ; brim
G1 X134.744 Y94.630 E0.02372 ; brim
G1 X135.275 Y95.155 E0.02342 ; brim
G1 X136.055 Y96.039 E0.03695 ; brim
G1 X136.509 Y96.631 E0.02340 ; brim
G1 X136.938 Y97.255 E0.02373 ; brim
G1 X137.540 Y98.272 E0.03707 ; brim
G1 X137.887 Y98.965 E0.02428 ; brim
G1 X138.202 Y99.688 E0.02473 ; brim
G1 X138.581 Y100.751 E0.03540 ; brim
G1 X138.805 Y101.550 E0.02601 ; brim
G1 X138.985 Y102.369 E0.02629 ; brim
G1 X139.109 Y103.147 E0.02471 ; brim
G1 X139.191 Y103.940 E0.02499 ; brim
G1 X139.230 Y105.139 E0.03763 ; brim
G1 X139.202 Y105.887 E0.02348 ; brim
G1 X139.136 Y106.641 E0.02374 ; brim
G1 X138.951 Y107.806 E0.03697 ; brim
G1 X138.784 Y108.534 E0.02341 ; brim
G1 X138.577 Y109.262 E0.02373 ; brim
G1 X138.175 Y110.379 E0.03723 ; brim
G1 X137.845 Y111.125 E0.02558 ; brim
G1 X137.468 Y111.859 E0.02589 ; brim
G1 X137.055 Y112.562 E0.02554 ; brim
G1 X136.602 Y113.241 E0.02560 ; brim
G1 X135.874 Y114.179 E0.03724 ; brim
G1 X135.377 Y114.737 E0.02341 ; brim
G1 X134.845 Y115.275 E0.02374 ; brim
G1 X133.956 Y116.059 E0.03717 ; brim
G1 X133.320 Y116.545 E0.02509 ; brim
G1 X132.657 Y116.994 E0.02510 ; brim
G1 X131.937 Y117.425 E0.02631 ; brim
G1 X131.201 Y117.808 E0.02603 ; brim
G1 X130.166 Y118.259 E0.03538 ; brim
G1 X129.434 Y118.521 E0.02438 ; brim
