; generated by Slic3r 1.37.2.1-prusa3d-linux64 on 2018-11-28 at 13:57:19

; 

; external perimeters extrusion width = 0.42mm
; perimeters extrusion width = 0.45mm
; infill extrusion width = 0.45mm
; solid infill extrusion width = 0.45mm
; top infill extrusion width = 0.42mm
; first layer extrusion width = 0.42mm

M107 ; disable fan
M115 U3.1.0 ; tell printer latest fw version
M83  ; extruder relative mode
M104 S215 ; set extruder temp
M140 S55 ; set bed temp
M190 S55 ; wait for bed temp
M109 S215 ; wait for extruder temp
G28 W ; home all without mesh bed level
G80 ; mesh bed leveling
G1 Y-3.0 F1000.0 ; go outside pritn area
G1 X60.0 E9.0  F1000.0 ; intro line
G1 X100.0 E12.5  F1000.0 ; intro line
G92 E0.0
M900 K30
G21 ; set units to millimeters
G90 ; use absolute coordinates
M83 ; use relative distances for extrusion
;BEFORE_LAYER_CHANGE
;0.2


G1 E-0.80000 F2100.00000 ; retract
G1 Z0.600 F7200.000 ; lift Z
;AFTER_LAYER_CHANGE
;0.2
G1 X116.169 Y101.416 F7200.000 ; move to first skirt point
G1 Z0.200 F7200.000 ; restore layer Z
G1 E0.80000 F2100.00000 ; unretract
M204 S1000 ; adjust acceleration
G1 F1800
G1 X117.005 Y99.814 E0.05665 ; skirt
G1 X117.648 Y98.935 E0.03415 ; skirt
G1 X118.405 Y98.121 E0.03484 ; skirt
G1 X119.876 Y96.963 E0.05871 ; skirt
G1 X121.477 Y96.144 E0.05638 ; skirt
G1 X123.212 Y95.638 E0.05666 ; skirt
G1 X125.007 Y95.469 E0.05652 ; skirt
G1 X126.788 Y95.638 E0.05611 ; skirt
G1 X128.523 Y96.144 E0.05666 ; skirt
G1 X130.124 Y96.963 E0.05638 ; skirt
G1 X131.595 Y98.120 E0.05870 ; skirt
G1 X132.342 Y98.922 E0.03436 ; skirt
G1 X132.988 Y99.803 E0.03424 ; skirt
G1 X133.829 Y101.410 E0.05688 ; skirt
G1 X134.359 Y103.197 E0.05842 ; skirt
G1 X134.531 Y104.992 E0.05656 ; skirt
G1 X134.361 Y106.791 E0.05663 ; skirt
G1 X133.833 Y108.579 E0.05847 ; skirt
G1 X132.998 Y110.182 E0.05665 ; skirt
G1 X132.350 Y111.068 E0.03444 ; skirt
G1 X131.595 Y111.879 E0.03474 ; skirt
G1 X130.124 Y113.037 E0.05871 ; skirt
G1 X128.523 Y113.856 E0.05638 ; skirt
G1 X126.788 Y114.362 E0.05666 ; skirt
G1 X124.998 Y114.531 E0.05639 ; skirt
G1 X123.199 Y114.360 E0.05666 ; skirt
G1 X121.417 Y113.831 E0.05829 ; skirt
G1 X119.814 Y112.996 E0.05665 ; skirt
G1 X118.926 Y112.345 E0.03452 ; skirt
G1 X118.127 Y111.602 E0.03422 ; skirt
G1 X116.969 Y110.133 E0.05866 ; skirt
G1 X116.148 Y108.533 E0.05639 ; skirt
G1 X115.640 Y106.798 E0.05666 ; skirt
G1 X115.469 Y104.998 E0.05671 ; skirt
G1 X115.640 Y103.199 E0.05666 ; skirt
G1 X116.152 Y101.473 E0.05644 ; skirt
G1 X116.511 Y101.579 F7200.000 ; move to first skirt point
G1 F1800
G1 X117.317 Y100.025 E0.05488 ; skirt
G1 X117.940 Y99.173 E0.03310 ; skirt
G1 X118.671 Y98.387 E0.03368 ; skirt
G1 X120.081 Y97.280 E0.05619 ; skirt
G1 X121.618 Y96.493 E0.05415 ; skirt
G1 X123.284 Y96.008 E0.05441 ; skirt
G1 X125.004 Y95.846 E0.05415 ; skirt
G1 X126.719 Y96.009 E0.05402 ; skirt
G1 X128.385 Y96.495 E0.05441 ; skirt
G1 X129.918 Y97.279 E0.05402 ; skirt
G1 X131.329 Y98.387 E0.05622 ; skirt
G1 X132.050 Y99.161 E0.03317 ; skirt
G1 X132.676 Y100.015 E0.03320 ; skirt
G1 X133.482 Y101.559 E0.05463 ; skirt
G1 X133.989 Y103.270 E0.05594 ; skirt
G1 X134.154 Y104.990 E0.05418 ; skirt
G1 X133.992 Y106.717 E0.05438 ; skirt
G1 X133.487 Y108.429 E0.05598 ; skirt
G1 X132.688 Y109.968 E0.05436 ; skirt
G1 X132.058 Y110.829 E0.03345 ; skirt
G1 X131.331 Y111.610 E0.03344 ; skirt
G1 X129.919 Y112.720 E0.05632 ; skirt
G1 X128.382 Y113.507 E0.05415 ; skirt
G1 X126.716 Y113.992 E0.05441 ; skirt
G1 X125.000 Y114.154 E0.05402 ; skirt
G1 X123.285 Y113.992 E0.05402 ; skirt
G1 X121.619 Y113.507 E0.05441 ; skirt
G1 X120.082 Y112.721 E0.05415 ; skirt
G1 X118.671 Y111.613 E0.05622 ; skirt
G1 X117.953 Y110.842 E0.03303 ; skirt
G1 X117.322 Y109.982 E0.03345 ; skirt
G1 X116.519 Y108.444 E0.05440 ; skirt
G1 X116.012 Y106.734 E0.05594 ; skirt
G1 X115.846 Y105.000 E0.05460 ; skirt
G1 X116.010 Y103.273 E0.05441 ; skirt
G1 X116.494 Y101.637 E0.05350 ; skirt
G1 X116.854 Y101.743 F7200.000 ; move to first skirt point
G1 F1800
G1 X117.629 Y100.237 E0.05310 ; skirt
G1 X118.232 Y99.412 E0.03204 ; skirt
G1 X118.938 Y98.653 E0.03251 ; skirt
G1 X120.285 Y97.597 E0.05369 ; skirt
G1 X121.760 Y96.843 E0.05191 ; skirt
G1 X123.353 Y96.379 E0.05203 ; skirt
G1 X125.005 Y96.223 E0.05204 ; skirt
G1 X126.646 Y96.379 E0.05168 ; skirt
G1 X128.243 Y96.844 E0.05215 ; skirt
G1 X129.714 Y97.596 E0.05180 ; skirt
G1 X131.062 Y98.654 E0.05372 ; skirt
G1 X131.761 Y99.403 E0.03213 ; skirt
G1 X132.365 Y100.227 E0.03203 ; skirt
G1 X133.134 Y101.705 E0.05225 ; skirt
G1 X133.619 Y103.344 E0.05359 ; skirt
G1 X133.777 Y104.992 E0.05192 ; skirt
G1 X133.622 Y106.644 E0.05201 ; skirt
G1 X133.138 Y108.284 E0.05362 ; skirt
G1 X132.698 Y109.216 E0.03231 ; skirt
G1 X132.146 Y110.094 E0.03252 ; skirt
G1 X131.062 Y111.347 E0.05194 ; skirt
G1 X129.715 Y112.403 E0.05369 ; skirt
G1 X128.240 Y113.157 E0.05191 ; skirt
G1 X126.647 Y113.621 E0.05203 ; skirt
G1 X124.999 Y113.777 E0.05192 ; skirt
G1 X123.346 Y113.620 E0.05203 ; skirt
G1 X121.711 Y113.137 E0.05346 ; skirt
G1 X120.238 Y112.372 E0.05203 ; skirt
G1 X119.407 Y111.764 E0.03230 ; skirt
G1 X118.660 Y111.069 E0.03199 ; skirt
G1 X117.600 Y109.719 E0.05381 ; skirt
G1 X116.845 Y108.246 E0.05190 ; skirt
G1 X116.380 Y106.653 E0.05203 ; skirt
G1 X116.223 Y104.998 E0.05211 ; skirt
G1 X116.380 Y103.346 E0.05203 ; skirt
G1 X116.837 Y101.801 E0.05054 ; skirt
G1 F5760
G1 X117.629 Y100.237 E-0.60699 ; wipe and retract
G1 F5760
G1 X117.889 Y99.881 E-0.15301 ; wipe and retract
G1 E-0.04000 F2100.00000 ; retract
G1 Z0.800 F7200.000 ; lift Z
G1 X119.855 Y102.953 F7200.000 ; move to first perimeter point
G1 Z0.200 F7200.000 ; restore layer Z
G1 E0.80000 F2100.00000 ; unretract
G1 F1800
G1 X120.147 Y102.332 E0.02152 ; perimeter
G1 X120.515 Y101.752 E0.02152 ; perimeter
G1 X120.739 Y101.463 E0.01149 ; perimeter
G1 X121.209 Y100.963 E0.02151 ; perimeter
G1 X121.745 Y100.519 E0.02181 ; perimeter
G1 X122.324 Y100.152 E0.02152 ; perimeter
G1 X122.651 Y99.985 E0.01149 ; perimeter
G1 X123.280 Y99.736 E0.02123 ; perimeter
G1 X123.632 Y99.634 E0.01149 ; perimeter
G1 X124.297 Y99.507 E0.02123 ; perimeter
G1 X124.661 Y99.473 E0.01149 ; perimeter
G1 X125.338 Y99.473 E0.02123 ; perimeter
G1 X125.703 Y99.507 E0.01149 ; perimeter
G1 X126.368 Y99.634 E0.02123 ; perimeter
G1 X127.047 Y99.855 E0.02238 ; perimeter
G1 X127.668 Y100.147 E0.02152 ; perimeter
G1 X128.255 Y100.519 E0.02181 ; perimeter
G1 X128.783 Y100.956 E0.02148 ; perimeter
G1 X129.043 Y101.216 E0.01152 ; perimeter
G1 X129.481 Y101.745 E0.02152 ; perimeter
G1 X129.848 Y102.324 E0.02152 ; perimeter
G1 X130.015 Y102.651 E0.01149 ; perimeter
G1 X130.264 Y103.280 E0.02122 ; perimeter
G1 X130.366 Y103.632 E0.01149 ; perimeter
G1 X130.493 Y104.297 E0.02123 ; perimeter
G1 X130.538 Y105.009 E0.02238 ; perimeter
G1 X130.495 Y105.694 E0.02152 ; perimeter
G1 X130.366 Y106.368 E0.02151 ; perimeter
G1 X130.145 Y107.047 E0.02239 ; perimeter
G1 X129.853 Y107.668 E0.02152 ; perimeter
G1 X129.480 Y108.255 E0.02181 ; perimeter
G1 X129.037 Y108.791 E0.02180 ; perimeter
G1 X128.537 Y109.261 E0.02152 ; perimeter
G1 X128.247 Y109.485 E0.01149 ; perimeter
G1 X127.676 Y109.848 E0.02123 ; perimeter
G1 X127.030 Y110.152 E0.02238 ; perimeter
G1 X126.377 Y110.364 E0.02152 ; perimeter
G1 X125.703 Y110.493 E0.02152 ; perimeter
G1 X124.991 Y110.538 E0.02238 ; perimeter
G1 X124.306 Y110.495 E0.02152 ; perimeter
G1 X123.632 Y110.366 E0.02152 ; perimeter
G1 X122.953 Y110.145 E0.02238 ; perimeter
G1 X122.332 Y109.853 E0.02152 ; perimeter
G1 X121.745 Y109.481 E0.02181 ; perimeter
G1 X121.216 Y109.043 E0.02152 ; perimeter
G1 X120.957 Y108.784 E0.01149 ; perimeter
G1 X120.519 Y108.255 E0.02152 ; perimeter
G1 X120.152 Y107.676 E0.02152 ; perimeter
G1 X119.985 Y107.349 E0.01149 ; perimeter
G1 X119.736 Y106.720 E0.02122 ; perimeter
G1 X119.634 Y106.368 E0.01149 ; perimeter
G1 X119.507 Y105.703 E0.02123 ; perimeter
G1 X119.474 Y105.348 E0.01120 ; perimeter
G1 X119.462 Y104.991 E0.01120 ; perimeter
G1 X119.505 Y104.306 E0.02152 ; perimeter
G1 X119.634 Y103.632 E0.02151 ; perimeter
G1 X119.834 Y103.009 E0.02051 ; perimeter
G1 X120.189 Y103.137 F7200.000 ; move to first perimeter point
G1 F1800
G1 X120.478 Y102.514 E0.02153 ; perimeter
G1 X120.823 Y101.969 E0.02022 ; perimeter
G1 X121.026 Y101.708 E0.01037 ; perimeter
G1 X121.467 Y101.238 E0.02021 ; perimeter
G1 X121.967 Y100.825 E0.02032 ; perimeter
G1 X122.511 Y100.480 E0.02022 ; perimeter
G1 X122.806 Y100.330 E0.01037 ; perimeter
G1 X123.402 Y100.093 E0.02011 ; perimeter
G1 X123.720 Y100.001 E0.01037 ; perimeter
G1 X124.350 Y99.881 E0.02011 ; perimeter
G1 X124.679 Y99.850 E0.01037 ; perimeter
G1 X125.321 Y99.850 E0.02011 ; perimeter
G1 X125.650 Y99.881 E0.01037 ; perimeter
G1 X126.280 Y100.001 E0.02011 ; perimeter
G1 X126.903 Y100.203 E0.02053 ; perimeter
G1 X127.486 Y100.478 E0.02021 ; perimeter
G1 X128.033 Y100.825 E0.02032 ; perimeter
G1 X128.529 Y101.235 E0.02018 ; perimeter
G1 X128.764 Y101.470 E0.01041 ; perimeter
G1 X129.175 Y101.967 E0.02022 ; perimeter
G1 X129.520 Y102.511 E0.02022 ; perimeter
G1 X129.671 Y102.806 E0.01037 ; perimeter
G1 X129.907 Y103.402 E0.02011 ; perimeter
G1 X129.999 Y103.720 E0.01038 ; perimeter
G1 X130.119 Y104.350 E0.02011 ; perimeter
G1 X130.160 Y105.003 E0.02052 ; perimeter
G1 X130.120 Y105.647 E0.02022 ; perimeter
G1 X129.999 Y106.280 E0.02021 ; perimeter
G1 X129.797 Y106.903 E0.02053 ; perimeter
G1 X129.522 Y107.486 E0.02022 ; perimeter
G1 X129.175 Y108.033 E0.02032 ; perimeter
G1 X128.762 Y108.533 E0.02031 ; perimeter
G1 X128.292 Y108.974 E0.02022 ; perimeter
G1 X128.030 Y109.177 E0.01037 ; perimeter
G1 X127.489 Y109.520 E0.02011 ; perimeter
G1 X126.897 Y109.799 E0.02052 ; perimeter
G1 X126.283 Y109.998 E0.02022 ; perimeter
G1 X125.650 Y110.119 E0.02022 ; perimeter
G1 X124.997 Y110.160 E0.02052 ; perimeter
G1 X124.353 Y110.120 E0.02022 ; perimeter
G1 X123.720 Y109.999 E0.02022 ; perimeter
G1 X123.097 Y109.797 E0.02053 ; perimeter
G1 X122.514 Y109.522 E0.02022 ; perimeter
G1 X121.967 Y109.175 E0.02032 ; perimeter
G1 X121.470 Y108.764 E0.02022 ; perimeter
G1 X121.236 Y108.530 E0.01038 ; perimeter
G1 X120.825 Y108.033 E0.02022 ; perimeter
G1 X120.480 Y107.489 E0.02022 ; perimeter
G1 X120.329 Y107.194 E0.01037 ; perimeter
G1 X120.093 Y106.598 E0.02011 ; perimeter
G1 X120.001 Y106.280 E0.01038 ; perimeter
G1 X119.881 Y105.650 E0.02011 ; perimeter
G1 X119.850 Y105.324 E0.01027 ; perimeter
G1 X119.840 Y104.997 E0.01027 ; perimeter
G1 X119.880 Y104.353 E0.02021 ; perimeter
G1 X120.001 Y103.720 E0.02021 ; perimeter
G1 X120.169 Y103.193 E0.01733 ; perimeter
G1 X119.939 Y102.825 F7200.000 ; move inwards before travel
G1 X119.555 Y102.973 F7200.000 ; move to first perimeter point
G1 F1800
G1 X119.741 Y102.525 E0.01519 ; perimeter
G1 X120.092 Y101.885 E0.02289 ; perimeter
G1 X120.521 Y101.295 E0.02289 ; perimeter
G1 X120.763 Y101.021 E0.01145 ; perimeter
G1 X121.021 Y100.763 E0.01145 ; perimeter
G1 X121.583 Y100.297 E0.02289 ; perimeter
G1 X121.885 Y100.092 E0.01145 ; perimeter
G1 X122.525 Y99.741 E0.02289 ; perimeter
G1 X122.860 Y99.596 E0.01145 ; perimeter
G1 X123.554 Y99.370 E0.02289 ; perimeter
G1 X123.911 Y99.290 E0.01145 ; perimeter
G1 X124.635 Y99.199 E0.02288 ; perimeter
G1 X125.365 Y99.199 E0.02289 ; perimeter
G1 X126.089 Y99.290 E0.02289 ; perimeter
G1 X126.796 Y99.472 E0.02288 ; perimeter
G1 X127.142 Y99.596 E0.01152 ; perimeter
G1 X127.800 Y99.906 E0.02282 ; perimeter
G1 X128.416 Y100.297 E0.02288 ; perimeter
G1 X128.707 Y100.523 E0.01152 ; perimeter
G1 X129.236 Y101.019 E0.02275 ; perimeter
G1 X129.479 Y101.295 E0.01152 ; perimeter
G1 X129.908 Y101.885 E0.02288 ; perimeter
G1 X130.258 Y102.523 E0.02282 ; perimeter
G1 X130.404 Y102.860 E0.01152 ; perimeter
G1 X130.528 Y103.204 E0.01145 ; perimeter
G1 X130.710 Y103.911 E0.02289 ; perimeter
G1 X130.801 Y104.633 E0.02282 ; perimeter
G1 X130.813 Y105.000 E0.01152 ; perimeter
G1 X130.801 Y105.365 E0.01145 ; perimeter
G1 X130.710 Y106.089 E0.02289 ; perimeter
G1 X130.529 Y106.794 E0.02282 ; perimeter
G1 X130.404 Y107.140 E0.01152 ; perimeter
G1 X130.094 Y107.800 E0.02288 ; perimeter
G1 X129.703 Y108.417 E0.02289 ; perimeter
G1 X129.237 Y108.979 E0.02289 ; perimeter
G1 X128.979 Y109.237 E0.01145 ; perimeter
G1 X128.705 Y109.479 E0.01145 ; perimeter
G1 X128.115 Y109.908 E0.02289 ; perimeter
G1 X127.475 Y110.259 E0.02289 ; perimeter
G1 X127.140 Y110.404 E0.01145 ; perimeter
G1 X126.796 Y110.528 E0.01145 ; perimeter
G1 X126.089 Y110.710 E0.02289 ; perimeter
G1 X125.365 Y110.801 E0.02289 ; perimeter
G1 X125.000 Y110.813 E0.01145 ; perimeter
G1 X124.635 Y110.801 E0.01145 ; perimeter
G1 X123.911 Y110.710 E0.02289 ; perimeter
G1 X123.204 Y110.528 E0.02289 ; perimeter
G1 X122.860 Y110.404 E0.01145 ; perimeter
G1 X122.525 Y110.259 E0.01145 ; perimeter
G1 X121.885 Y109.908 E0.02289 ; perimeter
G1 X121.583 Y109.703 E0.01145 ; perimeter
G1 X121.021 Y109.237 E0.02289 ; perimeter
G1 X120.763 Y108.979 E0.01145 ; perimeter
G1 X120.297 Y108.417 E0.02289 ; perimeter
G1 X120.092 Y108.115 E0.01145 ; perimeter
G1 X119.741 Y107.475 E0.02289 ; perimeter
G1 X119.472 Y106.796 E0.02289 ; perimeter
G1 X119.370 Y106.446 E0.01145 ; perimeter
G1 X119.290 Y106.089 E0.01145 ; perimeter
G1 X119.199 Y105.367 E0.02282 ; perimeter
G1 X119.187 Y105.000 E0.01152 ; perimeter
G1 X119.233 Y104.271 E0.02288 ; perimeter
G1 X119.370 Y103.554 E0.02289 ; perimeter
G1 X119.535 Y103.029 E0.01726 ; perimeter
G1 X119.180 Y102.902 F7200.000 ; move to first perimeter point
G1 F1800
G1 X119.399 Y102.364 E0.01819 ; perimeter
G1 X119.774 Y101.683 E0.02437 ; perimeter
G1 X120.231 Y101.054 E0.02437 ; perimeter
G1 X120.488 Y100.763 E0.01219 ; perimeter
G1 X120.763 Y100.488 E0.01219 ; perimeter
G1 X121.362 Y99.992 E0.02437 ; perimeter
G1 X121.683 Y99.774 E0.01219 ; perimeter
G1 X122.364 Y99.399 E0.02437 ; perimeter
G1 X122.721 Y99.245 E0.01219 ; perimeter
G1 X123.461 Y99.005 E0.02437 ; perimeter
G1 X123.840 Y98.920 E0.01219 ; perimeter
G1 X124.611 Y98.822 E0.02437 ; perimeter
G1 X125.002 Y98.810 E0.01226 ; perimeter
G1 X125.776 Y98.859 E0.02430 ; perimeter
G1 X126.160 Y98.920 E0.01219 ; perimeter
G1 X126.913 Y99.113 E0.02437 ; perimeter
G1 X127.281 Y99.246 E0.01226 ; perimeter
G1 X127.982 Y99.576 E0.02430 ; perimeter
G1 X128.638 Y99.992 E0.02437 ; perimeter
G1 X128.947 Y100.232 E0.01226 ; perimeter
G1 X129.511 Y100.761 E0.02424 ; perimeter
G1 X129.769 Y101.054 E0.01226 ; perimeter
G1 X130.008 Y101.362 E0.01219 ; perimeter
G1 X130.424 Y102.018 E0.02437 ; perimeter
G1 X130.755 Y102.721 E0.02437 ; perimeter
G1 X130.887 Y103.087 E0.01219 ; perimeter
G1 X131.080 Y103.840 E0.02437 ; perimeter
G1 X131.141 Y104.224 E0.01219 ; perimeter
G1 X131.190 Y105.000 E0.02437 ; perimeter
G1 X131.178 Y105.389 E0.01219 ; perimeter
G1 X131.080 Y106.160 E0.02437 ; perimeter
G1 X130.888 Y106.911 E0.02430 ; perimeter
G1 X130.755 Y107.279 E0.01226 ; perimeter
G1 X130.424 Y107.982 E0.02437 ; perimeter
G1 X130.008 Y108.638 E0.02437 ; perimeter
G1 X129.769 Y108.946 E0.01219 ; perimeter
G1 X129.512 Y109.237 E0.01219 ; perimeter
G1 X128.946 Y109.769 E0.02437 ; perimeter
G1 X128.637 Y110.009 E0.01226 ; perimeter
G1 X127.982 Y110.424 E0.02430 ; perimeter
G1 X127.279 Y110.755 E0.02437 ; perimeter
G1 X126.913 Y110.887 E0.01219 ; perimeter
G1 X126.160 Y111.080 E0.02437 ; perimeter
G1 X125.389 Y111.178 E0.02437 ; perimeter
G1 X124.611 Y111.178 E0.02437 ; perimeter
G1 X124.224 Y111.141 E0.01219 ; perimeter
G1 X123.840 Y111.080 E0.01219 ; perimeter
G1 X123.087 Y110.887 E0.02437 ; perimeter
G1 X122.364 Y110.601 E0.02437 ; perimeter
G1 X121.683 Y110.226 E0.02437 ; perimeter
G1 X121.362 Y110.008 E0.01219 ; perimeter
G1 X120.763 Y109.512 E0.02437 ; perimeter
G1 X120.488 Y109.237 E0.01219 ; perimeter
G1 X119.992 Y108.638 E0.02437 ; perimeter
G1 X119.774 Y108.317 E0.01219 ; perimeter
G1 X119.399 Y107.636 E0.02437 ; perimeter
G1 X119.113 Y106.913 E0.02437 ; perimeter
G1 X119.005 Y106.539 E0.01219 ; perimeter
G1 X118.920 Y106.160 E0.01219 ; perimeter
G1 X118.823 Y105.391 E0.02430 ; perimeter
G1 X118.810 Y105.000 E0.01226 ; perimeter
G1 X118.859 Y104.224 E0.02437 ; perimeter
