; generated by Slic3r 1.37.2.1-prusa3d-linux64 on 2018-11-29 at 10:15:10

; 

; external perimeters extrusion width = 0.42mm
; perimeters extrusion width = 0.45mm
; infill extrusion width = 0.45mm
; solid infill extrusion width = 0.45mm
; top infill extrusion width = 0.42mm
; first layer extrusion width = 0.42mm

M107 ; disable fan
M115 U3.1.0 ; tell printer latest fw version
M83  ; extruder relative mode
M104 S230 ; set extruder temp
M140 S85 ; set bed temp
M190 S85 ; wait for bed temp
M109 S230 ; wait for extruder temp
G28 W ; home all without mesh bed level
G80 ; mesh bed leveling
G1 Y-3.0 F1000.0 ; go outside pritn area
G1 X60.0 E9.0  F1000.0 ; intro line
G1 X100.0 E12.5  F1000.0 ; intro line
G92 E0.0
M900 K45
G21 ; set units to millimeters
G90 ; use absolute coordinates
M83 ; use relative distances for extrusion
;BEFORE_LAYER_CHANGE
;0.2


G1 E-0.80000 F2100.00000 ; retract
G1 Z0.600 F7200.000 ; lift Z
;AFTER_LAYER_CHANGE
;0.2
G1 X92.126 Y89.204 F7200.000 ; move to first skirt point
G1 Z0.200 F7200.000 ; restore layer Z
G1 E0.80000 F2100.00000 ; unretract
M204 S1000 ; adjust acceleration
G1 F1800
G1 X92.708 Y88.688 E0.02437 ; skirt
G1 X93.402 Y88.393 E0.02367 ; skirt
G1 X129.235 Y79.635 E1.15657 ; skirt
G1 X162.274 Y79.615 E1.03594 ; skirt
G1 X163.170 Y79.792 E0.02860 ; skirt
G1 X163.935 Y80.295 E0.02872 ; skirt
G1 X164.452 Y81.047 E0.02860 ; skirt
G1 X164.647 Y81.942 E0.02872 ; skirt
G1 X164.647 Y106.995 E0.78552 ; skirt
G1 X163.312 Y128.570 E0.67776 ; skirt
G1 X163.134 Y129.311 E0.02390 ; skirt
G1 X162.731 Y129.958 E0.02390 ; skirt
G1 X158.609 Y134.087 E0.18292 ; skirt
G1 X158.207 Y134.405 E0.01609 ; skirt
G1 X157.618 Y134.671 E0.02024 ; skirt
G1 X156.977 Y134.769 E0.02036 ; skirt
G1 X134.566 Y134.740 E0.70266 ; skirt
G1 X93.386 Y124.870 E1.32776 ; skirt
G1 X92.574 Y124.488 E0.02813 ; skirt
G1 X91.961 Y123.832 E0.02813 ; skirt
G1 X88.840 Y117.749 E0.21438 ; skirt
G1 X88.619 Y117.031 E0.02355 ; skirt
G1 X88.597 Y99.793 E0.54048 ; skirt
G1 X88.708 Y99.123 E0.02130 ; skirt
G1 X91.744 Y89.876 E0.30513 ; skirt
G1 X92.096 Y89.256 E0.02237 ; skirt
G1 F5760
G1 X92.708 Y88.688 E-0.28899 ; wipe and retract
G1 F5760
G1 X93.402 Y88.393 E-0.26142 ; wipe and retract
G1 F5760
G1 X93.990 Y88.249 E-0.20959 ; wipe and retract
G1 E-0.04000 F2100.00000 ; retract
G1 Z0.800 F7200.000 ; lift Z
G1 X104.931 Y97.352 F7200.000 ; move to first perimeter point
G1 Z0.200 F7200.000 ; restore layer Z
G1 E0.80000 F2100.00000 ; unretract
G1 F1800
G1 X113.027 Y102.026 E0.29310 ; perimeter
G1 X113.027 Y111.374 E0.29310 ; perimeter
G1 X104.931 Y116.048 E0.29310 ; perimeter
G1 X96.836 Y111.374 E0.29310 ; perimeter
G1 X96.836 Y102.026 E0.29310 ; perimeter
G1 X104.879 Y97.382 E0.29121 ; perimeter
G1 X104.931 Y97.788 F7200.000 ; move to first perimeter point
G1 F1800
G1 X112.650 Y102.244 E0.27944 ; perimeter
G1 X112.650 Y111.157 E0.27944 ; perimeter
G1 X104.931 Y115.613 E0.27944 ; perimeter
G1 X97.213 Y111.157 E0.27944 ; perimeter
G1 X97.213 Y102.244 E0.27944 ; perimeter
G1 X104.879 Y97.818 E0.27756 ; perimeter
G1 X105.131 Y97.441 F7200.000 ; move inwards before travel
G1 F5760
G1 X106.786 Y98.904 E-0.76000 ; wipe and retract
G1 E-0.04000 F2100.00000 ; retract
G1 Z0.800 F7200.000 ; lift Z
G1 X101.753 Y96.950 F7200.000 ; move to first perimeter point
G1 Z0.200 F7200.000 ; restore layer Z
G1 E0.80000 F2100.00000 ; unretract
G1 F1800
G1 X101.635 Y97.311 E0.01188 ; perimeter
G1 X101.474 Y97.653 E0.01187 ; perimeter
G1 X101.271 Y97.973 E0.01188 ; perimeter
G1 X101.030 Y98.265 E0.01188 ; perimeter
G1 X100.754 Y98.524 E0.01188 ; perimeter
G1 X100.447 Y98.747 E0.01188 ; perimeter
G1 X100.108 Y98.934 E0.01215 ; perimeter
G1 X99.664 Y99.094 E0.01481 ; perimeter
G1 X99.396 Y99.163 E0.00866 ; perimeter
G1 X99.020 Y99.211 E0.01188 ; perimeter
G1 X98.642 Y99.211 E0.01187 ; perimeter
G1 X98.266 Y99.163 E0.01188 ; perimeter
G1 X97.897 Y99.068 E0.01193 ; perimeter
G1 X97.533 Y98.922 E0.01232 ; perimeter
G1 X97.215 Y98.747 E0.01138 ; perimeter
G1 X96.909 Y98.524 E0.01187 ; perimeter
G1 X96.632 Y98.265 E0.01188 ; perimeter
G1 X96.391 Y97.973 E0.01188 ; perimeter
G1 X96.188 Y97.653 E0.01188 ; perimeter
G1 X96.027 Y97.311 E0.01188 ; perimeter
G1 X95.910 Y96.950 E0.01187 ; perimeter
G1 X95.839 Y96.578 E0.01188 ; perimeter
G1 X95.820 Y96.287 E0.00914 ; perimeter
G1 X95.837 Y95.830 E0.01436 ; perimeter
G1 X95.910 Y95.450 E0.01212 ; perimeter
G1 X96.027 Y95.090 E0.01187 ; perimeter
G1 X96.188 Y94.747 E0.01187 ; perimeter
G1 X96.336 Y94.514 E0.00866 ; perimeter
G1 X96.631 Y94.135 E0.01508 ; perimeter
G1 X96.992 Y93.816 E0.01508 ; perimeter
G1 X97.215 Y93.654 E0.00866 ; perimeter
G1 X97.555 Y93.467 E0.01215 ; perimeter
G1 X97.998 Y93.306 E0.01480 ; perimeter
G1 X98.266 Y93.237 E0.00866 ; perimeter
G1 X98.642 Y93.190 E0.01188 ; perimeter
G1 X99.020 Y93.190 E0.01187 ; perimeter
G1 X99.396 Y93.237 E0.01188 ; perimeter
G1 X99.765 Y93.332 E0.01193 ; perimeter
G1 X100.129 Y93.479 E0.01232 ; perimeter
G1 X100.447 Y93.654 E0.01138 ; perimeter
G1 X100.754 Y93.876 E0.01188 ; perimeter
G1 X101.030 Y94.136 E0.01188 ; perimeter
G1 X101.276 Y94.433 E0.01212 ; perimeter
G1 X101.512 Y94.826 E0.01436 ; perimeter
G1 X101.636 Y95.090 E0.00914 ; perimeter
G1 X101.753 Y95.450 E0.01187 ; perimeter
G1 X101.824 Y95.822 E0.01188 ; perimeter
G1 X101.847 Y96.200 E0.01188 ; perimeter
G1 X101.824 Y96.578 E0.01188 ; perimeter
G1 X101.764 Y96.892 E0.01000 ; perimeter
G1 X101.393 Y96.821 F7200.000 ; move to first perimeter point
G1 F1800
G1 X101.284 Y97.172 E0.01151 ; perimeter
G1 X101.143 Y97.471 E0.01039 ; perimeter
G1 X100.966 Y97.751 E0.01039 ; perimeter
G1 X100.754 Y98.006 E0.01039 ; perimeter
G1 X100.513 Y98.233 E0.01039 ; perimeter
G1 X100.245 Y98.428 E0.01039 ; perimeter
G1 X99.952 Y98.589 E0.01049 ; perimeter
G1 X99.552 Y98.734 E0.01332 ; perimeter
G1 X99.325 Y98.792 E0.00735 ; perimeter
G1 X98.997 Y98.834 E0.01039 ; perimeter
G1 X98.666 Y98.834 E0.01039 ; perimeter
G1 X98.337 Y98.792 E0.01039 ; perimeter
G1 X98.015 Y98.709 E0.01041 ; perimeter
G1 X97.695 Y98.581 E0.01083 ; perimeter
G1 X97.417 Y98.428 E0.00993 ; perimeter
G1 X97.149 Y98.233 E0.01039 ; perimeter
G1 X96.908 Y98.006 E0.01039 ; perimeter
G1 X96.697 Y97.751 E0.01039 ; perimeter
G1 X96.519 Y97.471 E0.01039 ; perimeter
G1 X96.378 Y97.172 E0.01039 ; perimeter
G1 X96.276 Y96.857 E0.01039 ; perimeter
G1 X96.214 Y96.531 E0.01039 ; perimeter
G1 X96.198 Y96.283 E0.00780 ; perimeter
G1 X96.213 Y95.872 E0.01287 ; perimeter
G1 X96.276 Y95.544 E0.01048 ; perimeter
G1 X96.378 Y95.229 E0.01039 ; perimeter
G1 X96.519 Y94.929 E0.01039 ; perimeter
G1 X96.645 Y94.731 E0.00735 ; perimeter
G1 X96.907 Y94.394 E0.01342 ; perimeter
G1 X97.228 Y94.110 E0.01342 ; perimeter
G1 X97.417 Y93.973 E0.00734 ; perimeter
G1 X97.711 Y93.811 E0.01049 ; perimeter
G1 X98.110 Y93.667 E0.01331 ; perimeter
G1 X98.337 Y93.609 E0.00735 ; perimeter
G1 X98.666 Y93.567 E0.01039 ; perimeter
G1 X98.997 Y93.567 E0.01039 ; perimeter
G1 X99.326 Y93.609 E0.01039 ; perimeter
G1 X99.647 Y93.691 E0.01041 ; perimeter
G1 X99.967 Y93.820 E0.01083 ; perimeter
G1 X100.245 Y93.973 E0.00992 ; perimeter
G1 X100.513 Y94.167 E0.01039 ; perimeter
G1 X100.754 Y94.394 E0.01039 ; perimeter
G1 X100.967 Y94.652 E0.01048 ; perimeter
G1 X101.178 Y95.004 E0.01287 ; perimeter
G1 X101.284 Y95.229 E0.00780 ; perimeter
G1 X101.387 Y95.544 E0.01039 ; perimeter
G1 X101.449 Y95.870 E0.01039 ; perimeter
G1 X101.470 Y96.200 E0.01039 ; perimeter
G1 X101.449 Y96.531 E0.01039 ; perimeter
G1 X101.405 Y96.762 E0.00738 ; perimeter
G1 X101.658 Y97.075 F7200.000 ; move inwards before travel
G1 F5760
G1 X101.284 Y97.172 E-0.14785 ; wipe and retract
G1 F5760
G1 X101.143 Y97.471 E-0.11474 ; wipe and retract
G1 F5760
G1 X100.966 Y97.751 E-0.11476 ; wipe and retract
G1 F5760
G1 X100.754 Y98.006 E-0.11479 ; wipe and retract
G1 F5760
G1 X100.513 Y98.233 E-0.11476 ; wipe and retract
G1 F5760
G1 X100.245 Y98.428 E-0.11475 ; wipe and retract
G1 F5760
G1 X100.148 Y98.481 E-0.03835 ; wipe and retract
G1 E-0.04000 F2100.00000 ; retract
G1 Z0.800 F7200.000 ; lift Z
G1 X110.815 Y96.200 F7200.000 ; move to first perimeter point
G1 Z0.200 F7200.000 ; restore layer Z
G1 E0.80000 F2100.00000 ; unretract
G1 F1800
G1 X110.839 Y95.822 E0.01188 ; perimeter
G1 X110.910 Y95.450 E0.01188 ; perimeter
G1 X111.027 Y95.090 E0.01188 ; perimeter
G1 X111.188 Y94.747 E0.01187 ; perimeter
G1 X111.391 Y94.427 E0.01188 ; perimeter
G1 X111.632 Y94.136 E0.01188 ; perimeter
G1 X111.909 Y93.876 E0.01188 ; perimeter
G1 X112.215 Y93.654 E0.01187 ; perimeter
G1 X112.555 Y93.467 E0.01215 ; perimeter
G1 X112.998 Y93.306 E0.01480 ; perimeter
G1 X113.266 Y93.237 E0.00866 ; perimeter
G1 X113.642 Y93.190 E0.01188 ; perimeter
G1 X114.020 Y93.190 E0.01187 ; perimeter
G1 X114.396 Y93.237 E0.01188 ; perimeter
G1 X114.763 Y93.332 E0.01188 ; perimeter
G1 X115.115 Y93.471 E0.01187 ; perimeter
G1 X115.455 Y93.658 E0.01215 ; perimeter
G1 X115.829 Y93.947 E0.01481 ; perimeter
G1 X116.030 Y94.136 E0.00866 ; perimeter
G1 X116.271 Y94.427 E0.01188 ; perimeter
G1 X116.474 Y94.747 E0.01188 ; perimeter
G1 X116.635 Y95.090 E0.01187 ; perimeter
G1 X116.753 Y95.450 E0.01188 ; perimeter
G1 X116.824 Y95.822 E0.01188 ; perimeter
G1 X116.847 Y96.200 E0.01188 ; perimeter
G1 X116.824 Y96.578 E0.01188 ; perimeter
G1 X116.753 Y96.950 E0.01188 ; perimeter
G1 X116.635 Y97.311 E0.01188 ; perimeter
G1 X116.474 Y97.653 E0.01187 ; perimeter
G1 X116.271 Y97.973 E0.01188 ; perimeter
G1 X116.030 Y98.265 E0.01188 ; perimeter
G1 X115.754 Y98.524 E0.01188 ; perimeter
G1 X115.447 Y98.747 E0.01188 ; perimeter
G1 X115.115 Y98.930 E0.01188 ; perimeter
G1 X114.763 Y99.069 E0.01187 ; perimeter
G1 X114.396 Y99.163 E0.01188 ; perimeter
G1 X114.020 Y99.211 E0.01188 ; perimeter
G1 X113.642 Y99.211 E0.01187 ; perimeter
G1 X113.266 Y99.163 E0.01188 ; perimeter
G1 X112.899 Y99.069 E0.01188 ; perimeter
G1 X112.547 Y98.930 E0.01187 ; perimeter
G1 X112.207 Y98.743 E0.01215 ; perimeter
G1 X111.834 Y98.454 E0.01480 ; perimeter
G1 X111.632 Y98.265 E0.00865 ; perimeter
G1 X111.391 Y97.973 E0.01188 ; perimeter
G1 X111.188 Y97.653 E0.01188 ; perimeter
G1 X111.027 Y97.311 E0.01187 ; perimeter
G1 X110.910 Y96.950 E0.01188 ; perimeter
G1 X110.839 Y96.578 E0.01188 ; perimeter
G1 X110.819 Y96.260 E0.00999 ; perimeter
G1 X111.195 Y96.236 F7200.000 ; move to first perimeter point
G1 F1800
G1 X111.214 Y95.870 E0.01152 ; perimeter
G1 X111.276 Y95.544 E0.01039 ; perimeter
G1 X111.378 Y95.229 E0.01039 ; perimeter
G1 X111.519 Y94.929 E0.01039 ; perimeter
G1 X111.697 Y94.650 E0.01039 ; perimeter
G1 X111.908 Y94.394 E0.01039 ; perimeter
G1 X112.149 Y94.167 E0.01039 ; perimeter
G1 X112.417 Y93.973 E0.01039 ; perimeter
G1 X112.711 Y93.811 E0.01049 ; perimeter
G1 X113.110 Y93.667 E0.01331 ; perimeter
G1 X113.337 Y93.609 E0.00735 ; perimeter
G1 X113.666 Y93.567 E0.01039 ; perimeter
G1 X113.997 Y93.567 E0.01039 ; perimeter
G1 X114.326 Y93.609 E0.01039 ; perimeter
G1 X114.646 Y93.691 E0.01039 ; perimeter
G1 X114.955 Y93.813 E0.01039 ; perimeter
G1 X115.248 Y93.974 E0.01049 ; perimeter
G1 X115.584 Y94.234 E0.01332 ; perimeter
G1 X115.754 Y94.394 E0.00734 ; perimeter
G1 X115.966 Y94.650 E0.01039 ; perimeter
G1 X116.143 Y94.929 E0.01039 ; perimeter
G1 X116.284 Y95.229 E0.01039 ; perimeter
G1 X116.387 Y95.544 E0.01039 ; perimeter
G1 X116.449 Y95.870 E0.01039 ; perimeter
G1 X116.470 Y96.200 E0.01039 ; perimeter
G1 X116.449 Y96.531 E0.01039 ; perimeter
G1 X116.387 Y96.857 E0.01039 ; perimeter
G1 X116.284 Y97.172 E0.01039 ; perimeter
G1 X116.143 Y97.471 E0.01039 ; perimeter
G1 X115.966 Y97.751 E0.01039 ; perimeter
G1 X115.754 Y98.006 E0.01039 ; perimeter
G1 X115.513 Y98.233 E0.01039 ; perimeter
G1 X115.245 Y98.428 E0.01039 ; perimeter
G1 X114.955 Y98.588 E0.01039 ; perimeter
G1 X114.646 Y98.710 E0.01039 ; perimeter
G1 X114.326 Y98.792 E0.01039 ; perimeter
G1 X113.997 Y98.834 E0.01039 ; perimeter
G1 X113.666 Y98.834 E0.01039 ; perimeter
G1 X113.337 Y98.792 E0.01039 ; perimeter
G1 X113.016 Y98.710 E0.01039 ; perimeter
G1 X112.708 Y98.588 E0.01039 ; perimeter
G1 X112.415 Y98.426 E0.01049 ; perimeter
G1 X112.079 Y98.167 E0.01332 ; perimeter
G1 X111.908 Y98.006 E0.00734 ; perimeter
G1 X111.697 Y97.751 E0.01039 ; perimeter
G1 X111.519 Y97.471 E0.01039 ; perimeter
G1 X111.378 Y97.172 E0.01039 ; perimeter
G1 X111.276 Y96.857 E0.01039 ; perimeter
G1 X111.214 Y96.531 E0.01039 ; perimeter
G1 X111.199 Y96.296 E0.00737 ; perimeter
G1 X110.875 Y96.056 F7200.000 ; move inwards before travel
G1 F5760
G1 X111.214 Y95.870 E-0.14787 ; wipe and retract
G1 F5760
G1 X111.276 Y95.544 E-0.11479 ; wipe and retract
G1 F5760
G1 X111.378 Y95.229 E-0.11474 ; wipe and retract
G1 F5760
G1 X111.519 Y94.929 E-0.11474 ; wipe and retract
G1 F5760
G1 X111.697 Y94.650 E-0.11476 ; wipe and retract
G1 F5760
G1 X111.908 Y94.394 E-0.11479 ; wipe and retract
G1 F5760
G1 X111.988 Y94.318 E-0.03831 ; wipe and retract
G1 E-0.04000 F2100.00000 ; retract
G1 Z0.800 F7200.000 ; lift Z
G1 X94.960 Y115.713 F7200.000 ; move to first perimeter point
G1 Z0.200 F7200.000 ; restore layer Z
G1 E0.80000 F2100.00000 ; unretract
G1 F1800
G1 X91.960 Y115.713 E0.09406 ; perimeter
G1 X91.960 Y100.829 E0.46667 ; perimeter
G1 X94.960 Y100.829 E0.09406 ; perimeter
G1 X94.960 Y91.287 E0.29919 ; perimeter
G1 X117.202 Y91.287 E0.69737 ; perimeter
G1 X117.202 Y121.748 E0.95508 ; perimeter
G1 X109.418 Y121.748 E0.24405 ; perimeter
G1 X109.418 Y120.113 E0.05127 ; perimeter
G1 X109.357 Y120.113 E0.00193 ; perimeter
G1 X109.246 Y119.591 E0.01675 ; perimeter
G1 X108.940 Y118.905 E0.02353 ; perimeter
G1 X108.499 Y118.298 E0.02353 ; perimeter
G1 X107.942 Y117.796 E0.02353 ; perimeter
G1 X107.291 Y117.420 E0.02354 ; perimeter
G1 X106.578 Y117.189 E0.02353 ; perimeter
G1 X105.831 Y117.110 E0.02353 ; perimeter
G1 X105.085 Y117.188 E0.02353 ; perimeter
G1 X104.371 Y117.420 E0.02354 ; perimeter
G1 X103.727 Y117.792 E0.02332 ; perimeter
G1 X103.163 Y118.297 E0.02373 ; perimeter
G1 X102.722 Y118.905 E0.02355 ; perimeter
G1 X102.417 Y119.591 E0.02353 ; perimeter
G1 X102.305 Y120.113 E0.01675 ; perimeter
G1 X102.244 Y120.113 E0.00193 ; perimeter
G1 X102.244 Y121.748 E0.05127 ; perimeter
G1 X94.960 Y121.748 E0.22838 ; perimeter
G1 X94.960 Y115.773 E0.18735 ; perimeter
G1 X94.583 Y116.090 F7200.000 ; move to first perimeter point
G1 F1800
G1 X91.583 Y116.090 E0.09406 ; perimeter
G1 X91.583 Y100.452 E0.49032 ; perimeter
G1 X94.583 Y100.452 E0.09406 ; perimeter
G1 X94.583 Y90.910 E0.29919 ; perimeter
G1 X117.579 Y90.910 E0.72102 ; perimeter
G1 X117.579 Y122.125 E0.97873 ; perimeter
G1 X109.041 Y122.125 E0.26770 ; perimeter
G1 X109.041 Y120.490 E0.05127 ; perimeter
G1 X109.025 Y120.490 E0.00051 ; perimeter
G1 X109.025 Y120.365 E0.00394 ; perimeter
G1 X108.885 Y119.708 E0.02105 ; perimeter
G1 X108.612 Y119.095 E0.02105 ; perimeter
G1 X108.217 Y118.552 E0.02105 ; perimeter
G1 X107.719 Y118.102 E0.02105 ; perimeter
G1 X107.137 Y117.767 E0.02105 ; perimeter
G1 X106.499 Y117.559 E0.02105 ; perimeter
G1 X105.831 Y117.489 E0.02105 ; perimeter
G1 X105.164 Y117.559 E0.02104 ; perimeter
G1 X104.525 Y117.767 E0.02105 ; perimeter
G1 X103.949 Y118.099 E0.02085 ; perimeter
G1 X103.445 Y118.551 E0.02124 ; perimeter
G1 X103.050 Y119.095 E0.02106 ; perimeter
G1 X102.777 Y119.708 E0.02105 ; perimeter
G1 X102.638 Y120.365 E0.02105 ; perimeter
G1 X102.638 Y120.490 E0.00394 ; perimeter
G1 X102.621 Y120.490 E0.00051 ; perimeter
G1 X102.621 Y122.125 E0.05127 ; perimeter
G1 X94.583 Y122.125 E0.25202 ; perimeter
G1 X94.583 Y116.150 E0.18735 ; perimeter
G1 X94.462 Y115.709 F7200.000 ; move inwards before travel
G1 F5760
G1 X92.389 Y116.106 E-0.76000 ; wipe and retract
G1 E-0.04000 F2100.00000 ; retract
G1 Z0.800 F7200.000 ; lift Z
G1 X92.471 Y115.600 F7200.000 ; move to first infill point
G1 Z0.200 F7200.000 ; restore layer Z
G1 E0.80000 F2100.00000 ; unretract
G1 F1800
G1 X92.243 Y115.372 E0.01013 ; infill
G1 X92.243 Y114.838 E0.01676 ; infill
G1 X92.835 Y115.430 E0.02630 ; infill
G1 X93.369 Y115.430 E0.01676 ; infill
G1 X92.243 Y114.304 E0.05000 ; infill
G1 X92.243 Y113.770 E0.01676 ; infill
G1 X93.903 Y115.430 E0.07371 ; infill
