; generated by Slic3r 1.37.2.1-prusa3d-linux64 on 2018-10-29 at 13:25:10

; 

; external perimeters extrusion width = 0.42mm
; perimeters extrusion width = 0.45mm
; infill extrusion width = 0.45mm
; solid infill extrusion width = 0.45mm
; top infill extrusion width = 0.42mm
; first layer extrusion width = 0.42mm

M107 ; disable fan
M115 U3.1.0 ; tell printer latest fw version
M83  ; extruder relative mode
M104 S230 ; set extruder temp
M140 S85 ; set bed temp
M190 S85 ; wait for bed temp
M109 S230 ; wait for extruder temp
G28 W ; home all without mesh bed level
G80 ; mesh bed leveling
G1 Y-3.0 F1000.0 ; go outside pritn area
G1 X60.0 E9.0  F1000.0 ; intro line
G1 X100.0 E12.5  F1000.0 ; intro line
G92 E0.0
M900 K45
G21 ; set units to millimeters
G90 ; use absolute coordinates
M83 ; use relative distances for extrusion
;BEFORE_LAYER_CHANGE
;0.2


G1 E-0.80000 F2100.00000 ; retract
G1 Z0.600 F7200.000 ; lift Z
;AFTER_LAYER_CHANGE
;0.2
G1 X46.697 Y90.448 F7200.000 ; move to first skirt point
G1 Z0.200 F7200.000 ; restore layer Z
G1 E0.80000 F2100.00000 ; unretract
M204 S1000 ; adjust acceleration
G1 F1800
G1 X47.261 Y90.098 E0.02083 ; skirt
G1 X47.724 Y89.948 E0.01526 ; skirt
G1 X48.212 Y89.896 E0.01538 ; skirt
G1 X121.725 Y89.896 E2.30493 ; skirt
G1 X122.616 Y90.071 E0.02849 ; skirt
G1 X123.380 Y90.570 E0.02860 ; skirt
G1 X123.897 Y91.317 E0.02849 ; skirt
G1 X124.097 Y92.207 E0.02860 ; skirt
G1 X124.096 Y122.376 E0.94592 ; skirt
G1 X123.977 Y123.022 E0.02060 ; skirt
G1 X123.684 Y123.614 E0.02071 ; skirt
G1 X123.239 Y124.102 E0.02071 ; skirt
G1 X122.680 Y124.448 E0.02060 ; skirt
G1 X122.217 Y124.598 E0.01526 ; skirt
G1 X121.729 Y124.650 E0.01538 ; skirt
G1 X48.183 Y124.650 E2.30601 ; skirt
G1 X47.519 Y124.544 E0.02107 ; skirt
G1 X46.908 Y124.255 E0.02119 ; skirt
G1 X46.404 Y123.805 E0.02119 ; skirt
G1 X46.046 Y123.232 E0.02119 ; skirt
G1 X45.844 Y122.289 E0.03024 ; skirt
G1 X45.845 Y92.185 E0.94389 ; skirt
G1 X45.961 Y91.535 E0.02071 ; skirt
G1 X46.254 Y90.938 E0.02083 ; skirt
G1 X46.657 Y90.493 E0.01883 ; skirt
G1 F5760
G1 X47.261 Y90.098 E-0.25016 ; wipe and retract
G1 F5760
G1 X47.724 Y89.948 E-0.16857 ; wipe and retract
G1 F5760
G1 X48.212 Y89.896 E-0.16988 ; wipe and retract
G1 F5760
G1 X48.707 Y89.896 E-0.17139 ; wipe and retract
G1 E-0.04000 F2100.00000 ; retract
G1 Z0.800 F7200.000 ; lift Z
G1 X48.808 Y92.860 F7200.000 ; move to first perimeter point
G1 Z0.200 F7200.000 ; restore layer Z
G1 E0.80000 F2100.00000 ; unretract
G1 F1800
G1 X121.134 Y92.860 E2.26773 ; perimeter
G1 X121.134 Y121.686 E0.90381 ; perimeter
G1 X48.808 Y121.686 E2.26773 ; perimeter
G1 X48.808 Y92.920 E0.90193 ; perimeter
G1 X48.431 Y92.483 F7200.000 ; move to first perimeter point
G1 F1800
G1 X121.511 Y92.483 E2.29137 ; perimeter
G1 X121.511 Y122.063 E0.92746 ; perimeter
G1 X48.431 Y122.063 E2.29137 ; perimeter
G1 X48.431 Y92.543 E0.92558 ; perimeter
G1 X48.827 Y92.534 F7200.000 ; move inwards before travel
G1 F5760
G1 X50.625 Y92.541 E-0.76000 ; wipe and retract
G1 E-0.04000 F2100.00000 ; retract
G1 Z0.800 F7200.000 ; lift Z
G1 X49.687 Y121.573 F7200.000 ; move to first infill point
G1 Z0.200 F7200.000 ; restore layer Z
G1 E0.80000 F2100.00000 ; unretract
G1 F1800
G1 X49.091 Y120.976 E0.02660 ; infill
G1 X49.091 Y120.440 E0.01689 ; infill
G1 X50.054 Y121.403 E0.04293 ; infill
G1 X50.590 Y121.403 E0.01689 ; infill
G1 X49.091 Y119.904 E0.06682 ; infill
G1 X49.091 Y119.368 E0.01689 ; infill
G1 X51.126 Y121.403 E0.09071 ; infill
G1 X51.662 Y121.403 E0.01689 ; infill
G1 X49.091 Y118.832 E0.11460 ; infill
G1 X49.091 Y118.296 E0.01689 ; infill
G1 X52.198 Y121.403 E0.13849 ; infill
G1 X52.734 Y121.403 E0.01689 ; infill
G1 X49.091 Y117.760 E0.16238 ; infill
G1 X49.091 Y117.224 E0.01689 ; infill
G1 X53.270 Y121.403 E0.18628 ; infill
G1 X53.806 Y121.403 E0.01689 ; infill
G1 X49.091 Y116.688 E0.21017 ; infill
G1 X49.091 Y116.152 E0.01689 ; infill
G1 X54.342 Y121.403 E0.23406 ; infill
G1 X54.878 Y121.403 E0.01689 ; infill
G1 X49.091 Y115.616 E0.25795 ; infill
G1 X49.091 Y115.080 E0.01689 ; infill
G1 X55.414 Y121.403 E0.28184 ; infill
G1 X55.950 Y121.403 E0.01689 ; infill
G1 X49.091 Y114.544 E0.30574 ; infill
G1 X49.091 Y114.007 E0.01689 ; infill
G1 X56.486 Y121.403 E0.32963 ; infill
G1 X57.022 Y121.403 E0.01689 ; infill
G1 X49.091 Y113.471 E0.35352 ; infill
G1 X49.091 Y112.935 E0.01689 ; infill
G1 X57.558 Y121.403 E0.37741 ; infill
G1 X58.094 Y121.403 E0.01689 ; infill
G1 X49.091 Y112.399 E0.40130 ; infill
G1 X49.091 Y111.863 E0.01689 ; infill
G1 X58.630 Y121.403 E0.42520 ; infill
G1 X59.166 Y121.403 E0.01689 ; infill
G1 X49.091 Y111.327 E0.44909 ; infill
G1 X49.091 Y110.791 E0.01689 ; infill
G1 X59.702 Y121.403 E0.47298 ; infill
G1 X60.238 Y121.403 E0.01689 ; infill
G1 X49.091 Y110.255 E0.49687 ; infill
G1 X49.091 Y109.719 E0.01689 ; infill
G1 X60.774 Y121.403 E0.52076 ; infill
G1 X61.310 Y121.403 E0.01689 ; infill
G1 X49.091 Y109.183 E0.54466 ; infill
G1 X49.091 Y108.647 E0.01689 ; infill
G1 X61.846 Y121.403 E0.56855 ; infill
G1 X62.383 Y121.403 E0.01689 ; infill
G1 X49.091 Y108.111 E0.59244 ; infill
G1 X49.091 Y107.575 E0.01689 ; infill
G1 X62.919 Y121.403 E0.61633 ; infill
G1 X63.455 Y121.403 E0.01689 ; infill
G1 X49.091 Y107.039 E0.64022 ; infill
G1 X49.091 Y106.503 E0.01689 ; infill
G1 X63.991 Y121.403 E0.66411 ; infill
G1 X64.527 Y121.403 E0.01689 ; infill
G1 X49.091 Y105.967 E0.68801 ; infill
G1 X49.091 Y105.431 E0.01689 ; infill
G1 X65.063 Y121.403 E0.71190 ; infill
G1 X65.599 Y121.403 E0.01689 ; infill
G1 X49.091 Y104.895 E0.73579 ; infill
G1 X49.091 Y104.359 E0.01689 ; infill
G1 X66.135 Y121.403 E0.75968 ; infill
G1 X66.671 Y121.403 E0.01689 ; infill
G1 X49.091 Y103.823 E0.78357 ; infill
G1 X49.091 Y103.287 E0.01689 ; infill
G1 X67.207 Y121.403 E0.80747 ; infill
G1 X67.743 Y121.403 E0.01689 ; infill
G1 X49.091 Y102.751 E0.83136 ; infill
G1 X49.091 Y102.215 E0.01689 ; infill
G1 X68.279 Y121.403 E0.85525 ; infill
G1 X68.815 Y121.403 E0.01689 ; infill
G1 X49.091 Y101.679 E0.87914 ; infill
G1 X49.091 Y101.143 E0.01689 ; infill
G1 X69.351 Y121.403 E0.90303 ; infill
G1 X69.887 Y121.403 E0.01689 ; infill
G1 X49.091 Y100.607 E0.92693 ; infill
G1 X49.091 Y100.071 E0.01689 ; infill
G1 X70.423 Y121.403 E0.95082 ; infill
G1 X70.959 Y121.403 E0.01689 ; infill
G1 X49.091 Y99.535 E0.97471 ; infill
G1 X49.091 Y98.999 E0.01689 ; infill
G1 X71.495 Y121.403 E0.99860 ; infill
G1 X72.031 Y121.403 E0.01689 ; infill
G1 X49.091 Y98.462 E1.02249 ; infill
G1 X49.091 Y97.926 E0.01689 ; infill
G1 X72.567 Y121.403 E1.04638 ; infill
G1 X73.103 Y121.403 E0.01689 ; infill
G1 X49.091 Y97.390 E1.07028 ; infill
G1 X49.091 Y96.854 E0.01689 ; infill
G1 X73.639 Y121.403 E1.09417 ; infill
G1 X74.175 Y121.403 E0.01689 ; infill
G1 X49.091 Y96.318 E1.11806 ; infill
G1 X49.091 Y95.782 E0.01689 ; infill
G1 X74.711 Y121.403 E1.14195 ; infill
G1 X75.247 Y121.403 E0.01689 ; infill
G1 X49.091 Y95.246 E1.16584 ; infill
G1 X49.091 Y94.710 E0.01689 ; infill
G1 X75.783 Y121.403 E1.18974 ; infill
G1 X76.319 Y121.403 E0.01689 ; infill
G1 X49.091 Y94.174 E1.21363 ; infill
G1 X49.091 Y93.638 E0.01689 ; infill
G1 X76.855 Y121.403 E1.23752 ; infill
G1 X77.391 Y121.403 E0.01689 ; infill
G1 X49.131 Y93.143 E1.25960 ; infill
G1 X49.667 Y93.143 E0.01689 ; infill
G1 X77.928 Y121.403 E1.25960 ; infill
G1 X78.464 Y121.403 E0.01689 ; infill
G1 X50.203 Y93.143 E1.25960 ; infill
G1 X50.739 Y93.143 E0.01689 ; infill
G1 X79.000 Y121.403 E1.25960 ; infill
G1 X79.536 Y121.403 E0.01689 ; infill
G1 X51.275 Y93.143 E1.25960 ; infill
G1 X51.811 Y93.143 E0.01689 ; infill
G1 X80.072 Y121.403 E1.25960 ; infill
G1 X80.608 Y121.403 E0.01689 ; infill
G1 X52.347 Y93.143 E1.25960 ; infill
G1 X52.883 Y93.143 E0.01689 ; infill
G1 X81.144 Y121.403 E1.25960 ; infill
G1 X81.680 Y121.403 E0.01689 ; infill
G1 X53.419 Y93.143 E1.25960 ; infill
G1 X53.956 Y93.143 E0.01689 ; infill
G1 X82.216 Y121.403 E1.25960 ; infill
G1 X82.752 Y121.403 E0.01689 ; infill
G1 X54.492 Y93.143 E1.25960 ; infill
G1 X55.028 Y93.143 E0.01689 ; infill
G1 X83.288 Y121.403 E1.25960 ; infill
G1 X83.824 Y121.403 E0.01689 ; infill
G1 X55.564 Y93.143 E1.25960 ; infill
G1 X56.100 Y93.143 E0.01689 ; infill
G1 X84.360 Y121.403 E1.25960 ; infill
G1 X84.896 Y121.403 E0.01689 ; infill
G1 X56.636 Y93.143 E1.25960 ; infill
G1 X57.172 Y93.143 E0.01689 ; infill
G1 X85.432 Y121.403 E1.25960 ; infill
G1 X85.968 Y121.403 E0.01689 ; infill
G1 X57.708 Y93.143 E1.25960 ; infill
G1 X58.244 Y93.143 E0.01689 ; infill
G1 X86.504 Y121.403 E1.25960 ; infill
G1 X87.040 Y121.403 E0.01689 ; infill
G1 X58.780 Y93.143 E1.25960 ; infill
G1 X59.316 Y93.143 E0.01689 ; infill
G1 X87.576 Y121.403 E1.25960 ; infill
G1 X88.112 Y121.403 E0.01689 ; infill
G1 X59.852 Y93.143 E1.25960 ; infill
G1 X60.388 Y93.143 E0.01689 ; infill
G1 X88.648 Y121.403 E1.25960 ; infill
G1 X89.184 Y121.403 E0.01689 ; infill
G1 X60.924 Y93.143 E1.25960 ; infill
G1 X61.460 Y93.143 E0.01689 ; infill
G1 X89.720 Y121.403 E1.25960 ; infill
G1 X90.256 Y121.403 E0.01689 ; infill
G1 X61.996 Y93.143 E1.25960 ; infill
G1 X62.532 Y93.143 E0.01689 ; infill
G1 X90.792 Y121.403 E1.25960 ; infill
G1 X91.328 Y121.403 E0.01689 ; infill
G1 X63.068 Y93.143 E1.25960 ; infill
G1 X63.604 Y93.143 E0.01689 ; infill
G1 X91.864 Y121.403 E1.25960 ; infill
G1 X92.400 Y121.403 E0.01689 ; infill
G1 X64.140 Y93.143 E1.25960 ; infill
G1 X64.676 Y93.143 E0.01689 ; infill
G1 X92.937 Y121.403 E1.25960 ; infill
G1 X93.473 Y121.403 E0.01689 ; infill
G1 X65.212 Y93.143 E1.25960 ; infill
G1 X65.748 Y93.143 E0.01689 ; infill
G1 X94.009 Y121.403 E1.25960 ; infill
G1 X94.545 Y121.403 E0.01689 ; infill
G1 X66.284 Y93.143 E1.25960 ; infill
G1 X66.820 Y93.143 E0.01689 ; infill
G1 X95.081 Y121.403 E1.25960 ; infill
G1 X95.617 Y121.403 E0.01689 ; infill
G1 X67.356 Y93.143 E1.25960 ; infill
G1 X67.892 Y93.143 E0.01689 ; infill
G1 X96.153 Y121.403 E1.25960 ; infill
G1 X96.689 Y121.403 E0.01689 ; infill
G1 X68.428 Y93.143 E1.25960 ; infill
G1 X68.965 Y93.143 E0.01689 ; infill
G1 X97.225 Y121.403 E1.25960 ; infill
G1 X97.761 Y121.403 E0.01689 ; infill
G1 X69.501 Y93.143 E1.25960 ; infill
G1 X70.037 Y93.143 E0.01689 ; infill
G1 X98.297 Y121.403 E1.25960 ; infill
G1 X98.833 Y121.403 E0.01689 ; infill
G1 X70.573 Y93.143 E1.25960 ; infill
G1 X71.109 Y93.143 E0.01689 ; infill
G1 X99.369 Y121.403 E1.25960 ; infill
G1 X99.905 Y121.403 E0.01689 ; infill
G1 X71.645 Y93.143 E1.25960 ; infill
G1 X72.181 Y93.143 E0.01689 ; infill
G1 X100.441 Y121.403 E1.25960 ; infill
G1 X100.977 Y121.403 E0.01689 ; infill
G1 X72.717 Y93.143 E1.25960 ; infill
G1 X73.253 Y93.143 E0.01689 ; infill
G1 X101.513 Y121.403 E1.25960 ; infill
G1 X102.049 Y121.403 E0.01689 ; infill
G1 X73.789 Y93.143 E1.25960 ; infill
G1 X74.325 Y93.143 E0.01689 ; infill
G1 X102.585 Y121.403 E1.25960 ; infill
G1 X103.121 Y121.403 E0.01689 ; infill
G1 X74.861 Y93.143 E1.25960 ; infill
G1 X75.397 Y93.143 E0.01689 ; infill
G1 X103.657 Y121.403 E1.25960 ; infill
G1 X104.193 Y121.403 E0.01689 ; infill
G1 X75.933 Y93.143 E1.25960 ; infill
G1 X76.469 Y93.143 E0.01689 ; infill
G1 X104.729 Y121.403 E1.25960 ; infill
G1 X105.265 Y121.403 E0.01689 ; infill
G1 X77.005 Y93.143 E1.25960 ; infill
G1 X77.541 Y93.143 E0.01689 ; infill
G1 X105.801 Y121.403 E1.25960 ; infill
G1 X106.337 Y121.403 E0.01689 ; infill
G1 X78.077 Y93.143 E1.25960 ; infill
G1 X78.613 Y93.143 E0.01689 ; infill
G1 X106.873 Y121.403 E1.25960 ; infill
G1 X107.409 Y121.403 E0.01689 ; infill
G1 X79.149 Y93.143 E1.25960 ; infill
G1 X79.685 Y93.143 E0.01689 ; infill
G1 X107.945 Y121.403 E1.25960 ; infill
G1 X108.482 Y121.403 E0.01689 ; infill
G1 X80.221 Y93.143 E1.25960 ; infill
G1 X80.757 Y93.143 E0.01689 ; infill
G1 X109.018 Y121.403 E1.25960 ; infill
G1 X109.554 Y121.403 E0.01689 ; infill
G1 X81.293 Y93.143 E1.25960 ; infill
G1 X81.829 Y93.143 E0.01689 ; infill
G1 X110.090 Y121.403 E1.25960 ; infill
G1 X110.626 Y121.403 E0.01689 ; infill
G1 X82.365 Y93.143 E1.25960 ; infill
G1 X82.901 Y93.143 E0.01689 ; infill
G1 X111.162 Y121.403 E1.25960 ; infill
G1 X111.698 Y121.403 E0.01689 ; infill
G1 X83.437 Y93.143 E1.25960 ; infill
G1 X83.973 Y93.143 E0.01689 ; infill
G1 X112.234 Y121.403 E1.25960 ; infill
G1 X112.770 Y121.403 E0.01689 ; infill
G1 X84.510 Y93.143 E1.25960 ; infill
G1 X85.046 Y93.143 E0.01689 ; infill
G1 X113.306 Y121.403 E1.25960 ; infill
G1 X113.842 Y121.403 E0.01689 ; infill
G1 X85.582 Y93.143 E1.25960 ; infill
G1 X86.118 Y93.143 E0.01689 ; infill
G1 X114.378 Y121.403 E1.25960 ; infill
G1 X114.914 Y121.403 E0.01689 ; infill
G1 X86.654 Y93.143 E1.25960 ; infill
G1 X87.190 Y93.143 E0.01689 ; infill
G1 X115.450 Y121.403 E1.25960 ; infill
G1 X115.986 Y121.403 E0.01689 ; infill
G1 X87.726 Y93.143 E1.25960 ; infill
G1 X88.262 Y93.143 E0.01689 ; infill
G1 X116.522 Y121.403 E1.25960 ; infill
G1 X117.058 Y121.403 E0.01689 ; infill
G1 X88.798 Y93.143 E1.25960 ; infill
G1 X89.334 Y93.143 E0.01689 ; infill
G1 X117.594 Y121.403 E1.25960 ; infill
G1 X118.130 Y121.403 E0.01689 ; infill
G1 X89.870 Y93.143 E1.25960 ; infill
G1 X90.406 Y93.143 E0.01689 ; infill
G1 X118.666 Y121.403 E1.25960 ; infill
G1 X119.202 Y121.403 E0.01689 ; infill
G1 X90.942 Y93.143 E1.25960 ; infill
G1 X91.478 Y93.143 E0.01689 ; infill
G1 X119.738 Y121.403 E1.25960 ; infill
G1 X120.274 Y121.403 E0.01689 ; infill
G1 X92.014 Y93.143 E1.25960 ; infill
G1 X92.550 Y93.143 E0.01689 ; infill
G1 X120.810 Y121.403 E1.25960 ; infill
G1 X120.851 Y121.403 E0.00128 ; infill
G1 X120.851 Y120.908 E0.01561 ; infill
G1 X93.086 Y93.143 E1.23752 ; infill
G1 X93.622 Y93.143 E0.01689 ; infill
G1 X120.851 Y120.372 E1.21363 ; infill
G1 X120.851 Y119.835 E0.01689 ; infill
G1 X94.158 Y93.143 E1.18974 ; infill
G1 X94.694 Y93.143 E0.01689 ; infill
G1 X120.851 Y119.299 E1.16584 ; infill
G1 X120.851 Y118.763 E0.01689 ; infill
G1 X95.230 Y93.143 E1.14195 ; infill
G1 X95.766 Y93.143 E0.01689 ; infill
G1 X120.851 Y118.227 E1.11806 ; infill
G1 X120.851 Y117.691 E0.01689 ; infill
G1 X96.302 Y93.143 E1.09417 ; infill
G1 X96.838 Y93.143 E0.01689 ; infill
G1 X120.851 Y117.155 E1.07028 ; infill
G1 X120.851 Y116.619 E0.01689 ; infill
G1 X97.374 Y93.143 E1.04639 ; infill
G1 X97.910 Y93.143 E0.01689 ; infill
G1 X120.851 Y116.083 E1.02249 ; infill
G1 X120.851 Y115.547 E0.01689 ; infill
G1 X98.446 Y93.143 E0.99860 ; infill
G1 X98.982 Y93.143 E0.01689 ; infill
G1 X120.851 Y115.011 E0.97471 ; infill
G1 X120.851 Y114.475 E0.01689 ; infill
G1 X99.519 Y93.143 E0.95082 ; infill
G1 X100.055 Y93.143 E0.01689 ; infill
G1 X120.851 Y113.939 E0.92693 ; infill
G1 X120.851 Y113.403 E0.01689 ; infill
G1 X100.591 Y93.143 E0.90303 ; infill
G1 X101.127 Y93.143 E0.01689 ; infill
G1 X120.851 Y112.867 E0.87914 ; infill
G1 X120.851 Y112.331 E0.01689 ; infill
G1 X101.663 Y93.143 E0.85525 ; infill
G1 X102.199 Y93.143 E0.01689 ; infill
G1 X120.851 Y111.795 E0.83136 ; infill
G1 X120.851 Y111.259 E0.01689 ; infill
G1 X102.735 Y93.143 E0.80747 ; infill
G1 X103.271 Y93.143 E0.01689 ; infill
G1 X120.851 Y110.723 E0.78357 ; infill
G1 X120.851 Y110.187 E0.01689 ; infill
G1 X103.807 Y93.143 E0.75968 ; infill
G1 X104.343 Y93.143 E0.01689 ; infill
G1 X120.851 Y109.651 E0.73579 ; infill
G1 X120.851 Y109.115 E0.01689 ; infill
G1 X104.879 Y93.143 E0.71190 ; infill
G1 X105.415 Y93.143 E0.01689 ; infill
G1 X120.851 Y108.579 E0.68801 ; infill
G1 X120.851 Y108.043 E0.01689 ; infill
G1 X105.951 Y93.143 E0.66411 ; infill
G1 X106.487 Y93.143 E0.01689 ; infill
G1 X120.851 Y107.507 E0.64022 ; infill
G1 X120.851 Y106.971 E0.01689 ; infill
G1 X107.023 Y93.143 E0.61633 ; infill
G1 X107.559 Y93.143 E0.01689 ; infill
G1 X120.851 Y106.435 E0.59244 ; infill
G1 X120.851 Y105.899 E0.01689 ; infill
G1 X108.095 Y93.143 E0.56855 ; infill
G1 X108.631 Y93.143 E0.01689 ; infill
G1 X120.851 Y105.363 E0.54466 ; infill
G1 X120.851 Y104.826 E0.01689 ; infill
G1 X109.167 Y93.143 E0.52076 ; infill
G1 X109.703 Y93.143 E0.01689 ; infill
G1 X120.851 Y104.290 E0.49687 ; infill
G1 X120.851 Y103.754 E0.01689 ; infill
G1 X110.239 Y93.143 E0.47298 ; infill
G1 X110.775 Y93.143 E0.01689 ; infill
G1 X120.851 Y103.218 E0.44909 ; infill
G1 X120.851 Y102.682 E0.01689 ; infill
